; generated by Slic3r 1.2.7 on 2015-05-29 at 17:51:22

; external perimeters extrusion width = 0.50mm
; perimeters extrusion width = 0.72mm
; infill extrusion width = 0.72mm
; solid infill extrusion width = 0.72mm
; top infill extrusion width = 0.72mm

M107
M104 S200 ; set temperature
G28 ; home all axes
G1 Z5 F5000 ; lift nozzle

M109 S200 ; wait for temperature to be reached
G21 ; set units to millimeters
G90 ; use absolute coordinates
M82 ; use absolute distances for extrusion
G92 E0
G1 Z0.350 F7800.000
G1 E-2.00000 F2400.00000
G92 E0
G1 X80.082 Y90.753 F7800.000
G1 E2.00000 F2400.00000
G1 X81.835 Y89.274 E2.07096 F1800.000
G1 X83.987 Y88.481 E2.14192
G1 X85.167 Y88.375 E2.17858
G1 X110.041 Y88.378 E2.94822
G1 X111.083 Y88.444 E2.98054 F1800.000
G1 X111.496 Y88.496 E2.99342
G1 X112.215 Y88.623 E3.01599
G1 X113.227 Y88.883 E3.04832
G1 X113.918 Y89.118 E3.07090
G1 X114.305 Y89.271 E3.08379
G1 X115.250 Y89.716 E3.11609
G1 X115.884 Y90.076 E3.13867
G1 X116.236 Y90.299 E3.15156
G1 X117.081 Y90.913 E3.18387
G1 X117.402 Y91.178 E3.19675
G1 X117.941 Y91.671 E3.21934
G1 X118.656 Y92.432 E3.25166
G1 X118.921 Y92.753 E3.26453
G1 X119.357 Y93.337 E3.28709
G1 X119.917 Y94.219 E3.31942
G1 X120.260 Y94.863 E3.34201
G1 X120.438 Y95.241 E3.35492
G1 X120.822 Y96.211 E3.38719
G1 X120.951 Y96.607 E3.40010
G1 X121.141 Y97.310 E3.42262
G1 X121.337 Y98.338 E3.45500
G1 X121.419 Y99.062 E3.47754
G1 X121.445 Y99.479 E3.49049
G1 X121.455 Y100.207 E3.51299
G1 X121.419 Y100.938 E3.53566
G1 X121.288 Y101.973 E3.56791
G1 X121.210 Y102.384 E3.58086
G1 X121.038 Y103.091 E3.60339
G1 X120.715 Y104.085 E3.63571
G1 X120.438 Y104.759 E3.65828
G1 X120.260 Y105.137 E3.67118
G1 X119.757 Y106.052 E3.70350
G1 X119.534 Y106.403 E3.71639
G1 X119.113 Y106.999 E3.73895
G1 X118.448 Y107.804 E3.77125
G1 X118.163 Y108.107 E3.78414
G1 X117.637 Y108.614 E3.80673
G1 X116.833 Y109.280 E3.83905
G1 X116.236 Y109.701 E3.86163
G1 X115.884 Y109.924 E3.87452
G1 X114.970 Y110.427 E3.90683
G1 X114.306 Y110.729 E3.92939
G1 X113.918 Y110.882 E3.94230
G1 X112.925 Y111.205 E3.97458
G1 X112.522 Y111.308 E3.98748
G1 X111.807 Y111.455 E4.01006
G1 X110.771 Y111.586 E4.04237
G1 X109.833 Y111.625 E4.07140
G1 X85.167 Y111.625 E4.83462
G1 X82.908 Y111.228 E4.90558
G1 X80.920 Y110.085 E4.97654
G1 X79.441 Y108.332 E5.04751
G1 X78.648 Y106.180 E5.11847
G1 X78.542 Y105.000 E5.15512
G1 X78.542 Y95.000 E5.46453
G1 X78.939 Y92.741 E5.53550
G1 X80.045 Y90.818 E5.60414
G1 E3.60414 F2400.00000
G92 E0
G1 X111.629 Y102.830 F7800.000
G1 E2.00000 F2400.00000
G1 X111.067 Y103.116 E2.01952 F1800.000
G1 X110.461 Y103.292 E2.03904
G1 X109.844 Y103.351 E2.05821
G1 X109.584 Y103.342 E2.06627
G1 X109.199 Y103.290 E2.07831
G1 X108.600 Y103.116 E2.09761
G1 X108.037 Y102.830 E2.11713
G1 X107.539 Y102.443 E2.13664
G1 X107.126 Y101.974 E2.15599
G1 X106.900 Y101.618 E2.16904
G1 X106.793 Y101.405 E2.17641
G1 X106.647 Y101.035 E2.18872
G1 X106.541 Y100.623 E2.20190
G1 X106.482 Y100.000 E2.22125
G1 X106.541 Y99.372 E2.24077
G1 X106.717 Y98.766 E2.26029
G1 X107.004 Y98.204 E2.27980
G1 X107.390 Y97.706 E2.29932
G1 X107.863 Y97.289 E2.31884
G1 X108.406 Y96.967 E2.33836
G1 X108.995 Y96.756 E2.35771
G1 X109.413 Y96.676 E2.37089
G1 X109.810 Y96.650 E2.38320 F1800.000
G1 X110.082 Y96.658 E2.39161
G1 X110.468 Y96.710 E2.40367
G1 X111.067 Y96.884 E2.42297
G1 X111.629 Y97.170 E2.44249
G1 X112.128 Y97.557 E2.46201
G1 X112.541 Y98.026 E2.48135
G1 X112.770 Y98.386 E2.49454
G1 X112.951 Y98.772 E2.50774
G1 X113.126 Y99.372 E2.52708
G1 X113.185 Y100.000 E2.54660
G1 X113.126 Y100.628 E2.56612
G1 X112.951 Y101.228 E2.58546
G1 X112.770 Y101.614 E2.59866
G1 X112.541 Y101.974 E2.61185
G1 X112.128 Y102.443 E2.63119
G1 X111.688 Y102.784 E2.64839
G1 X111.634 Y103.330 F7800.000
G1 E0.64839 F2400.00000
G92 E0
G1 X106.717 Y103.400 F7800.000
G1 E2.00000 F2400.00000
G1 X86.766 Y103.400 E2.61728 F1800.000
G1 X86.766 Y96.600 E2.82770
G1 X106.666 Y96.601 E3.44341
G1 X105.944 Y97.531 E3.47986
G1 X105.550 Y98.304 E3.50669
G1 X105.308 Y99.137 E3.53352
G1 X105.226 Y100.000 E3.56035
G1 X105.306 Y100.838 E3.58639
G1 X105.455 Y101.421 E3.60503
G1 X105.651 Y101.916 E3.62150
G1 X105.811 Y102.235 E3.63254
G1 X106.123 Y102.727 E3.65055
G1 X106.667 Y103.344 E3.67601
G1 X108.374 Y104.025 F7800.000
G1 X86.142 Y104.025 E4.36390 F1800.000
G1 X86.142 Y95.975 E4.61299
G1 X108.400 Y95.976 E5.30168
G1 X108.454 Y96.286 E5.31143
G1 X108.139 Y96.399 E5.32178
G1 X107.494 Y96.781 E5.34496
G1 X106.933 Y97.276 E5.36813
G1 X106.474 Y97.868 E5.39130
G1 X106.134 Y98.535 E5.41448
G1 X105.925 Y99.254 E5.43765
G1 X105.854 Y100.000 E5.46082
G1 X105.923 Y100.730 E5.48352
G1 X106.051 Y101.228 E5.49943
G1 X106.222 Y101.661 E5.51382
G1 X106.355 Y101.927 E5.52303
G1 X106.624 Y102.351 E5.53856
G1 X107.109 Y102.901 E5.56125
G1 X107.701 Y103.360 E5.58443
G1 X108.443 Y103.738 E5.61018
G1 X108.391 Y103.952 E5.61701
G1 X85.517 Y104.650 F7800.000
G1 X85.517 Y95.350 E5.90476 F1800.000
G1 X109.850 Y95.351 E6.65765
G1 X110.421 Y95.388 E6.67538
G1 X110.984 Y95.495 E6.69312
G1 X111.545 Y95.677 E6.71135
G1 X112.078 Y95.928 E6.72959
G1 X112.320 Y96.071 E6.73829
G1 X112.797 Y96.418 E6.75652
G1 X113.227 Y96.821 E6.77476
G1 X113.413 Y97.032 E6.78346
G1 X113.747 Y97.491 E6.80105
G1 X114.038 Y98.016 E6.81959
G1 X114.246 Y98.538 E6.83700
G1 X114.400 Y99.130 E6.85591
G1 X114.474 Y99.714 E6.87412
G1 X114.483 Y100.000 E6.88299
G1 X114.474 Y100.286 E6.89186
G1 X114.400 Y100.871 E6.91009
G1 X114.255 Y101.437 E6.92816
G1 X114.038 Y101.985 E6.94639
G1 X113.762 Y102.487 E6.96412
G1 X113.412 Y102.968 E6.98253
G1 X113.227 Y103.179 E6.99123
G1 X112.797 Y103.582 E7.00946
G1 X112.320 Y103.929 E7.02770
G1 X112.078 Y104.072 E7.03640
G1 X111.545 Y104.323 E7.05463
G1 X110.984 Y104.505 E7.07287
G1 X110.710 Y104.566 E7.08157
G1 X110.120 Y104.641 E7.09997
G1 X109.828 Y104.650 E7.10901
G1 X85.592 Y104.650 E7.85891
G1 X85.767 Y104.217 F7800.000
G1 X87.134 Y102.728 F7800.000
G1 X87.439 Y103.033 E7.87238 F1800.000
G1 X88.331 Y103.033 E7.90023
G1 X87.134 Y101.836 E7.95308
G1 X87.134 Y100.944 E7.98092
G1 X89.222 Y103.033 E8.07315
G1 X90.114 Y103.033 E8.10099
G1 X87.134 Y100.052 E8.23260
G1 X87.134 Y99.161 E8.26045
G1 X91.006 Y103.033 E8.43143
G1 X91.898 Y103.033 E8.45928
G1 X87.134 Y98.269 E8.66964
G1 X87.134 Y97.377 E8.69748
G1 X92.790 Y103.033 E8.94723
G1 X93.681 Y103.033 E8.97507
G1 X87.616 Y96.967 E9.24291
G1 X88.507 Y96.967 E9.27076
G1 X94.573 Y103.033 E9.53860
G1 X95.465 Y103.033 E9.56645
G1 X89.399 Y96.967 E9.83429
G1 X90.291 Y96.967 E9.86213
G1 X96.357 Y103.033 E10.12997
G1 X97.249 Y103.033 E10.15781
G1 X91.183 Y96.967 E10.42565
G1 X92.075 Y96.967 E10.45350
G1 X98.140 Y103.033 E10.72133
G1 X99.032 Y103.033 E10.74918
G1 X92.967 Y96.967 E11.01701
G1 X93.858 Y96.967 E11.04486
G1 X99.924 Y103.033 E11.31269
G1 X100.816 Y103.033 E11.34054
G1 X94.750 Y96.967 E11.60837
G1 X95.642 Y96.967 E11.63621
G1 X101.707 Y103.033 E11.90404
G1 X102.599 Y103.033 E11.93189
G1 X96.534 Y96.967 E12.19972
G1 X97.426 Y96.968 E12.22756
G1 X103.491 Y103.033 E12.49539
G1 X104.383 Y103.033 E12.52324
G1 X98.317 Y96.968 E12.79106
G1 X99.209 Y96.968 E12.81891
G1 X105.275 Y103.033 E13.08673
G1 X105.287 Y102.154 E13.11419
G1 X100.101 Y96.968 E13.34319
G1 X100.993 Y96.968 E13.37103
G1 X104.930 Y100.905 E13.54487
G1 X104.874 Y99.956 E13.57453
G1 X101.885 Y96.968 E13.70650
G1 X102.777 Y96.968 E13.73435
G1 X104.956 Y99.147 E13.83057
G1 X105.156 Y98.456 E13.85304
G1 X103.668 Y96.968 E13.91875
G1 X104.560 Y96.968 E13.94659
G1 X105.428 Y97.835 E13.98490
G1 X105.452 Y96.968 E14.01200
G1 X105.751 Y97.267 E14.02522
G1 X108.734 Y96.072 F7800.000
G1 X109.307 Y96.017 E14.05304 F1800.000
G1 X109.814 Y96.000 E14.07750
G1 X110.152 Y96.016 E14.09383
G1 X110.627 Y96.080 E14.11698
G1 X111.335 Y96.294 E14.15267
G1 X111.964 Y96.614 E14.18674
G1 X112.379 Y96.923 E14.21173
G1 X112.755 Y97.278 E14.23669
G1 X113.041 Y97.618 E14.25814
G1 X113.328 Y98.055 E14.28337
G1 X113.443 Y98.285 E14.29578
G1 X113.624 Y98.742 E14.31953
G1 X113.763 Y99.252 E14.34506
G1 X113.835 Y100.000 E14.38131
G1 X113.763 Y100.750 E14.41766
G1 X113.631 Y101.234 E14.44189
G1 X113.443 Y101.716 E14.46687
G1 X113.328 Y101.945 E14.47925
G1 X113.041 Y102.382 E14.50448
G1 X112.755 Y102.722 E14.52592
G1 X112.379 Y103.077 E14.55089
G1 X111.964 Y103.386 E14.57588
G1 X111.335 Y103.706 E14.60995
G1 X110.598 Y103.927 E14.64706
G1 X109.844 Y104.000 E14.68366
G1 X108.715 Y103.941 E14.73819
G1 Z0.650 F7800.000
G1 X106.130 Y100.814 F7800.000
G1 X106.067 Y100.474 E14.74779 F900.000
G1 X106.036 Y99.987 E14.76134
G1 X106.102 Y99.288 E14.78085
G1 X106.301 Y98.602 E14.80071
G1 X106.626 Y97.965 E14.82057
G1 X107.064 Y97.400 E14.84043
G1 X107.601 Y96.927 E14.86029
G1 X108.216 Y96.563 E14.88015
G1 X108.877 Y96.325 E14.89966
G1 X109.356 Y96.234 E14.91320
G1 X109.767 Y96.206 E14.92465 F900.000
G1 X110.079 Y96.212 E14.93332
G1 X110.557 Y96.272 E14.94671
G1 X111.232 Y96.468 E14.96622
G1 X111.869 Y96.793 E14.98608
G1 X112.434 Y97.231 E15.00594
G1 X112.898 Y97.758 E15.02545
G1 X113.160 Y98.171 E15.03904
G1 X113.369 Y98.614 E15.05264
G1 X113.565 Y99.288 E15.07215
G1 X113.632 Y100.000 E15.09200
G1 X113.565 Y100.712 E15.11186
G1 X113.369 Y101.386 E15.13137
G1 X113.160 Y101.829 E15.14497
G1 X112.898 Y102.242 E15.15856
G1 X112.434 Y102.769 E15.17807
G1 X111.869 Y103.207 E15.19793
G1 X111.232 Y103.532 E15.21779
G1 X110.545 Y103.731 E15.23765
G1 X109.833 Y103.799 E15.25751
G1 X109.122 Y103.731 E15.27737
G1 X108.435 Y103.532 E15.29723
G1 X107.798 Y103.207 E15.31709
G1 X107.233 Y102.769 E15.33695
G1 X106.760 Y102.233 E15.35681
G1 X106.403 Y101.628 E15.37632
G1 X106.225 Y101.180 E15.38971
G1 X106.144 Y100.887 E15.39814
G1 X106.666 Y100.714 F7800.000
G1 X106.608 Y100.407 E15.40392 F900.000
G1 X106.583 Y99.996 E15.41153
G1 X106.640 Y99.391 E15.42277
G1 X106.811 Y98.803 E15.43409
G1 X107.088 Y98.258 E15.44540
G1 X107.463 Y97.774 E15.45671
G1 X107.922 Y97.370 E15.46803
G1 X108.449 Y97.058 E15.47934
G1 X109.021 Y96.852 E15.49058
G1 X109.425 Y96.775 E15.49819
G1 X109.780 Y96.751 E15.50476 F900.000
G1 X110.040 Y96.756 E15.50956
G1 X110.446 Y96.808 E15.51714
G1 X111.030 Y96.977 E15.52838
G1 X111.575 Y97.255 E15.53969
G1 X112.059 Y97.630 E15.55101
G1 X112.461 Y98.086 E15.56225
G1 X112.682 Y98.434 E15.56987
G1 X112.857 Y98.807 E15.57749
G1 X113.027 Y99.391 E15.58873
G1 X113.084 Y100.000 E15.60004
G1 X113.027 Y100.609 E15.61135
G1 X112.857 Y101.193 E15.62259
G1 X112.682 Y101.566 E15.63021
G1 X112.461 Y101.914 E15.63783
G1 X112.059 Y102.370 E15.64907
G1 X111.575 Y102.745 E15.66039
G1 X111.030 Y103.023 E15.67170
G1 X110.443 Y103.194 E15.68301
G1 X109.833 Y103.251 E15.69433
G1 X109.224 Y103.194 E15.70564
G1 X108.637 Y103.023 E15.71695
G1 X108.091 Y102.745 E15.72827
G1 X107.608 Y102.370 E15.73958
G1 X107.203 Y101.911 E15.75089
G1 X106.894 Y101.388 E15.76213
G1 X106.743 Y101.007 E15.76971
G1 X106.682 Y100.787 E15.77392
G1 X106.368 Y100.617 F7800.000
G1 X107.049 Y103.550 F7800.000
G1 X86.616 Y103.550 E16.34150 F3600.000
G1 X86.616 Y96.450 E16.53875
G1 X107.150 Y96.452 E17.10912
G1 X106.585 Y96.950 E17.13004
G1 X106.071 Y97.612 E17.15333
G1 X105.690 Y98.360 E17.17663
G1 X105.456 Y99.165 E17.19993
G1 X105.379 Y99.977 E17.22259
G1 X105.416 Y100.555 E17.23866
G1 X105.504 Y101.027 E17.25200
G1 X105.604 Y101.389 E17.26243
G1 X105.813 Y101.917 E17.27822
G1 X106.228 Y102.619 E17.30088
G1 X107.000 Y103.494 E17.33328
G1 X85.962 Y104.205 F7800.000
G1 X85.962 Y95.795 E17.56688 F3600.000
G1 X109.885 Y95.798 E18.23142
G1 X110.371 Y95.830 E18.24495
G1 X110.867 Y95.925 E18.25897
G1 X111.381 Y96.092 E18.27398
G1 X111.870 Y96.322 E18.28899
G1 X112.076 Y96.444 E18.29563
G1 X112.513 Y96.761 E18.31064
G1 X112.907 Y97.131 E18.32565
G1 X113.065 Y97.311 E18.33230
G1 X113.390 Y97.758 E18.34766
G1 X113.632 Y98.199 E18.36163
G1 X113.831 Y98.701 E18.37664
G1 X113.962 Y99.212 E18.39130
G1 X114.030 Y99.748 E18.40631
G1 X114.038 Y100.000 E18.41330
G1 X114.030 Y100.252 E18.42029
G1 X113.962 Y100.788 E18.43530
G1 X113.831 Y101.299 E18.44997
G1 X113.632 Y101.801 E18.46498
G1 X113.390 Y102.242 E18.47895
G1 X113.065 Y102.689 E18.49431
G1 X112.907 Y102.869 E18.50095
G1 X112.513 Y103.239 E18.51596
G1 X112.076 Y103.556 E18.53097
G1 X111.870 Y103.678 E18.53761
G1 X111.381 Y103.908 E18.55262
G1 X110.867 Y104.075 E18.56764
G1 X110.633 Y104.127 E18.57428
G1 X110.085 Y104.197 E18.58964
G1 X109.821 Y104.205 E18.59697
G1 X86.037 Y104.205 E19.25764
G1 X85.417 Y104.750 F7800.000
G1 X85.417 Y95.250 E19.43328 F1800.000
G1 X109.903 Y95.252 E19.88600
G1 X110.432 Y95.288 E19.89579
G1 X111.011 Y95.398 E19.90669
G1 X111.582 Y95.584 E19.91779
G1 X112.125 Y95.840 E19.92889
G1 X112.375 Y95.988 E19.93426
G1 X112.861 Y96.340 E19.94536
G1 X113.298 Y96.751 E19.95646
G1 X113.491 Y96.969 E19.96183
G1 X113.846 Y97.458 E19.97300
G1 X114.129 Y97.974 E19.98389
G1 X114.350 Y98.532 E19.99499
G1 X114.499 Y99.110 E20.00601
G1 X114.574 Y99.706 E20.01711
G1 X114.583 Y100.000 E20.02256
G1 X114.574 Y100.294 E20.02800
G1 X114.499 Y100.890 E20.03910
G1 X114.350 Y101.468 E20.05013
G1 X114.129 Y102.026 E20.06123
G1 X113.846 Y102.542 E20.07211
G1 X113.491 Y103.031 E20.08328
G1 X113.298 Y103.249 E20.08866
G1 X112.861 Y103.660 E20.09976
G1 X112.375 Y104.012 E20.11086
G1 X112.125 Y104.160 E20.11623
G1 X111.582 Y104.416 E20.12733
G1 X111.011 Y104.602 E20.13843
G1 X110.727 Y104.665 E20.14380
G1 X110.128 Y104.741 E20.15497
G1 X109.829 Y104.750 E20.16049
G1 X85.492 Y104.750 E20.61045
G1 X85.667 Y104.317 F7800.000
G1 X87.322 Y96.838 F7800.000
G1 X87.004 Y97.155 E20.62325 F1200.000
G1 X87.004 Y98.105 E20.65030
G1 X88.271 Y96.838 E20.70134
G1 X89.220 Y96.838 E20.72839
G1 X87.004 Y99.054 E20.81768
G1 X87.004 Y100.003 E20.84473
G1 X90.169 Y96.838 E20.97227
G1 X91.119 Y96.838 E20.99932
G1 X87.004 Y100.953 E21.16510
G1 X87.004 Y101.902 E21.19215
G1 X92.068 Y96.838 E21.39619
G1 X93.017 Y96.838 E21.42323
G1 X87.004 Y102.851 E21.66552
G1 X87.642 Y103.163 E21.68574
G1 X93.967 Y96.838 E21.94056
G1 X94.916 Y96.838 E21.96761
G1 X88.591 Y103.163 E22.22243
G1 X89.541 Y103.163 E22.24947
G1 X95.865 Y96.838 E22.50429
G1 X96.814 Y96.839 E22.53133
G1 X90.490 Y103.163 E22.78614
G1 X91.440 Y103.163 E22.81319
G1 X97.764 Y96.839 E23.06800
G1 X98.713 Y96.839 E23.09504
G1 X92.389 Y103.163 E23.34985
G1 X93.338 Y103.163 E23.37689
G1 X99.662 Y96.839 E23.63169
G1 X100.611 Y96.839 E23.65874
G1 X94.288 Y103.163 E23.91353
G1 X95.237 Y103.163 E23.94058
G1 X101.561 Y96.839 E24.19537
G1 X102.510 Y96.839 E24.22242
G1 X96.186 Y103.163 E24.47720
G1 X97.136 Y103.163 E24.50425
G1 X103.459 Y96.839 E24.75903
G1 X104.408 Y96.839 E24.78608
G1 X98.085 Y103.163 E25.04086
G1 X99.034 Y103.163 E25.06791
G1 X105.358 Y96.839 E25.32268
G1 X105.563 Y97.584 E25.34468
G1 X99.984 Y103.163 E25.56946
G1 X100.933 Y103.163 E25.59651
G1 X105.066 Y99.030 E25.76302
G1 X105.003 Y100.042 E25.79190
G1 X101.882 Y103.163 E25.91765
G1 X102.832 Y103.163 E25.94470
G1 X105.107 Y100.888 E26.03636
G1 X105.323 Y101.621 E26.05814
G1 X103.781 Y103.163 E26.12027
G1 X104.730 Y103.163 E26.14731
G1 X105.628 Y102.265 E26.18348
G1 X105.992 Y102.851 E26.20312
G1 X105.680 Y103.163 E26.21569
G1 Z0.950 F7800.000
G1 X106.101 Y100.699 F7800.000
G1 X106.035 Y100.000 E26.23520 F900.000
G1 X106.102 Y99.288 E26.25506
G1 X106.301 Y98.602 E26.27492
G1 X106.626 Y97.965 E26.29478
G1 X107.064 Y97.400 E26.31464
G1 X107.601 Y96.927 E26.33450
G1 X108.216 Y96.563 E26.35436
G1 X108.877 Y96.325 E26.37387
G1 X109.354 Y96.234 E26.38737
G1 X109.735 Y96.207 E26.39798 F900.000
G1 X110.077 Y96.212 E26.40747
G1 X110.557 Y96.272 E26.42092
G1 X111.232 Y96.468 E26.44043
G1 X111.869 Y96.793 E26.46029
G1 X112.434 Y97.231 E26.48015
G1 X112.898 Y97.758 E26.49966
G1 X113.160 Y98.171 E26.51325
G1 X113.369 Y98.614 E26.52684
G1 X113.565 Y99.288 E26.54635
G1 X113.632 Y100.000 E26.56621
G1 X113.565 Y100.712 E26.58607
G1 X113.369 Y101.386 E26.60558
G1 X113.160 Y101.829 E26.61918
G1 X112.898 Y102.242 E26.63277
G1 X112.434 Y102.769 E26.65228
G1 X111.869 Y103.207 E26.67214
G1 X111.232 Y103.532 E26.69200
G1 X110.545 Y103.731 E26.71186
G1 X109.833 Y103.799 E26.73172
G1 X109.122 Y103.731 E26.75158
G1 X108.435 Y103.532 E26.77144
G1 X107.798 Y103.207 E26.79130
