; generated by Slic3r 1.2.7 on 2015-05-30 at 20:06:45

; external perimeters extrusion width = 0.50mm
; perimeters extrusion width = 0.72mm
; infill extrusion width = 0.72mm
; solid infill extrusion width = 0.72mm
; top infill extrusion width = 0.72mm

M107
M104 S200 ; set temperature
G28 ; home all axes
G1 Z5 F5000 ; lift nozzle

M109 S200 ; wait for temperature to be reached
G21 ; set units to millimeters
G90 ; use absolute coordinates
M82 ; use absolute distances for extrusion
G92 E0
G1 Z0.350 F7800.000
G1 E-2.00000 F2400.00000
G92 E0
G1 X77.749 Y90.753 F7800.000
G1 E2.00000 F2400.00000
G1 X79.501 Y89.274 E2.07096 F1800.000
G1 X81.654 Y88.481 E2.14192
G1 X82.833 Y88.375 E2.17858
G1 X112.375 Y88.378 E3.09262
G1 X113.417 Y88.444 E3.12493 F1800.000
G1 X114.140 Y88.545 E3.14752
G1 X114.549 Y88.623 E3.16041
G1 X115.560 Y88.883 E3.19270
G1 X115.956 Y89.012 E3.20559
G1 X116.638 Y89.271 E3.22816
G1 X117.584 Y89.716 E3.26051
G1 X118.218 Y90.076 E3.28306
G1 X118.569 Y90.299 E3.29595
G1 X119.414 Y90.913 E3.32826
G1 X119.735 Y91.178 E3.34114
G1 X120.274 Y91.671 E3.36373
G1 X120.989 Y92.432 E3.39605
G1 X121.446 Y93.000 E3.41859
G1 X121.692 Y93.338 E3.43154
G1 X122.250 Y94.219 E3.46381
G1 X122.581 Y94.839 E3.48556
G1 X122.771 Y95.241 E3.49932
G1 X123.155 Y96.211 E3.53159
G1 X123.371 Y96.907 E3.55415
G1 X123.475 Y97.312 E3.56707
G1 X123.671 Y98.338 E3.59939
G1 X123.752 Y99.062 E3.62193
G1 X123.788 Y99.791 E3.64453
G1 X123.788 Y100.209 E3.65745
G1 X123.752 Y100.938 E3.68005
G1 X123.622 Y101.973 E3.71231
G1 X123.475 Y102.688 E3.73491
G1 X123.371 Y103.093 E3.74784
G1 X123.049 Y104.085 E3.78012
G1 X122.771 Y104.759 E3.80267
G1 X122.594 Y105.137 E3.81558
G1 X122.090 Y106.052 E3.84789
G1 X121.692 Y106.662 E3.87044
G1 X121.446 Y107.001 E3.88340
G1 X120.781 Y107.804 E3.91565
G1 X120.496 Y108.107 E3.92854
G1 X119.971 Y108.614 E3.95112
G1 X119.166 Y109.280 E3.98344
G1 X118.570 Y109.701 E4.00603
G1 X118.218 Y109.924 E4.01892
G1 X117.304 Y110.427 E4.05119
G1 X116.927 Y110.604 E4.06409
G1 X116.252 Y110.882 E4.08667
G1 X115.258 Y111.205 E4.11900
G1 X114.549 Y111.377 E4.14158
G1 X114.140 Y111.455 E4.15447
G1 X113.104 Y111.586 E4.18677
G1 X112.167 Y111.625 E4.21579
G1 X82.833 Y111.625 E5.12341
G1 X80.574 Y111.228 E5.19437
G1 X78.586 Y110.085 E5.26533
G1 X77.107 Y108.332 E5.33630
G1 X76.314 Y106.180 E5.40726
G1 X76.208 Y105.000 E5.44391
G1 X76.208 Y95.000 E5.75332
G1 X76.605 Y92.741 E5.82428
G1 X77.711 Y90.818 E5.89293
G1 E3.89293 F2400.00000
G92 E0
G1 X113.598 Y103.030 F7800.000
G1 E2.00000 F2400.00000
G1 X113.202 Y103.187 E2.01318 F1800.000
G1 X112.817 Y103.286 E2.02549
G1 X112.582 Y103.325 E2.03286
G1 X112.161 Y103.351 E2.04591
G1 X111.539 Y103.292 E2.06526
G1 X110.933 Y103.116 E2.08478
G1 X110.371 Y102.830 E2.10429
G1 X109.872 Y102.443 E2.12381
G1 X109.455 Y101.970 E2.14333
G1 X109.137 Y101.432 E2.16268
G1 X108.980 Y101.035 E2.17587
G1 X108.874 Y100.623 E2.18906
G1 X108.815 Y100.000 E2.20841
G1 X108.874 Y99.372 E2.22793
G1 X109.050 Y98.766 E2.24744
G1 X109.337 Y98.204 E2.26696
G1 X109.723 Y97.706 E2.28648
G1 X110.197 Y97.289 E2.30600
G1 X110.740 Y96.967 E2.32552
G1 X111.328 Y96.756 E2.34486
G1 X111.747 Y96.676 E2.35805
G1 X112.144 Y96.650 E2.37036 F1800.000
G1 X112.382 Y96.656 E2.37773
G1 X112.800 Y96.709 E2.39078
G1 X113.400 Y96.884 E2.41012
G1 X113.962 Y97.170 E2.42964
G1 X114.461 Y97.557 E2.44916
G1 X114.874 Y98.026 E2.46851
G1 X115.103 Y98.386 E2.48170
G1 X115.284 Y98.772 E2.49489
G1 X115.459 Y99.372 E2.51423
G1 X115.518 Y100.000 E2.53375
G1 X115.459 Y100.628 E2.55327
G1 X115.283 Y101.234 E2.57279
G1 X114.996 Y101.796 E2.59231
G1 X114.610 Y102.294 E2.61183
G1 X114.137 Y102.711 E2.63135
G1 X113.663 Y102.992 E2.64837
G1 X113.558 Y103.454 F7800.000
G1 X109.050 Y103.400 F7800.000
G1 X84.433 Y103.400 E3.41005 F1800.000
G1 X84.433 Y96.600 E3.62046
G1 X108.999 Y96.601 E4.38057
G1 X108.277 Y97.531 E4.41702
G1 X107.883 Y98.304 E4.44385
G1 X107.641 Y99.137 E4.47068
G1 X107.560 Y100.000 E4.49751
G1 X107.639 Y100.838 E4.52355
G1 X107.789 Y101.422 E4.54222
G1 X108.011 Y101.983 E4.56089
G1 X108.440 Y102.708 E4.58693
G1 X109.000 Y103.344 E4.61317
G1 X110.776 Y103.738 F7800.000
G1 X110.707 Y104.025 E4.62232 F1800.000
G1 X83.808 Y104.025 E5.45461
G1 X83.808 Y95.975 E5.70369
G1 X110.733 Y95.976 E6.53678
G1 X110.787 Y96.286 E6.54653
G1 X110.472 Y96.399 E6.55688
G1 X109.828 Y96.781 E6.58005
G1 X109.266 Y97.276 E6.60323
G1 X108.807 Y97.868 E6.62640
G1 X108.467 Y98.535 E6.64957
G1 X108.258 Y99.254 E6.67275
G1 X108.187 Y100.000 E6.69592
G1 X108.256 Y100.730 E6.71862
G1 X108.384 Y101.229 E6.73455
G1 X108.574 Y101.708 E6.75047
G1 X108.947 Y102.339 E6.77317
G1 X109.443 Y102.901 E6.79634
G1 X110.035 Y103.360 E6.81952
G1 X110.709 Y103.704 E6.84295
G1 X83.183 Y104.650 F7800.000
G1 X83.183 Y95.350 E7.13071 F1800.000
G1 X112.183 Y95.351 E8.02799
G1 X112.755 Y95.388 E8.04572
G1 X113.033 Y95.432 E8.05443
G1 X113.609 Y95.580 E8.07283
G1 X114.141 Y95.791 E8.09056
G1 X114.658 Y96.074 E8.10880
G1 X115.135 Y96.421 E8.12703
G1 X115.552 Y96.813 E8.14476
G1 X115.932 Y97.271 E8.16317
G1 X116.090 Y97.504 E8.17187
G1 X116.361 Y97.997 E8.18928
G1 X116.591 Y98.569 E8.20835
G1 X116.669 Y98.838 E8.21703
G1 X116.779 Y99.417 E8.23527
G1 X116.816 Y100.006 E8.25350
G1 X116.807 Y100.286 E8.26220
G1 X116.733 Y100.877 E8.28061
G1 X116.672 Y101.151 E8.28931
G1 X116.497 Y101.692 E8.30690
G1 X116.376 Y101.976 E8.31644
G1 X116.090 Y102.496 E8.33482
G1 X115.932 Y102.729 E8.34351
G1 X115.556 Y103.183 E8.36175
G1 X115.130 Y103.582 E8.37981
G1 X114.653 Y103.929 E8.39805
G1 X114.151 Y104.205 E8.41578
G1 X113.603 Y104.422 E8.43401
G1 X113.038 Y104.567 E8.45208
G1 X112.453 Y104.641 E8.47032
G1 X112.161 Y104.650 E8.47935
G1 X83.258 Y104.650 E9.37365
G1 X83.433 Y104.217 F7800.000
G1 X85.105 Y103.033 F7800.000
G1 X84.800 Y102.728 E9.38722 F1800.000
G1 X84.800 Y101.830 E9.41547
G1 X86.004 Y103.033 E9.46899
G1 X86.902 Y103.033 E9.49724
G1 X84.800 Y100.931 E9.59072
G1 X84.800 Y100.033 E9.61897
G1 X87.800 Y103.033 E9.75240
G1 X88.699 Y103.033 E9.78066
G1 X84.800 Y99.135 E9.95404
G1 X84.800 Y98.236 E9.98229
G1 X89.597 Y103.033 E10.19563
G1 X90.495 Y103.033 E10.22388
G1 X84.800 Y97.338 E10.47718
G1 X85.328 Y96.967 E10.49745
G1 X91.393 Y103.033 E10.76725
G1 X92.292 Y103.033 E10.79550
G1 X86.226 Y96.967 E11.06529
G1 X87.124 Y96.967 E11.09354
G1 X93.190 Y103.033 E11.36333
G1 X94.088 Y103.033 E11.39159
G1 X88.023 Y96.967 E11.66138
G1 X88.921 Y96.967 E11.68963
G1 X94.987 Y103.033 E11.95942
G1 X95.885 Y103.033 E11.98767
G1 X89.819 Y96.967 E12.25746
G1 X90.718 Y96.967 E12.28571
G1 X96.783 Y103.033 E12.55549
G1 X97.681 Y103.033 E12.58375
G1 X91.616 Y96.967 E12.85353
G1 X92.514 Y96.967 E12.88178
G1 X98.580 Y103.033 E13.15157
G1 X99.478 Y103.033 E13.17982
G1 X93.412 Y96.967 E13.44960
G1 X94.311 Y96.967 E13.47785
G1 X100.376 Y103.033 E13.74764
G1 X101.275 Y103.033 E13.77589
G1 X95.209 Y96.967 E14.04567
G1 X96.107 Y96.967 E14.07392
G1 X102.173 Y103.033 E14.34370
G1 X103.071 Y103.033 E14.37195
G1 X97.006 Y96.968 E14.64173
G1 X97.904 Y96.968 E14.66998
G1 X103.969 Y103.033 E14.93976
G1 X104.868 Y103.033 E14.96801
G1 X98.802 Y96.968 E15.23778
G1 X99.701 Y96.968 E15.26604
G1 X105.766 Y103.033 E15.53581
G1 X106.664 Y103.033 E15.56406
G1 X100.599 Y96.968 E15.83384
G1 X101.497 Y96.968 E15.86209
G1 X107.562 Y103.033 E16.13186
G1 X107.647 Y102.219 E16.15759
G1 X102.395 Y96.968 E16.39117
G1 X103.294 Y96.968 E16.41942
G1 X107.267 Y100.940 E16.59612
G1 X107.205 Y99.980 E16.62638
G1 X104.192 Y96.968 E16.76038
G1 X105.090 Y96.968 E16.78863
G1 X107.285 Y99.162 E16.88622
G1 X107.487 Y98.466 E16.90902
G1 X105.989 Y96.968 E16.97565
G1 X106.887 Y96.968 E17.00390
G1 X107.759 Y97.840 E17.04269
G1 X107.785 Y96.968 E17.07012
G1 X108.085 Y97.267 E17.08344
G1 X111.067 Y96.072 F7800.000
G1 X111.641 Y96.017 E17.11126 F1800.000
G1 X112.147 Y96.000 E17.13569
G1 X112.682 Y96.037 E17.16162
G1 X112.957 Y96.081 E17.17504
G1 X113.610 Y96.269 E17.20784
G1 X113.853 Y96.379 E17.22073
G1 X114.310 Y96.622 E17.24572
G1 X114.725 Y96.933 E17.27072
G1 X114.928 Y97.106 E17.28360
G1 X115.409 Y97.657 E17.31894
G1 X115.658 Y98.057 E17.34165
G1 X115.771 Y98.276 E17.35358
G1 X115.970 Y98.783 E17.37985
G1 X116.086 Y99.221 E17.40170
G1 X116.128 Y99.500 E17.41532
G1 X116.167 Y100.016 E17.44031
G1 X116.094 Y100.765 E17.47666
G1 X115.889 Y101.465 E17.51185
G1 X115.786 Y101.689 E17.52374
G1 X115.536 Y102.157 E17.54937
G1 X115.103 Y102.714 E17.58344
G1 X114.541 Y103.214 E17.61977
G1 X114.293 Y103.380 E17.63415
G1 X113.884 Y103.613 E17.65687
G1 X113.403 Y103.804 E17.68187
G1 X112.936 Y103.924 E17.70514
G1 X112.638 Y103.967 E17.71967
G1 X112.151 Y104.001 E17.74323
G1 X111.047 Y103.949 E17.79660
G1 Z0.650 F7800.000
G1 X108.434 Y100.699 F7800.000
G1 X108.368 Y100.000 E17.81611 F900.000
G1 X108.435 Y99.288 E17.83597
G1 X108.635 Y98.602 E17.85583
G1 X108.959 Y97.965 E17.87569
G1 X109.398 Y97.400 E17.89555
G1 X109.934 Y96.927 E17.91541
G1 X110.549 Y96.563 E17.93527
G1 X111.210 Y96.325 E17.95478
G1 X111.689 Y96.234 E17.96832
G1 X112.100 Y96.206 E17.97977 F900.000
G1 X112.412 Y96.212 E17.98844
G1 X112.891 Y96.272 E18.00183
G1 X113.565 Y96.468 E18.02134
G1 X114.202 Y96.793 E18.04120
G1 X114.767 Y97.231 E18.06106
G1 X115.231 Y97.758 E18.08057
G1 X115.494 Y98.171 E18.09416
G1 X115.702 Y98.614 E18.10775
G1 X115.898 Y99.288 E18.12726
G1 X115.965 Y100.000 E18.14712
G1 X115.898 Y100.712 E18.16698
G1 X115.699 Y101.398 E18.18684
G1 X115.374 Y102.035 E18.20670
G1 X114.936 Y102.600 E18.22656
G1 X114.399 Y103.073 E18.24642
G1 X113.795 Y103.431 E18.26593
G1 X113.340 Y103.611 E18.27953
G1 X112.866 Y103.733 E18.29312
G1 X112.167 Y103.799 E18.31263
G1 X111.455 Y103.731 E18.33249
G1 X110.768 Y103.532 E18.35235
G1 X110.131 Y103.207 E18.37221
G1 X109.566 Y102.769 E18.39207
G1 X109.094 Y102.233 E18.41193
G1 X108.736 Y101.628 E18.43144
G1 X108.556 Y101.173 E18.44503
G1 X108.453 Y100.772 E18.45654
G1 X108.973 Y100.605 F7800.000
G1 X108.916 Y100.000 E18.46778 F900.000
G1 X108.973 Y99.391 E18.47910
G1 X109.144 Y98.803 E18.49041
G1 X109.422 Y98.258 E18.50172
G1 X109.797 Y97.774 E18.51304
G1 X110.256 Y97.370 E18.52435
G1 X110.782 Y97.058 E18.53566
G1 X111.354 Y96.852 E18.54690
G1 X111.759 Y96.775 E18.55451
G1 X112.114 Y96.751 E18.56109 F900.000
G1 X112.373 Y96.756 E18.56589
G1 X112.780 Y96.808 E18.57346
G1 X113.363 Y96.977 E18.58470
G1 X113.909 Y97.255 E18.59601
G1 X114.392 Y97.630 E18.60733
G1 X114.794 Y98.086 E18.61857
G1 X115.015 Y98.434 E18.62619
G1 X115.191 Y98.807 E18.63381
G1 X115.360 Y99.391 E18.64505
G1 X115.418 Y100.000 E18.65636
G1 X115.360 Y100.609 E18.66768
G1 X115.189 Y101.197 E18.67899
G1 X114.912 Y101.742 E18.69030
G1 X114.537 Y102.226 E18.70161
G1 X114.078 Y102.630 E18.71293
G1 X113.554 Y102.940 E18.72417
G1 X113.171 Y103.091 E18.73179
G1 X112.772 Y103.194 E18.73941
G1 X112.167 Y103.251 E18.75065
G1 X111.557 Y103.194 E18.76196
G1 X110.970 Y103.023 E18.77327
G1 X110.425 Y102.745 E18.78459
G1 X109.941 Y102.370 E18.79590
G1 X109.536 Y101.911 E18.80721
G1 X109.227 Y101.388 E18.81845
G1 X109.075 Y101.004 E18.82607
G1 X108.991 Y100.678 E18.83231
G1 X108.508 Y100.421 F7800.000
G1 X109.383 Y103.550 F7800.000
G1 X84.283 Y103.550 E19.52952 F3600.000
G1 X84.283 Y96.450 E19.72677
G1 X109.483 Y96.452 E20.42677
G1 X108.918 Y96.950 E20.44768
G1 X108.404 Y97.612 E20.47098
G1 X108.024 Y98.360 E20.49428
G1 X107.790 Y99.165 E20.51758
G1 X107.711 Y100.000 E20.54087
G1 X107.787 Y100.812 E20.56353
G1 X107.932 Y101.376 E20.57970
G1 X108.146 Y101.917 E20.59587
G1 X108.562 Y102.619 E20.61853
G1 X109.333 Y103.494 E20.65093
G1 X83.628 Y104.205 F7800.000
G1 X83.628 Y95.795 E20.88454 F3600.000
G1 X112.218 Y95.798 E21.67870
G1 X112.704 Y95.830 E21.69223
G1 X112.942 Y95.868 E21.69892
G1 X113.478 Y96.005 E21.71428
G1 X113.945 Y96.191 E21.72825
G1 X114.419 Y96.451 E21.74326
G1 X114.856 Y96.769 E21.75827
G1 X115.223 Y97.113 E21.77225
G1 X115.567 Y97.529 E21.78726
G1 X115.857 Y97.986 E21.80227
G1 X115.971 Y98.210 E21.80926
G1 X116.071 Y98.441 E21.81625
G1 X116.238 Y98.955 E21.83126
G1 X116.337 Y99.473 E21.84592
G1 X116.371 Y100.013 E21.86093
G1 X116.363 Y100.251 E21.86757
G1 X116.294 Y100.800 E21.88293
G1 X116.242 Y101.033 E21.88957
G1 X116.071 Y101.559 E21.90493
G1 X115.976 Y101.779 E21.91158
G1 X115.710 Y102.263 E21.92694
G1 X115.575 Y102.461 E21.93358
G1 X115.231 Y102.877 E21.94859
G1 X114.846 Y103.239 E21.96325
G1 X114.409 Y103.556 E21.97826
G1 X113.968 Y103.799 E21.99223
G1 X113.466 Y103.998 E22.00724
G1 X112.954 Y104.129 E22.02191
G1 X112.418 Y104.197 E22.03692
G1 X112.154 Y104.205 E22.04425
G1 X83.703 Y104.205 E22.83456
G1 X83.083 Y104.750 F7800.000
G1 X83.083 Y95.250 E23.01019 F1800.000
G1 X112.237 Y95.252 E23.54919
G1 X112.765 Y95.288 E23.55898
G1 X113.053 Y95.334 E23.56437
G1 X113.638 Y95.484 E23.57554
G1 X114.185 Y95.701 E23.58642
G1 X114.712 Y95.990 E23.59752
G1 X115.197 Y96.343 E23.60862
G1 X115.626 Y96.746 E23.61951
G1 X116.009 Y97.208 E23.63061
G1 X116.331 Y97.715 E23.64171
G1 X116.464 Y97.978 E23.64715
G1 X116.581 Y98.248 E23.65259
G1 X116.767 Y98.819 E23.66369
G1 X116.879 Y99.405 E23.67472
G1 X116.916 Y100.004 E23.68582
G1 X116.907 Y100.294 E23.69119
G1 X116.832 Y100.894 E23.70237
G1 X116.768 Y101.177 E23.70774
G1 X116.581 Y101.752 E23.71891
G1 X116.466 Y102.019 E23.72428
G1 X116.175 Y102.548 E23.73545
G1 X116.012 Y102.789 E23.74083
G1 X115.629 Y103.251 E23.75193
G1 X115.194 Y103.660 E23.76295
G1 X114.708 Y104.012 E23.77405
G1 X114.193 Y104.296 E23.78494
G1 X113.634 Y104.517 E23.79604
G1 X113.057 Y104.665 E23.80706
G1 X112.461 Y104.741 E23.81816
G1 X112.163 Y104.750 E23.82368
G1 X83.158 Y104.750 E24.35992
G1 X83.333 Y104.317 F7800.000
G1 X84.671 Y97.155 F7800.000
G1 X84.988 Y96.838 E24.37269 F1200.000
G1 X85.935 Y96.838 E24.39958
G1 X84.671 Y98.102 E24.45039
G1 X84.671 Y99.049 E24.47729
G1 X86.882 Y96.838 E24.56613
G1 X87.828 Y96.838 E24.59303
G1 X84.671 Y99.996 E24.71992
G1 X84.671 Y100.942 E24.74682
G1 X88.775 Y96.838 E24.91174
G1 X89.722 Y96.838 E24.93864
G1 X84.671 Y101.889 E25.14161
G1 X84.671 Y102.836 E25.16851
G1 X90.668 Y96.838 E25.40952
G1 X91.615 Y96.838 E25.43641
G1 X85.291 Y103.163 E25.69055
G1 X86.237 Y103.163 E25.71745
G1 X92.562 Y96.838 E25.97158
G1 X93.509 Y96.838 E25.99848
G1 X87.184 Y103.163 E26.25261
G1 X88.131 Y103.163 E26.27951
G1 X94.455 Y96.838 E26.53363
G1 X95.402 Y96.838 E26.56053
G1 X89.078 Y103.163 E26.81465
G1 X90.024 Y103.163 E26.84156
G1 X96.349 Y96.838 E27.09567
G1 X97.295 Y96.839 E27.12257
G1 X90.971 Y103.163 E27.37669
G1 X91.918 Y103.163 E27.40359
G1 X98.242 Y96.839 E27.65770
G1 X99.189 Y96.839 E27.68460
G1 X92.865 Y103.163 E27.93871
G1 X93.812 Y103.163 E27.96561
G1 X100.135 Y96.839 E28.21972
G1 X101.082 Y96.839 E28.24661
G1 X94.758 Y103.163 E28.50072
G1 X95.705 Y103.163 E28.52762
G1 X102.029 Y96.839 E28.78172
G1 X102.975 Y96.839 E28.80862
G1 X96.652 Y103.163 E29.06271
G1 X97.599 Y103.163 E29.08961
G1 X103.922 Y96.839 E29.34371
G1 X104.869 Y96.839 E29.37061
G1 X98.545 Y103.163 E29.62470
G1 X99.492 Y103.163 E29.65160
G1 X105.816 Y96.839 E29.90568
G1 X106.762 Y96.839 E29.93258
G1 X100.439 Y103.163 E30.18667
G1 X101.386 Y103.163 E30.21357
G1 X107.709 Y96.839 E30.46765
G1 X107.880 Y97.615 E30.49022
G1 X102.333 Y103.163 E30.71312
G1 X103.279 Y103.163 E30.74003
G1 X107.398 Y99.044 E30.90551
G1 X107.338 Y100.050 E30.93415
G1 X104.226 Y103.163 E31.05921
G1 X105.173 Y103.163 E31.08611
G1 X107.440 Y100.896 E31.17720
G1 X107.658 Y101.624 E31.19880
G1 X106.120 Y103.163 E31.26062
G1 X107.066 Y103.163 E31.28752
G1 X107.962 Y102.267 E31.32352
G1 X108.325 Y102.851 E31.34305
G1 X108.013 Y103.163 E31.35558
G1 Z0.950 F7800.000
G1 X108.434 Y100.699 F7800.000
G1 X108.368 Y100.000 E31.37509 F900.000
G1 X108.435 Y99.288 E31.39495
G1 X108.635 Y98.602 E31.41481
G1 X108.959 Y97.965 E31.43467
G1 X109.398 Y97.400 E31.45453
G1 X109.934 Y96.927 E31.47439
G1 X110.549 Y96.563 E31.49425
G1 X111.210 Y96.325 E31.51377
G1 X111.688 Y96.234 E31.52727
G1 X112.069 Y96.207 E31.53788 F900.000
G1 X112.410 Y96.212 E31.54737
G1 X112.891 Y96.272 E31.56081
G1 X113.565 Y96.468 E31.58032
G1 X114.202 Y96.793 E31.60018
G1 X114.767 Y97.231 E31.62004
G1 X115.231 Y97.758 E31.63955
