; generated by Slic3r 1.3.0-dev on 2015-12-30 at 16:16:10

; external perimeters extrusion width = 0.50mm
; perimeters extrusion width = 0.72mm
; infill extrusion width = 0.72mm
; solid infill extrusion width = 0.72mm
; top infill extrusion width = 0.72mm

M107
M104 S200 ; set temperature
G28 ; home all axes
G1 Z5 F5000 ; lift nozzle

M109 S200 ; set temperature and wait for it to be reached
G21 ; set units to millimeters
G90 ; use absolute coordinates
M82 ; use absolute distances for extrusion
G92 E0
G1 Z0.350 F7800.000
G1 E-2.00000 F2400.00000
G92 E0
G1 X82.415 Y90.753 F7800.000
G1 E2.00000 F2400.00000
G1 F1800
G1 X84.168 Y89.274 E2.07096
G1 X86.320 Y88.481 E2.14192
G1 X87.500 Y88.375 E2.17858
G1 X107.708 Y88.378 E2.80383
G1 F1800
G1 X108.750 Y88.444 E2.83615
G1 X109.163 Y88.496 E2.84902
G1 X109.882 Y88.623 E2.87161
G1 X110.894 Y88.883 E2.90393
G1 X111.315 Y89.021 E2.91764
G1 X111.971 Y89.271 E2.93938
G1 X112.917 Y89.716 E2.97170
G1 X113.305 Y89.930 E2.98544
G1 X113.903 Y90.299 E3.00716
G1 X114.748 Y90.913 E3.03947
G1 X115.068 Y91.178 E3.05236
G1 X115.607 Y91.671 E3.07494
G1 X116.321 Y92.431 E3.10722
G1 X116.587 Y92.753 E3.12014
G1 X117.025 Y93.338 E3.14276
G1 X117.584 Y94.219 E3.17502
G1 X117.784 Y94.584 E3.18790
G1 X118.104 Y95.239 E3.21047
G1 X118.489 Y96.211 E3.24280
G1 X118.617 Y96.607 E3.25570
G1 X118.808 Y97.312 E3.27829
G1 X119.004 Y98.336 E3.31055
G1 X119.056 Y98.751 E3.32350
G1 X119.112 Y99.477 E3.34603
G1 X119.112 Y100.523 E3.37838
G1 X119.056 Y101.249 E3.40092
G1 X119.004 Y101.664 E3.41387
G1 X118.808 Y102.688 E3.44613
G1 X118.617 Y103.393 E3.46871
G1 X118.489 Y103.789 E3.48160
G1 X118.104 Y104.761 E3.51394
G1 X117.784 Y105.416 E3.53650
G1 X117.584 Y105.781 E3.54939
G1 X117.025 Y106.662 E3.58165
G1 X116.604 Y107.226 E3.60342
G1 X116.321 Y107.569 E3.61719
G1 X115.607 Y108.329 E3.64946
G1 X115.068 Y108.822 E3.67205
G1 X114.747 Y109.087 E3.68494
G1 X113.903 Y109.701 E3.71724
G1 X113.281 Y110.084 E3.73982
G1 X112.917 Y110.284 E3.75270
G1 X111.972 Y110.729 E3.78501
G1 X111.585 Y110.882 E3.79789
G1 X110.894 Y111.117 E3.82048
G1 X109.882 Y111.377 E3.85279
G1 X109.473 Y111.455 E3.86567
G1 X108.750 Y111.556 E3.88826
G1 X108.022 Y111.612 E3.91085
G1 X107.500 Y111.625 E3.92701
G1 X87.500 Y111.625 E4.54584
G1 X85.241 Y111.228 E4.61680
G1 X83.253 Y110.085 E4.68776
G1 X81.774 Y108.332 E4.75873
G1 X80.981 Y106.180 E4.82969
G1 X80.875 Y105.000 E4.86634
G1 X80.875 Y95.000 E5.17575
G1 X81.272 Y92.741 E5.24671
G1 X82.378 Y90.818 E5.31536
G1 E3.31536 F2400.00000
G92 E0
G1 X109.296 Y102.830 F7800.000
G1 E2.00000 F2400.00000
G1 F1800
G1 X108.734 Y103.116 E2.01952
G1 X108.128 Y103.292 E2.03904
G1 X107.511 Y103.351 E2.05821
G1 X107.251 Y103.342 E2.06627
G1 X106.865 Y103.290 E2.07831
G1 X106.266 Y103.116 E2.09761
G1 X105.709 Y102.832 E2.11695
G1 X105.368 Y102.584 E2.13000
G1 X105.190 Y102.426 E2.13737
G1 X104.918 Y102.136 E2.14968
G1 X104.668 Y101.791 E2.16287
G1 X104.384 Y101.234 E2.18221
G1 X104.208 Y100.628 E2.20173
G1 X104.148 Y100.000 E2.22125
G1 X104.208 Y99.372 E2.24077
G1 X104.384 Y98.766 E2.26029
G1 X104.670 Y98.204 E2.27980
G1 X105.057 Y97.706 E2.29932
G1 X105.530 Y97.289 E2.31884
G1 X106.073 Y96.967 E2.33836
G1 X106.661 Y96.756 E2.35771
G1 X107.080 Y96.676 E2.37089
G1 F1800
G1 X107.477 Y96.650 E2.38320
G1 X107.748 Y96.658 E2.39161
G1 X108.135 Y96.710 E2.40367
G1 X108.734 Y96.884 E2.42297
G1 X109.296 Y97.170 E2.44249
G1 X109.794 Y97.557 E2.46201
G1 X110.211 Y98.030 E2.48152
G1 X110.530 Y98.568 E2.50087
G1 X110.687 Y98.965 E2.51406
G1 X110.793 Y99.378 E2.52725
G1 X110.852 Y100.000 E2.54660
G1 X110.793 Y100.622 E2.56595
G1 X110.687 Y101.035 E2.57914
G1 X110.530 Y101.432 E2.59233
G1 X110.211 Y101.970 E2.61168
G1 X109.794 Y102.443 E2.63119
G1 X109.355 Y102.784 E2.64839
G1 X109.296 Y102.830 F7800.000
G1 E0.64839 F2400.00000
G92 E0
G1 X104.390 Y103.400 F7800.000
G1 E2.00000 F2400.00000
G1 F1800
G1 X89.100 Y103.400 E2.47310
G1 X89.100 Y96.600 E2.68352
G1 X104.332 Y96.601 E3.15483
G1 X103.610 Y97.531 E3.19129
G1 X103.217 Y98.304 E3.21812
G1 X102.975 Y99.137 E3.24495
G1 X102.893 Y100.000 E3.27178
G1 X102.975 Y100.863 E3.29860
G1 X103.217 Y101.696 E3.32543
G1 X103.599 Y102.446 E3.35148
G1 X103.953 Y102.933 E3.37011
G1 X104.339 Y103.345 E3.38759
G1 X106.110 Y103.738 F7800.000
G1 F1800
G1 X106.041 Y104.025 E3.39674
G1 X88.475 Y104.025 E3.94024
G1 X88.475 Y95.975 E4.18932
G1 X106.066 Y95.976 E4.73363
G1 X106.121 Y96.286 E4.74338
G1 X105.806 Y96.399 E4.75373
G1 X105.161 Y96.781 E4.77690
G1 X104.599 Y97.276 E4.80008
G1 X104.140 Y97.868 E4.82325
G1 X103.800 Y98.535 E4.84642
G1 X103.591 Y99.254 E4.86960
G1 X103.521 Y100.000 E4.89277
G1 X103.591 Y100.746 E4.91595
G1 X103.800 Y101.465 E4.93912
G1 X104.133 Y102.118 E4.96182
G1 X104.435 Y102.534 E4.97772
G1 X104.753 Y102.874 E4.99211
G1 X104.976 Y103.072 E5.00132
G1 X105.382 Y103.367 E5.01685
G1 X106.043 Y103.704 E5.03981
G1 X87.850 Y104.650 F7800.000
G1 F1800
G1 X87.850 Y95.350 E5.32756
G1 X107.516 Y95.351 E5.93606
G1 X108.088 Y95.388 E5.95379
G1 X108.676 Y95.502 E5.97234
G1 X109.211 Y95.677 E5.98975
G1 X109.740 Y95.926 E6.00782
G1 X110.237 Y96.242 E6.02606
G1 X110.679 Y96.607 E6.04379
G1 X111.086 Y97.040 E6.06219
G1 X111.258 Y97.263 E6.07089
G1 X111.577 Y97.765 E6.08930
G1 X111.705 Y98.016 E6.09800
G1 X111.913 Y98.538 E6.11541
G1 X112.068 Y99.135 E6.13449
G1 X112.112 Y99.412 E6.14316
G1 X112.149 Y100.000 E6.16140
G1 X112.113 Y100.583 E6.17946
G1 X112.002 Y101.162 E6.19770
G1 X111.924 Y101.432 E6.20640
G1 X111.705 Y101.985 E6.22480
G1 X111.577 Y102.235 E6.23350
G1 X111.261 Y102.733 E6.25174
G1 X110.889 Y103.183 E6.26980
G1 X110.460 Y103.586 E6.28804
G1 X110.237 Y103.758 E6.29674
G1 X109.735 Y104.077 E6.31514
G1 X109.485 Y104.205 E6.32384
G1 X108.932 Y104.423 E6.34222
G1 X108.636 Y104.508 E6.35176
G1 X108.083 Y104.613 E6.36917
G1 X107.489 Y104.650 E6.38759
G1 X87.925 Y104.650 E6.99292
G1 X88.100 Y104.217 F7800.000
G1 X103.437 Y102.869 F7800.000
G1 F1800
G1 X89.443 Y102.869 E7.43469
G1 X89.443 Y102.232 E7.45482
G1 X103.103 Y102.232 E7.88605
G1 X102.842 Y101.594 E7.90780
G1 X89.443 Y101.594 E8.33078
G1 X89.443 Y100.956 E8.35091
G1 X102.658 Y100.956 E8.76806
G1 X102.597 Y100.319 E8.78828
G1 X89.443 Y100.319 E9.20353
G1 X89.443 Y99.681 E9.22366
G1 X102.597 Y99.681 E9.63891
G1 X102.658 Y99.044 E9.65913
G1 X89.443 Y99.044 E10.07629
G1 X89.443 Y98.406 E10.09641
G1 X102.842 Y98.406 E10.51940
G1 X103.103 Y97.769 E10.54115
G1 X89.443 Y97.769 E10.97237
G1 X89.443 Y97.131 E10.99250
G1 X103.437 Y97.131 E11.43427
G1 X106.400 Y96.072 F7800.000
G1 F1800
G1 X106.974 Y96.017 E11.46066
G1 X107.480 Y96.000 E11.48386
G1 X107.818 Y96.016 E11.49935
G1 X108.247 Y96.070 E11.51915
G1 X108.972 Y96.280 E11.55371
G1 X109.424 Y96.501 E11.57673
G1 X109.860 Y96.778 E11.60042
G1 X110.227 Y97.073 E11.62197
G1 X110.588 Y97.466 E11.64641
G1 X110.754 Y97.675 E11.65862
G1 X111.113 Y98.283 E11.69098
G1 X111.297 Y98.744 E11.71370
G1 X111.433 Y99.268 E11.73848
G1 X111.500 Y100.000 E11.77215
G1 X111.462 Y100.500 E11.79514
G1 X111.367 Y101.009 E11.81884
G1 X111.309 Y101.221 E11.82890
G1 X111.113 Y101.718 E11.85334
G1 X110.717 Y102.376 E11.88854
G1 X110.258 Y102.891 E11.92013
G1 X109.860 Y103.222 E11.94381
G1 X109.410 Y103.507 E11.96822
G1 X109.000 Y103.704 E11.98905
G1 X108.721 Y103.802 E12.00258
G1 X108.279 Y103.919 E12.02352
G1 X108.001 Y103.962 E12.03641
G1 X107.469 Y104.000 E12.06086
G1 X106.382 Y103.941 E12.11069
G1 X107.225 Y103.654 F7800.000
G1 F1800
G1 X107.474 Y103.686 E12.10976
G1 X107.769 Y103.980 E12.10821
G1 X108.218 Y103.931 E12.10653
G1 X108.485 Y103.870 E12.10551
G1 X108.942 Y103.727 E12.10373
G1 X109.410 Y103.507 E12.10180
G1 X109.860 Y103.222 E12.09982
G1 X110.213 Y102.934 E12.09813
G1 X110.411 Y102.734 E12.09708
G1 X110.736 Y102.351 E12.09521
G1 X111.113 Y101.718 E12.09247
G1 X111.309 Y101.221 E12.09049
G1 X111.367 Y101.009 E12.08967
G1 X111.462 Y100.500 E12.08775
G1 X111.500 Y100.000 E12.08588
G1 X111.433 Y99.268 E12.08314
G1 X111.297 Y98.744 E12.08113
G1 X111.113 Y98.283 E12.07929
G1 X110.727 Y97.636 E12.07648
G1 X110.227 Y97.073 E12.07368
G1 X109.860 Y96.778 E12.07193
G1 X109.615 Y96.609 E12.07082
G1 X108.972 Y96.280 E12.06814
G1 X108.247 Y96.070 E12.06533
G1 X107.818 Y96.016 E12.06372
G1 X107.409 Y95.997 E12.06220
G1 Z0.650 F7800.000
G1 E10.06220 F2400.00000
G92 E0
G1 X103.769 Y100.712 F7800.000
G1 E2.00000 F2400.00000
G1 F900
G1 X103.701 Y100.000 E2.01986
G1 X103.769 Y99.288 E2.03972
G1 X103.968 Y98.602 E2.05958
G1 X104.293 Y97.965 E2.07944
G1 X104.731 Y97.400 E2.09930
G1 X105.267 Y96.927 E2.11916
G1 X105.883 Y96.563 E2.13902
G1 X106.543 Y96.325 E2.15853
G1 X107.022 Y96.234 E2.17207
G1 F900
G1 X107.434 Y96.206 E2.18352
G1 X107.746 Y96.212 E2.19220
G1 X108.224 Y96.272 E2.20558
G1 X108.898 Y96.468 E2.22509
G1 X109.535 Y96.793 E2.24495
G1 X110.100 Y97.231 E2.26481
G1 X110.573 Y97.767 E2.28467
G1 X110.931 Y98.372 E2.30418
G1 X111.111 Y98.827 E2.31777
G1 X111.233 Y99.301 E2.33137
G1 X111.299 Y100.000 E2.35088
G1 X111.233 Y100.699 E2.37039
G1 X111.111 Y101.173 E2.38398
G1 X110.931 Y101.628 E2.39757
G1 X110.573 Y102.233 E2.41708
G1 X110.100 Y102.769 E2.43694
G1 X109.535 Y103.207 E2.45680
G1 X108.898 Y103.532 E2.47666
G1 X108.212 Y103.731 E2.49652
G1 X107.513 Y103.797 E2.51604
G1 X107.026 Y103.767 E2.52958
G1 X106.621 Y103.691 E2.54103
G1 X106.320 Y103.608 E2.54970
G1 X105.872 Y103.431 E2.56309
G1 X105.267 Y103.073 E2.58260
G1 X104.731 Y102.600 E2.60246
G1 X104.293 Y102.035 E2.62232
G1 X103.968 Y101.398 E2.64218
G1 X103.790 Y100.784 E2.65995
G1 X104.306 Y100.609 F7800.000
G1 F900
G1 X104.249 Y100.000 E2.67127
G1 X104.306 Y99.391 E2.68258
G1 X104.477 Y98.803 E2.69389
G1 X104.755 Y98.258 E2.70521
G1 X105.130 Y97.774 E2.71652
G1 X105.589 Y97.370 E2.72783
G1 X106.116 Y97.058 E2.73914
G1 X106.688 Y96.852 E2.75038
G1 X107.092 Y96.775 E2.75799
G1 F900
G1 X107.447 Y96.751 E2.76457
G1 X107.706 Y96.756 E2.76937
G1 X108.113 Y96.808 E2.77695
G1 X108.697 Y96.977 E2.78819
G1 X109.242 Y97.255 E2.79950
G1 X109.726 Y97.630 E2.81081
G1 X110.130 Y98.089 E2.82212
G1 X110.440 Y98.612 E2.83337
G1 X110.591 Y98.996 E2.84099
G1 X110.694 Y99.395 E2.84861
G1 X110.751 Y100.000 E2.85985
G1 X110.694 Y100.605 E2.87109
G1 X110.591 Y101.004 E2.87871
G1 X110.440 Y101.388 E2.88633
G1 X110.130 Y101.911 E2.89757
G1 X109.726 Y102.370 E2.90888
G1 X109.242 Y102.745 E2.92019
G1 X108.697 Y103.023 E2.93151
G1 X108.109 Y103.194 E2.94282
G1 X107.504 Y103.251 E2.95406
G1 X107.093 Y103.225 E2.96167
G1 X106.744 Y103.160 E2.96824
G1 X106.493 Y103.091 E2.97304
G1 X106.112 Y102.940 E2.98062
G1 X105.589 Y102.630 E2.99186
G1 X105.130 Y102.226 E3.00317
G1 X104.755 Y101.742 E3.01449
G1 X104.477 Y101.197 E3.02580
G1 X104.327 Y100.681 E3.03573
G1 X104.306 Y100.609 F7800.000
G1 X104.819 Y103.550 F7800.000
G1 F3600
G1 X88.950 Y103.550 E3.47654
G1 X88.950 Y96.450 E3.67378
G1 X104.817 Y96.452 E4.11453
G1 X104.252 Y96.950 E4.13545
G1 X103.738 Y97.612 E4.15875
G1 X103.357 Y98.360 E4.18204
G1 X103.123 Y99.165 E4.20534
G1 X103.044 Y100.000 E4.22864
G1 X103.123 Y100.835 E4.25193
G1 X103.357 Y101.640 E4.27523
G1 X103.738 Y102.388 E4.29853
G1 X104.252 Y103.050 E4.32183
G1 X104.763 Y103.501 E4.34075
G1 X88.295 Y104.205 F7800.000
G1 F3600
G1 X88.295 Y95.795 E4.57435
G1 X107.552 Y95.798 E5.10926
G1 X108.038 Y95.830 E5.12279
G1 X108.533 Y95.925 E5.13681
G1 X109.047 Y96.092 E5.15182
G1 X109.525 Y96.317 E5.16648
G1 X109.981 Y96.606 E5.18149
G1 X110.369 Y96.927 E5.19547
G1 X110.747 Y97.330 E5.21083
G1 X110.894 Y97.519 E5.21747
G1 X111.183 Y97.975 E5.23248
G1 X111.414 Y98.464 E5.24749
G1 X111.495 Y98.689 E5.25413
G1 X111.632 Y99.225 E5.26949
G1 X111.669 Y99.461 E5.27613
G1 X111.703 Y100.000 E5.29114
G1 X111.670 Y100.527 E5.30581
G1 X111.569 Y101.058 E5.32082
G1 X111.502 Y101.287 E5.32746
G1 X111.299 Y101.801 E5.34282
G1 X111.190 Y102.014 E5.34946
G1 X110.901 Y102.471 E5.36447
G1 X110.564 Y102.877 E5.37913
G1 X110.170 Y103.247 E5.39414
G1 X109.981 Y103.394 E5.40079
G1 X109.514 Y103.690 E5.41615
G1 X109.301 Y103.799 E5.42279
G1 X108.792 Y104.000 E5.43801
G1 X108.488 Y104.085 E5.44678
G1 X108.029 Y104.170 E5.45975
G1 X107.475 Y104.205 E5.47516
G1 X88.370 Y104.205 E6.00585
G1 X87.750 Y104.750 F7800.000
G1 F1800
G1 X87.750 Y95.250 E6.18149
G1 X107.570 Y95.252 E6.54792
G1 X108.099 Y95.288 E6.55772
G1 X108.677 Y95.398 E6.56861
G1 X109.248 Y95.584 E6.57971
G1 X109.788 Y95.838 E6.59074
G1 X110.295 Y96.160 E6.60184
G1 X110.749 Y96.535 E6.61272
G1 X111.162 Y96.975 E6.62390
G1 X111.340 Y97.205 E6.62927
G1 X111.662 Y97.712 E6.64037
G1 X111.918 Y98.255 E6.65147
G1 X112.016 Y98.528 E6.65684
G1 X112.166 Y99.114 E6.66801
G1 X112.212 Y99.401 E6.67338
G1 X112.250 Y100.000 E6.68448
G1 X112.212 Y100.595 E6.69551
G1 X112.100 Y101.185 E6.70661
G1 X112.019 Y101.464 E6.71198
G1 X111.796 Y102.026 E6.72316
G1 X111.664 Y102.285 E6.72853
G1 X111.342 Y102.792 E6.73963
G1 X110.962 Y103.251 E6.75065
G1 X110.525 Y103.662 E6.76175
G1 X110.295 Y103.840 E6.76713
G1 X109.785 Y104.164 E6.77830
G1 X109.526 Y104.296 E6.78367
G1 X108.965 Y104.518 E6.79481
G1 X108.610 Y104.616 E6.80162
G1 X108.096 Y104.712 E6.81130
G1 X107.492 Y104.750 E6.82249
G1 X87.825 Y104.750 E7.18610
G1 X88.000 Y104.317 F7800.000
G1 X89.506 Y96.810 F7800.000
G1 F1200
G1 X89.506 Y103.190 E7.36661
G1 X90.172 Y103.190 E7.38547
G1 X90.172 Y96.810 E7.56598
G1 X90.839 Y96.810 E7.58484
G1 X90.839 Y103.190 E7.76536
G1 X91.506 Y103.190 E7.78421
G1 X91.506 Y96.810 E7.96473
G1 X92.172 Y96.810 E7.98359
G1 X92.172 Y103.190 E8.16410
G1 X92.839 Y103.190 E8.18296
G1 X92.839 Y96.810 E8.36348
G1 X93.505 Y96.810 E8.38233
G1 X93.505 Y103.190 E8.56285
G1 X94.172 Y103.190 E8.58171
G1 X94.172 Y96.810 E8.76222
G1 X94.838 Y96.810 E8.78108
G1 X94.838 Y103.190 E8.96159
G1 X95.505 Y103.190 E8.98045
G1 X95.505 Y96.810 E9.16097
G1 X96.172 Y96.810 E9.17982
G1 X96.172 Y103.190 E9.36034
G1 X96.838 Y103.190 E9.37920
G1 X96.838 Y96.810 E9.55971
G1 X97.505 Y96.810 E9.57857
G1 X97.505 Y103.190 E9.75908
G1 X98.171 Y103.190 E9.77794
G1 X98.171 Y96.810 E9.95846
G1 X98.838 Y96.810 E9.97732
G1 X98.838 Y103.190 E10.15783
G1 X99.505 Y103.190 E10.17669
G1 X99.505 Y96.810 E10.35720
G1 X100.171 Y96.810 E10.37606
G1 X100.171 Y103.190 E10.55658
G1 X100.838 Y103.190 E10.57543
G1 X100.838 Y96.810 E10.75595
G1 X101.504 Y96.810 E10.77481
G1 X101.504 Y103.190 E10.95532
G1 X103.504 Y103.190 F7800.000
G1 F1200
G1 X103.504 Y102.765 E10.96735
G1 X102.837 Y101.578 E11.00586
G1 X102.837 Y103.190 E11.05147
G1 X102.171 Y103.190 E11.07032
G1 X102.171 Y96.810 E11.25084
G1 X103.504 Y97.235 F7800.000
G1 F1200
G1 X103.504 Y96.810 E11.26286
G1 X102.837 Y96.810 E11.28172
G1 X102.837 Y98.422 E11.32732
G1 Z0.950 F7800.000
G1 E9.32732 F2400.00000
G92 E0
G1 X103.769 Y100.712 F7800.000
G1 E2.00000 F2400.00000
G1 F900
G1 X103.701 Y100.000 E2.01986
G1 X103.769 Y99.288 E2.03972
G1 X103.968 Y98.602 E2.05958
G1 X104.293 Y97.965 E2.07944
G1 X104.731 Y97.400 E2.09930
G1 X105.267 Y96.927 E2.11916
G1 X105.883 Y96.563 E2.13902
G1 X106.543 Y96.325 E2.15853
G1 X107.021 Y96.234 E2.17204
G1 F900
G1 X107.402 Y96.207 E2.18264
G1 X107.744 Y96.212 E2.19214
G1 X108.224 Y96.272 E2.20558
G1 X108.898 Y96.468 E2.22509
G1 X109.535 Y96.793 E2.24495
G1 X110.100 Y97.231 E2.26481
G1 X110.573 Y97.767 E2.28467
G1 X110.931 Y98.372 E2.30418
G1 X111.111 Y98.827 E2.31777
G1 X111.233 Y99.301 E2.33137
G1 X111.299 Y100.000 E2.35088
G1 X111.233 Y100.699 E2.37039
G1 X111.111 Y101.173 E2.38398
G1 X110.931 Y101.628 E2.39757
G1 X110.573 Y102.233 E2.41708
G1 X110.100 Y102.769 E2.43694
G1 X109.535 Y103.207 E2.45680
G1 X108.898 Y103.532 E2.47666
G1 X108.212 Y103.731 E2.49652
G1 X107.513 Y103.797 E2.51603
G1 X107.024 Y103.767 E2.52963
G1 X106.543 Y103.675 E2.54322
G1 X105.883 Y103.437 E2.56273
G1 X105.267 Y103.073 E2.58259
G1 X104.731 Y102.600 E2.60245
G1 X104.293 Y102.035 E2.62231
G1 X103.968 Y101.398 E2.64217
G1 X103.790 Y100.784 E2.65995
G1 X104.306 Y100.609 F7800.000
G1 F900
G1 X104.249 Y100.000 E2.67126
G1 X104.306 Y99.391 E2.68257
G1 X104.477 Y98.803 E2.69389
G1 X104.755 Y98.258 E2.70520
G1 X105.130 Y97.774 E2.71651
G1 X105.589 Y97.370 E2.72783
G1 X106.116 Y97.058 E2.73914
G1 X106.688 Y96.852 E2.75038
G1 X107.092 Y96.775 E2.75798
G1 F900
