; generated by Slic3r 1.3.0-dev on 2015-12-30 at 15:01:46

; 0.35mm Nozzel for PLA

; external perimeters extrusion width = 0.35mm
; perimeters extrusion width = 0.35mm
; infill extrusion width = 0.35mm
; solid infill extrusion width = 0.35mm
; top infill extrusion width = 0.35mm

M107 ; disable fan
M190 S60 ; set bed temperature and wait for it to be reached
M104 S200 ; set temperature
M42 P17 S255
M300 S200 P500
T0
G28
G1 Z5 F5000
M109 S200 ; set temperature and wait for it to be reached
G21 ; set units to millimeters
G90 ; use absolute coordinates
M83 ; use relative distances for extrusion
G1 E-5.00000 F2760.00000 ; retract
G1 Z0.200 F6000.000 ; move to next layer (0)
; Go to corner every layer
;G1 X1 Y1 F60000
;G4 P2000

G1 X71.953 Y91.292 F6000.000 ; move to first skirt point
G1 E5.50000 F2760.00000 ; unretract
G1 F720
G1 X73.658 Y90.083 E0.06249 ; skirt
G1 X75.933 Y89.592 E0.06960 ; skirt
G1 X119.165 Y89.592 E1.29277 ; skirt
G1 X119.993 Y89.626 E0.02476 ; skirt
G1 X120.946 Y89.746 E0.02875 ; skirt
G1 X121.922 Y89.964 E0.02989 ; skirt
G1 X122.837 Y90.262 E0.02876 ; skirt
G1 X123.754 Y90.659 E0.02991 ; skirt
G1 X124.330 Y90.964 E0.01950 ; skirt
G1 X124.888 Y91.307 E0.01957 ; skirt
G1 X125.666 Y91.872 E0.02875 ; skirt
G1 X126.416 Y92.533 E0.02989 ; skirt
G1 X127.074 Y93.234 E0.02877 ; skirt
G1 X127.687 Y94.024 E0.02990 ; skirt
G1 X128.202 Y94.835 E0.02872 ; skirt
G1 X128.656 Y95.727 E0.02992 ; skirt
G1 X129.009 Y96.620 E0.02872 ; skirt
G1 X129.288 Y97.580 E0.02990 ; skirt
G1 X129.469 Y98.525 E0.02876 ; skirt
G1 X129.541 Y99.173 E0.01951 ; skirt
G1 X129.572 Y99.826 E0.01955 ; skirt
G1 X129.541 Y100.827 E0.02993 ; skirt
G1 X129.420 Y101.779 E0.02872 ; skirt
G1 X129.288 Y102.420 E0.01955 ; skirt
G1 X129.009 Y103.380 E0.02990 ; skirt
G1 X128.661 Y104.262 E0.02835 ; skirt
G1 X128.368 Y104.862 E0.01997 ; skirt
G1 X127.860 Y105.721 E0.02985 ; skirt
G1 X127.483 Y106.257 E0.01961 ; skirt
G1 X127.074 Y106.766 E0.01950 ; skirt
G1 X126.625 Y107.258 E0.01993 ; skirt
G1 X125.933 Y107.907 E0.02837 ; skirt
G1 X125.423 Y108.317 E0.01956 ; skirt
G1 X124.888 Y108.693 E0.01955 ; skirt
G1 X124.029 Y109.201 E0.02986 ; skirt
G1 X123.441 Y109.489 E0.01957 ; skirt
G1 X122.547 Y109.843 E0.02876 ; skirt
G1 X121.922 Y110.036 E0.01956 ; skirt
G1 X120.946 Y110.254 E0.02989 ; skirt
G1 X119.993 Y110.374 E0.02874 ; skirt
G1 X119.165 Y110.408 E0.02477 ; skirt
G1 X75.933 Y110.408 E1.29277 ; skirt
G1 X73.882 Y110.012 E0.06249 ; skirt
G1 X72.125 Y108.880 E0.06249 ; skirt
G1 X70.917 Y107.175 E0.06249 ; skirt
G1 X70.425 Y104.900 E0.06960 ; skirt
G1 X70.425 Y95.100 E0.29305 ; skirt
G1 X70.821 Y93.048 E0.06249 ; skirt
G1 X71.925 Y91.336 E0.06092 ; skirt
G1 X72.325 Y91.451 F6000.000 ; move to first skirt point
G1 F720
G1 X74.010 Y90.343 E0.06029 ; skirt
G1 X75.933 Y89.969 E0.05861 ; skirt
G1 X119.165 Y89.969 E1.29277 ; skirt
G1 X119.957 Y90.001 E0.02370 ; skirt
G1 X120.887 Y90.119 E0.02804 ; skirt
G1 X121.817 Y90.326 E0.02847 ; skirt
G1 X122.709 Y90.616 E0.02805 ; skirt
G1 X123.583 Y90.995 E0.02849 ; skirt
G1 X124.139 Y91.289 E0.01880 ; skirt
G1 X124.676 Y91.619 E0.01886 ; skirt
G1 X125.435 Y92.170 E0.02804 ; skirt
G1 X126.149 Y92.800 E0.02847 ; skirt
G1 X126.792 Y93.484 E0.02806 ; skirt
G1 X127.375 Y94.236 E0.02848 ; skirt
G1 X127.877 Y95.027 E0.02801 ; skirt
G1 X128.310 Y95.877 E0.02850 ; skirt
G1 X128.655 Y96.748 E0.02802 ; skirt
G1 X128.920 Y97.662 E0.02849 ; skirt
G1 X129.096 Y98.584 E0.02805 ; skirt
G1 X129.165 Y99.209 E0.01881 ; skirt
G1 X129.195 Y99.838 E0.01884 ; skirt
G1 X129.165 Y100.791 E0.02851 ; skirt
G1 X129.048 Y101.721 E0.02801 ; skirt
G1 X128.920 Y102.338 E0.01884 ; skirt
G1 X128.655 Y103.252 E0.02848 ; skirt
G1 X128.315 Y104.112 E0.02764 ; skirt
G1 X128.032 Y104.691 E0.01925 ; skirt
G1 X127.548 Y105.509 E0.02844 ; skirt
G1 X127.185 Y106.026 E0.01890 ; skirt
G1 X126.588 Y106.747 E0.02800 ; skirt
G1 X126.149 Y107.200 E0.01886 ; skirt
G1 X125.684 Y107.624 E0.01883 ; skirt
G1 X124.931 Y108.208 E0.02847 ; skirt
G1 X124.404 Y108.554 E0.01887 ; skirt
G1 X123.583 Y109.005 E0.02801 ; skirt
G1 X123.008 Y109.265 E0.01886 ; skirt
G1 X122.112 Y109.588 E0.02847 ; skirt
G1 X121.204 Y109.821 E0.02803 ; skirt
G1 X120.583 Y109.929 E0.01886 ; skirt
G1 X119.957 Y109.999 E0.01883 ; skirt
G1 X119.165 Y110.031 E0.02371 ; skirt
G1 X75.933 Y110.031 E1.29277 ; skirt
G1 X73.956 Y109.635 E0.06029 ; skirt
G1 X72.285 Y108.508 E0.06029 ; skirt
G1 X71.176 Y106.824 E0.06029 ; skirt
G1 X70.802 Y104.900 E0.05861 ; skirt
G1 X70.802 Y95.100 E0.29305 ; skirt
G1 X71.198 Y93.123 E0.06029 ; skirt
G1 X72.296 Y91.495 E0.05872 ; skirt
G1 X72.696 Y91.618 F6000.000 ; move to first skirt point
G1 F720
G1 X74.357 Y90.615 E0.05801 ; skirt
G1 X75.933 Y90.346 E0.04782 ; skirt
G1 X119.165 Y90.346 E1.29277 ; skirt
G1 X119.922 Y90.377 E0.02264 ; skirt
G1 X120.828 Y90.491 E0.02733 ; skirt
G1 X121.711 Y90.689 E0.02706 ; skirt
G1 X122.581 Y90.971 E0.02734 ; skirt
G1 X123.412 Y91.331 E0.02707 ; skirt
G1 X123.947 Y91.614 E0.01809 ; skirt
G1 X124.464 Y91.931 E0.01815 ; skirt
G1 X125.204 Y92.468 E0.02734 ; skirt
G1 X125.883 Y93.066 E0.02706 ; skirt
G1 X126.509 Y93.733 E0.02735 ; skirt
G1 X127.063 Y94.448 E0.02706 ; skirt
G1 X127.553 Y95.219 E0.02731 ; skirt
G1 X127.964 Y96.026 E0.02708 ; skirt
G1 X128.300 Y96.875 E0.02731 ; skirt
G1 X128.552 Y97.745 E0.02707 ; skirt
G1 X128.724 Y98.643 E0.02734 ; skirt
G1 X128.790 Y99.244 E0.01810 ; skirt
G1 X128.818 Y99.850 E0.01814 ; skirt
G1 X128.790 Y100.756 E0.02709 ; skirt
G1 X128.676 Y101.662 E0.02730 ; skirt
G1 X128.552 Y102.255 E0.01813 ; skirt
G1 X128.300 Y103.125 E0.02707 ; skirt
G1 X127.969 Y103.962 E0.02694 ; skirt
G1 X127.696 Y104.519 E0.01854 ; skirt
G1 X127.236 Y105.297 E0.02702 ; skirt
G1 X126.887 Y105.795 E0.01819 ; skirt
G1 X126.305 Y106.498 E0.02729 ; skirt
G1 X125.883 Y106.934 E0.01815 ; skirt
G1 X125.434 Y107.341 E0.01812 ; skirt
G1 X124.719 Y107.896 E0.02705 ; skirt
G1 X124.212 Y108.229 E0.01816 ; skirt
G1 X123.412 Y108.669 E0.02731 ; skirt
G1 X122.858 Y108.919 E0.01815 ; skirt
G1 X122.007 Y109.226 E0.02706 ; skirt
G1 X121.122 Y109.453 E0.02732 ; skirt
G1 X120.524 Y109.557 E0.01815 ; skirt
G1 X119.922 Y109.623 E0.01812 ; skirt
G1 X119.165 Y109.654 E0.02264 ; skirt
G1 X75.933 Y109.654 E1.29277 ; skirt
G1 X74.034 Y109.258 E0.05801 ; skirt
G1 X72.451 Y108.137 E0.05801 ; skirt
G1 X71.448 Y106.476 E0.05801 ; skirt
G1 X71.179 Y104.900 E0.04782 ; skirt
G1 X71.179 Y95.100 E0.29305 ; skirt
G1 X71.575 Y93.201 E0.05801 ; skirt
G1 X72.666 Y91.661 E0.05644 ; skirt
G1 X73.066 Y91.792 F6000.000 ; move to first skirt point
G1 F720
G1 X74.699 Y90.900 E0.05564 ; skirt
G1 X75.933 Y90.723 E0.03728 ; skirt
G1 X119.165 Y90.723 E1.29277 ; skirt
G1 X119.886 Y90.752 E0.02158 ; skirt
G1 X120.769 Y90.864 E0.02662 ; skirt
G1 X121.606 Y91.051 E0.02564 ; skirt
G1 X122.453 Y91.326 E0.02664 ; skirt
G1 X123.241 Y91.667 E0.02565 ; skirt
G1 X123.755 Y91.938 E0.01739 ; skirt
G1 X124.252 Y92.243 E0.01744 ; skirt
G1 X124.973 Y92.766 E0.02663 ; skirt
G1 X125.616 Y93.333 E0.02564 ; skirt
G1 X126.226 Y93.982 E0.02664 ; skirt
G1 X126.751 Y94.660 E0.02565 ; skirt
G1 X127.228 Y95.411 E0.02660 ; skirt
G1 X127.618 Y96.176 E0.02566 ; skirt
G1 X127.945 Y97.003 E0.02660 ; skirt
G1 X128.184 Y97.827 E0.02565 ; skirt
G1 X128.351 Y98.702 E0.02663 ; skirt
G1 X128.415 Y99.280 E0.01739 ; skirt
G1 X128.442 Y99.862 E0.01743 ; skirt
G1 X128.415 Y100.720 E0.02567 ; skirt
G1 X128.303 Y101.603 E0.02660 ; skirt
G1 X128.184 Y102.173 E0.01743 ; skirt
G1 X127.945 Y102.997 E0.02565 ; skirt
G1 X127.623 Y103.813 E0.02623 ; skirt
G1 X127.360 Y104.348 E0.01783 ; skirt
G1 X126.924 Y105.085 E0.02561 ; skirt
G1 X126.589 Y105.564 E0.01747 ; skirt
G1 X126.022 Y106.249 E0.02659 ; skirt
G1 X125.616 Y106.667 E0.01744 ; skirt
G1 X125.185 Y107.059 E0.01742 ; skirt
G1 X124.507 Y107.584 E0.02564 ; skirt
G1 X124.020 Y107.905 E0.01745 ; skirt
G1 X123.241 Y108.333 E0.02660 ; skirt
G1 X122.709 Y108.573 E0.01744 ; skirt
G1 X121.902 Y108.863 E0.02564 ; skirt
G1 X121.040 Y109.085 E0.02662 ; skirt
G1 X120.465 Y109.185 E0.01744 ; skirt
G1 X119.886 Y109.248 E0.01742 ; skirt
G1 X119.165 Y109.277 E0.02158 ; skirt
G1 X75.933 Y109.277 E1.29277 ; skirt
G1 X74.115 Y108.882 E0.05564 ; skirt
G1 X72.626 Y107.767 E0.05564 ; skirt
G1 X71.734 Y106.134 E0.05564 ; skirt
G1 X71.556 Y104.900 E0.03728 ; skirt
G1 X71.556 Y95.100 E0.29305 ; skirt
G1 X71.952 Y93.282 E0.05564 ; skirt
G1 X73.035 Y91.834 E0.05407 ; skirt
G1 E-5.00000 F2760.00000 ; retract
G1 X120.306 Y103.508 F6000.000 ; move to first perimeter point
G1 E5.50000 F2760.00000 ; unretract
G1 F1260
G1 X119.849 Y103.625 E0.01413 ; perimeter
G1 X119.167 Y103.690 E0.02049 ; perimeter
G1 X118.475 Y103.624 E0.02077 ; perimeter
G1 X117.808 Y103.431 E0.02077 ; perimeter
G1 X117.190 Y103.115 E0.02077 ; perimeter
G1 X116.641 Y102.690 E0.02077 ; perimeter
G1 X116.188 Y102.176 E0.02049 ; perimeter
G1 X115.935 Y101.777 E0.01413 ; perimeter
G1 X115.733 Y101.349 E0.01413 ; perimeter
G1 X115.542 Y100.691 E0.02049 ; perimeter
G1 X115.477 Y100.000 E0.02077 ; perimeter
G1 X115.542 Y99.309 E0.02077 ; perimeter
G1 X115.736 Y98.642 E0.02077 ; perimeter
G1 X116.051 Y98.023 E0.02077 ; perimeter
G1 X116.477 Y97.474 E0.02077 ; perimeter
G1 X116.998 Y97.015 E0.02077 ; perimeter
G1 X117.596 Y96.661 E0.02077 ; perimeter
G1 X118.240 Y96.429 E0.02049 ; perimeter
G1 X118.704 Y96.341 E0.01412 ; perimeter
G1 X119.143 Y96.313 E0.01316 ; perimeter
G1 X119.406 Y96.320 E0.00786 ; perimeter
G1 X119.867 Y96.378 E0.01389 ; perimeter
G1 X120.525 Y96.569 E0.02049 ; perimeter
G1 X121.144 Y96.885 E0.02077 ; perimeter
G1 X121.692 Y97.310 E0.02077 ; perimeter
G1 X122.146 Y97.824 E0.02049 ; perimeter
G1 X122.399 Y98.223 E0.01413 ; perimeter
G1 X122.600 Y98.651 E0.01413 ; perimeter
G1 X122.791 Y99.309 E0.02049 ; perimeter
G1 X122.856 Y100.000 E0.02077 ; perimeter
G1 X122.791 Y100.691 E0.02077 ; perimeter
G1 X122.597 Y101.358 E0.02077 ; perimeter
G1 X122.282 Y101.977 E0.02077 ; perimeter
G1 X121.856 Y102.526 E0.02076 ; perimeter
G1 X121.335 Y102.985 E0.02077 ; perimeter
G1 X120.746 Y103.334 E0.02049 ; perimeter
G1 X120.355 Y103.488 E0.01256 ; perimeter
G1 X120.190 Y103.148 F6000.000 ; move to first perimeter point
G1 F1260
G1 X119.784 Y103.253 E0.01253 ; perimeter
G1 X119.167 Y103.311 E0.01853 ; perimeter
G1 X118.546 Y103.252 E0.01864 ; perimeter
G1 X117.948 Y103.078 E0.01863 ; perimeter
G1 X117.393 Y102.796 E0.01863 ; perimeter
G1 X116.900 Y102.414 E0.01864 ; perimeter
G1 X116.490 Y101.949 E0.01854 ; perimeter
G1 X116.266 Y101.595 E0.01253 ; perimeter
G1 X116.087 Y101.216 E0.01253 ; perimeter
G1 X115.914 Y100.620 E0.01854 ; perimeter
G1 X115.856 Y100.000 E0.01864 ; perimeter
G1 X115.914 Y99.380 E0.01863 ; perimeter
G1 X116.088 Y98.781 E0.01863 ; perimeter
G1 X116.371 Y98.226 E0.01864 ; perimeter
G1 X116.753 Y97.733 E0.01863 ; perimeter
G1 X117.220 Y97.321 E0.01863 ; perimeter
G1 X117.757 Y97.004 E0.01863 ; perimeter
G1 X118.340 Y96.794 E0.01854 ; perimeter
G1 X118.752 Y96.716 E0.01253 ; perimeter
G1 X119.150 Y96.690 E0.01195 ; perimeter
G1 X119.377 Y96.696 E0.00679 ; perimeter
G1 X119.790 Y96.749 E0.01245 ; perimeter
G1 X120.385 Y96.922 E0.01853 ; perimeter
G1 X120.941 Y97.204 E0.01864 ; perimeter
G1 X121.433 Y97.586 E0.01864 ; perimeter
G1 X121.843 Y98.051 E0.01854 ; perimeter
G1 X122.068 Y98.405 E0.01253 ; perimeter
G1 X122.246 Y98.784 E0.01253 ; perimeter
G1 X122.419 Y99.380 E0.01854 ; perimeter
G1 X122.478 Y100.000 E0.01864 ; perimeter
G1 X122.419 Y100.620 E0.01864 ; perimeter
G1 X122.245 Y101.219 E0.01863 ; perimeter
G1 X121.962 Y101.774 E0.01864 ; perimeter
G1 X121.580 Y102.267 E0.01863 ; perimeter
G1 X121.113 Y102.679 E0.01864 ; perimeter
G1 X120.579 Y102.994 E0.01854 ; perimeter
G1 X120.238 Y103.129 E0.01096 ; perimeter
G1 X120.120 Y103.492 F6000.000 ; move inwards before travel
G1 E-5.00000 F2760.00000 ; retract
G1 X76.520 Y104.313 F6000.000 ; move to first perimeter point
G1 E5.50000 F2760.00000 ; unretract
G1 F1440
G1 X76.520 Y95.687 E0.25794 ; perimeter
G1 X119.161 Y95.688 E1.27508 ; perimeter
G1 X119.716 Y95.723 E0.01664 ; perimeter
G1 X119.966 Y95.762 E0.00756 ; perimeter
G1 X120.508 Y95.902 E0.01674 ; perimeter
G1 X120.994 Y96.094 E0.01564 ; perimeter
G1 X121.477 Y96.359 E0.01647 ; perimeter
G1 X121.923 Y96.683 E0.01647 ; perimeter
G1 X122.304 Y97.041 E0.01564 ; perimeter
G1 X122.655 Y97.466 E0.01647 ; perimeter
G1 X122.950 Y97.931 E0.01647 ; perimeter
G1 X123.069 Y98.164 E0.00782 ; perimeter
G1 X123.173 Y98.404 E0.00783 ; perimeter
G1 X123.343 Y98.928 E0.01647 ; perimeter
G1 X123.444 Y99.460 E0.01619 ; perimeter
G1 X123.479 Y100.009 E0.01647 ; perimeter
G1 X123.471 Y100.262 E0.00755 ; perimeter
G1 X123.403 Y100.806 E0.01639 ; perimeter
G1 X123.346 Y101.064 E0.00792 ; perimeter
G1 X123.173 Y101.596 E0.01672 ; perimeter
G1 X123.069 Y101.836 E0.00783 ; perimeter
G1 X122.950 Y102.069 E0.00782 ; perimeter
G1 X122.655 Y102.534 E0.01647 ; perimeter
G1 X122.304 Y102.959 E0.01647 ; perimeter
G1 X122.119 Y103.144 E0.00783 ; perimeter
G1 X121.923 Y103.317 E0.00782 ; perimeter
G1 X121.477 Y103.640 E0.01645 ; perimeter
G1 X120.992 Y103.906 E0.01656 ; perimeter
G1 X120.491 Y104.104 E0.01611 ; perimeter
G1 X120.248 Y104.175 E0.00756 ; perimeter
G1 X119.707 Y104.278 E0.01647 ; perimeter
G1 X119.147 Y104.313 E0.01679 ; perimeter
G1 X76.573 Y104.313 E1.27309 ; perimeter
G1 X76.143 Y104.690 F6000.000 ; move to first perimeter point
G1 F1368
G1 X76.143 Y95.310 E0.28049 ; perimeter
G1 X119.173 Y95.310 E1.28671 ; perimeter
G1 X119.758 Y95.348 E0.01753 ; perimeter
G1 X120.042 Y95.393 E0.00862 ; perimeter
G1 X120.619 Y95.541 E0.01781 ; perimeter
G1 X121.161 Y95.755 E0.01741 ; perimeter
G1 X121.679 Y96.040 E0.01771 ; perimeter
G1 X122.159 Y96.389 E0.01771 ; perimeter
G1 X122.583 Y96.787 E0.01741 ; perimeter
G1 X122.961 Y97.244 E0.01771 ; perimeter
G1 X123.278 Y97.744 E0.01771 ; perimeter
G1 X123.410 Y98.003 E0.00871 ; perimeter
G1 X123.526 Y98.271 E0.00871 ; perimeter
G1 X123.709 Y98.834 E0.01771 ; perimeter
G1 X123.819 Y99.412 E0.01761 ; perimeter
G1 X123.856 Y100.003 E0.01771 ; perimeter
G1 X123.847 Y100.291 E0.00861 ; perimeter
G1 X123.775 Y100.870 E0.01744 ; perimeter
G1 X123.710 Y101.163 E0.00898 ; perimeter
G1 X123.526 Y101.729 E0.01780 ; perimeter
G1 X123.410 Y101.997 E0.00871 ; perimeter
G1 X123.278 Y102.256 E0.00871 ; perimeter
G1 X122.961 Y102.756 E0.01771 ; perimeter
G1 X122.583 Y103.213 E0.01771 ; perimeter
G1 X122.377 Y103.419 E0.00871 ; perimeter
G1 X122.159 Y103.611 E0.00871 ; perimeter
G1 X121.680 Y103.959 E0.01770 ; perimeter
G1 X121.152 Y104.248 E0.01798 ; perimeter
G1 X120.613 Y104.461 E0.01734 ; perimeter
G1 X120.336 Y104.542 E0.00862 ; perimeter
G1 X119.754 Y104.653 E0.01771 ; perimeter
G1 X119.159 Y104.690 E0.01785 ; perimeter
G1 X76.196 Y104.690 E1.28472 ; perimeter
G1 X76.318 Y104.387 F6000.000 ; move inwards before travel
G1 E-5.00000 F2760.00000 ; retract
G1 X117.795 Y103.879 F6000.000 ; move to first infill point
G1 E5.50000 F2760.00000 ; unretract
G1 F720
G1 X118.425 Y103.967 E-0.00217 ; infill
G1 X119.215 Y104.004 E-0.00269 ; infill
G1 X118.902 Y104.092 F6000.000 ; move to first infill point
G1 F1800
G1 X118.683 Y103.873 E0.00934 ; infill
G1 X118.364 Y104.092 E0.01167 ; infill
G1 X118.020 Y103.748 E0.01469 ; infill
G1 X117.102 Y103.369 F6000.000 ; move to first infill point
G1 F1800
G1 X117.826 Y104.092 E0.03087 ; infill
G1 X117.288 Y104.092 E0.01623 ; infill
G1 X109.103 Y95.908 E0.34916 ; infill
G1 X109.641 Y95.908 E0.01623 ; infill
G1 X115.777 Y102.044 E0.26177 ; infill
G1 X115.418 Y101.147 F6000.000 ; move to first infill point
G1 F1800
G1 X110.179 Y95.908 E0.22351 ; infill
G1 X110.717 Y95.908 E0.01623 ; infill
G1 X115.293 Y100.484 E0.19522 ; infill
G1 X115.270 Y99.923 E0.01695 ; infill
G1 X111.255 Y95.908 E0.17127 ; infill
G1 X111.793 Y95.908 E0.01623 ; infill
G1 X115.316 Y99.431 E0.15030 ; infill
G1 X115.422 Y98.999 E0.01342 ; infill
G1 X112.331 Y95.908 E0.13188 ; infill
G1 X112.869 Y95.908 E0.01623 ; infill
G1 X115.548 Y98.586 E0.11427 ; infill
G1 X115.729 Y98.230 E0.01207 ; infill
G1 X113.407 Y95.908 E0.09906 ; infill
G1 X113.945 Y95.908 E0.01623 ; infill
