; generated by Slic3r 1.3.0-dev on 2015-12-30 at 20:44:04

; 0.35mm Nozzel for PLA

; external perimeters extrusion width = 0.35mm
; perimeters extrusion width = 0.35mm
; infill extrusion width = 0.35mm
; solid infill extrusion width = 0.35mm
; top infill extrusion width = 0.35mm

M107 ; disable fan
M190 S60 ; set bed temperature and wait for it to be reached
M104 S200 ; set temperature
M42 P17 S255
M300 S200 P500
T0
G28
G1 Z5 F5000
M109 S200 ; set temperature and wait for it to be reached
G21 ; set units to millimeters
G90 ; use absolute coordinates
M83 ; use relative distances for extrusion
G1 E-5.00000 F2760.00000 ; retract
G1 Z0.200 F6000.000 ; move to next layer (0)
; Go to corner every layer
;G1 X1 Y1 F60000
;G4 P2000

G1 X85.953 Y91.292 F6000.000 ; move to first skirt point
G1 E5.50000 F2760.00000 ; unretract
G1 F720
G1 X87.658 Y90.083 E0.06249 ; skirt
G1 X89.933 Y89.592 E0.06960 ; skirt
G1 X105.647 Y89.604 E0.46990 ; skirt
G1 X106.642 Y89.698 E0.02987 ; skirt
G1 X107.587 Y89.878 E0.02876 ; skirt
G1 X108.546 Y90.157 E0.02988 ; skirt
G1 X109.440 Y90.511 E0.02875 ; skirt
G1 X110.331 Y90.965 E0.02988 ; skirt
G1 X111.143 Y91.480 E0.02876 ; skirt
G1 X111.933 Y92.093 E0.02990 ; skirt
G1 X112.633 Y92.751 E0.02874 ; skirt
G1 X113.295 Y93.501 E0.02989 ; skirt
G1 X113.860 Y94.278 E0.02875 ; skirt
G1 X114.368 Y95.139 E0.02989 ; skirt
G1 X114.656 Y95.726 E0.01955 ; skirt
G1 X114.905 Y96.330 E0.01955 ; skirt
G1 X115.202 Y97.245 E0.02875 ; skirt
G1 X115.420 Y98.221 E0.02991 ; skirt
G1 X115.541 Y99.174 E0.02872 ; skirt
G1 X115.572 Y100.174 E0.02992 ; skirt
G1 X115.541 Y100.827 E0.01956 ; skirt
G1 X115.469 Y101.475 E0.01951 ; skirt
G1 X115.288 Y102.420 E0.02876 ; skirt
G1 X115.009 Y103.380 E0.02990 ; skirt
G1 X114.655 Y104.274 E0.02876 ; skirt
G1 X114.368 Y104.861 E0.01954 ; skirt
G1 X114.045 Y105.430 E0.01955 ; skirt
G1 X113.687 Y105.976 E0.01955 ; skirt
G1 X113.302 Y106.490 E0.01918 ; skirt
G1 X112.633 Y107.249 E0.03027 ; skirt
G1 X112.164 Y107.704 E0.01954 ; skirt
G1 X111.666 Y108.128 E0.01955 ; skirt
G1 X111.143 Y108.520 E0.01955 ; skirt
G1 X110.596 Y108.878 E0.01955 ; skirt
G1 X110.028 Y109.202 E0.01955 ; skirt
G1 X109.441 Y109.489 E0.01954 ; skirt
G1 X108.547 Y109.843 E0.02876 ; skirt
G1 X107.922 Y110.036 E0.01954 ; skirt
G1 X107.286 Y110.189 E0.01956 ; skirt
G1 X106.300 Y110.345 E0.02987 ; skirt
G1 X105.648 Y110.396 E0.01956 ; skirt
G1 X105.165 Y110.408 E0.01443 ; skirt
G1 X89.933 Y110.408 E0.45548 ; skirt
G1 X87.882 Y110.012 E0.06249 ; skirt
G1 X86.125 Y108.880 E0.06249 ; skirt
G1 X84.917 Y107.175 E0.06249 ; skirt
G1 X84.425 Y104.900 E0.06960 ; skirt
G1 X84.425 Y95.100 E0.29305 ; skirt
G1 X84.821 Y93.048 E0.06249 ; skirt
G1 X85.925 Y91.336 E0.06092 ; skirt
G1 X86.325 Y91.451 F6000.000 ; move to first skirt point
G1 F720
G1 X88.010 Y90.343 E0.06029 ; skirt
G1 X89.933 Y89.969 E0.05861 ; skirt
G1 X105.636 Y89.981 E0.46955 ; skirt
G1 X106.583 Y90.071 E0.02846 ; skirt
G1 X107.505 Y90.246 E0.02805 ; skirt
G1 X108.419 Y90.512 E0.02847 ; skirt
G1 X109.291 Y90.857 E0.02804 ; skirt
G1 X110.139 Y91.289 E0.02846 ; skirt
G1 X110.931 Y91.792 E0.02805 ; skirt
G1 X111.683 Y92.376 E0.02848 ; skirt
G1 X112.367 Y93.017 E0.02803 ; skirt
G1 X112.997 Y93.732 E0.02848 ; skirt
G1 X113.548 Y94.490 E0.02804 ; skirt
G1 X114.032 Y95.310 E0.02847 ; skirt
G1 X114.309 Y95.876 E0.01884 ; skirt
G1 X114.550 Y96.458 E0.01884 ; skirt
G1 X114.840 Y97.350 E0.02804 ; skirt
G1 X115.048 Y98.280 E0.02849 ; skirt
G1 X115.165 Y99.209 E0.02801 ; skirt
G1 X115.195 Y100.162 E0.02850 ; skirt
G1 X115.165 Y100.791 E0.01885 ; skirt
G1 X115.096 Y101.416 E0.01880 ; skirt
G1 X114.920 Y102.338 E0.02805 ; skirt
G1 X114.655 Y103.252 E0.02848 ; skirt
G1 X114.309 Y104.125 E0.02805 ; skirt
G1 X114.033 Y104.690 E0.01883 ; skirt
G1 X113.720 Y105.238 E0.01884 ; skirt
G1 X113.375 Y105.764 E0.01884 ; skirt
G1 X113.004 Y106.258 E0.01847 ; skirt
G1 X112.367 Y106.983 E0.02885 ; skirt
G1 X111.914 Y107.421 E0.01883 ; skirt
G1 X111.435 Y107.830 E0.01884 ; skirt
G1 X110.931 Y108.208 E0.01884 ; skirt
G1 X110.404 Y108.554 E0.01884 ; skirt
G1 X109.857 Y108.866 E0.01884 ; skirt
G1 X109.291 Y109.143 E0.01883 ; skirt
G1 X108.419 Y109.488 E0.02805 ; skirt
G1 X107.817 Y109.673 E0.01884 ; skirt
G1 X107.204 Y109.821 E0.01885 ; skirt
G1 X106.264 Y109.970 E0.02846 ; skirt
G1 X105.636 Y110.019 E0.01885 ; skirt
G1 X105.165 Y110.031 E0.01408 ; skirt
G1 X89.933 Y110.031 E0.45548 ; skirt
G1 X87.956 Y109.635 E0.06029 ; skirt
G1 X86.285 Y108.508 E0.06029 ; skirt
G1 X85.176 Y106.824 E0.06029 ; skirt
G1 X84.802 Y104.900 E0.05861 ; skirt
G1 X84.802 Y95.100 E0.29305 ; skirt
G1 X85.198 Y93.123 E0.06029 ; skirt
G1 X86.296 Y91.495 E0.05872 ; skirt
G1 X86.696 Y91.618 F6000.000 ; move to first skirt point
G1 F720
G1 X88.357 Y90.615 E0.05801 ; skirt
G1 X89.933 Y90.346 E0.04782 ; skirt
G1 X105.624 Y90.358 E0.46919 ; skirt
G1 X106.524 Y90.443 E0.02704 ; skirt
G1 X107.422 Y90.614 E0.02734 ; skirt
G1 X108.291 Y90.867 E0.02705 ; skirt
G1 X109.141 Y91.203 E0.02733 ; skirt
G1 X109.947 Y91.614 E0.02705 ; skirt
G1 X110.719 Y92.104 E0.02734 ; skirt
G1 X111.434 Y92.658 E0.02706 ; skirt
G1 X112.100 Y93.284 E0.02732 ; skirt
G1 X112.699 Y93.963 E0.02706 ; skirt
G1 X113.236 Y94.702 E0.02733 ; skirt
G1 X113.697 Y95.481 E0.02706 ; skirt
G1 X113.963 Y96.026 E0.01813 ; skirt
G1 X114.196 Y96.586 E0.01813 ; skirt
G1 X114.478 Y97.455 E0.02733 ; skirt
G1 X114.676 Y98.339 E0.02707 ; skirt
G1 X114.790 Y99.245 E0.02730 ; skirt
G1 X114.818 Y100.150 E0.02708 ; skirt
G1 X114.790 Y100.756 E0.01814 ; skirt
G1 X114.724 Y101.357 E0.01810 ; skirt
G1 X114.552 Y102.255 E0.02734 ; skirt
G1 X114.300 Y103.125 E0.02707 ; skirt
G1 X113.963 Y103.975 E0.02734 ; skirt
G1 X113.697 Y104.519 E0.01812 ; skirt
G1 X113.396 Y105.046 E0.01814 ; skirt
G1 X113.063 Y105.552 E0.01813 ; skirt
G1 X112.706 Y106.027 E0.01776 ; skirt
G1 X112.100 Y106.716 E0.02743 ; skirt
G1 X111.665 Y107.138 E0.01812 ; skirt
G1 X111.204 Y107.532 E0.01814 ; skirt
G1 X110.719 Y107.896 E0.01813 ; skirt
G1 X110.212 Y108.229 E0.01813 ; skirt
G1 X109.686 Y108.530 E0.01813 ; skirt
G1 X109.141 Y108.797 E0.01813 ; skirt
G1 X108.291 Y109.133 E0.02734 ; skirt
G1 X107.712 Y109.311 E0.01813 ; skirt
G1 X107.122 Y109.453 E0.01814 ; skirt
G1 X106.229 Y109.594 E0.02704 ; skirt
G1 X105.624 Y109.642 E0.01815 ; skirt
G1 X105.165 Y109.654 E0.01372 ; skirt
G1 X89.933 Y109.654 E0.45548 ; skirt
G1 X88.034 Y109.258 E0.05801 ; skirt
G1 X86.451 Y108.137 E0.05801 ; skirt
G1 X85.448 Y106.476 E0.05801 ; skirt
G1 X85.179 Y104.900 E0.04782 ; skirt
G1 X85.179 Y95.100 E0.29305 ; skirt
G1 X85.575 Y93.201 E0.05801 ; skirt
G1 X86.666 Y91.661 E0.05644 ; skirt
G1 X87.066 Y91.792 F6000.000 ; move to first skirt point
G1 F720
G1 X88.699 Y90.900 E0.05564 ; skirt
G1 X89.933 Y90.723 E0.03728 ; skirt
G1 X105.612 Y90.735 E0.46884 ; skirt
G1 X106.465 Y90.815 E0.02563 ; skirt
G1 X107.340 Y90.982 E0.02664 ; skirt
G1 X108.163 Y91.221 E0.02564 ; skirt
G1 X108.991 Y91.549 E0.02663 ; skirt
G1 X109.755 Y91.938 E0.02563 ; skirt
G1 X110.507 Y92.416 E0.02663 ; skirt
G1 X111.185 Y92.941 E0.02565 ; skirt
G1 X111.834 Y93.551 E0.02662 ; skirt
G1 X112.401 Y94.194 E0.02564 ; skirt
G1 X112.924 Y94.914 E0.02662 ; skirt
G1 X113.361 Y95.652 E0.02564 ; skirt
G1 X113.617 Y96.175 E0.01743 ; skirt
G1 X113.841 Y96.713 E0.01742 ; skirt
G1 X114.116 Y97.560 E0.02663 ; skirt
G1 X114.303 Y98.398 E0.02566 ; skirt
G1 X114.415 Y99.280 E0.02660 ; skirt
G1 X114.442 Y100.138 E0.02567 ; skirt
G1 X114.415 Y100.720 E0.01743 ; skirt
G1 X114.351 Y101.298 E0.01739 ; skirt
G1 X114.184 Y102.173 E0.02663 ; skirt
G1 X113.945 Y102.997 E0.02565 ; skirt
G1 X113.617 Y103.825 E0.02663 ; skirt
G1 X113.361 Y104.348 E0.01741 ; skirt
G1 X113.078 Y104.843 E0.01705 ; skirt
G1 X112.589 Y105.563 E0.02602 ; skirt
G1 X112.225 Y106.018 E0.01742 ; skirt
G1 X111.834 Y106.449 E0.01743 ; skirt
G1 X111.416 Y106.855 E0.01742 ; skirt
G1 X110.973 Y107.234 E0.01743 ; skirt
G1 X110.507 Y107.584 E0.01743 ; skirt
G1 X110.020 Y107.905 E0.01743 ; skirt
G1 X109.514 Y108.194 E0.01742 ; skirt
G1 X108.992 Y108.451 E0.01742 ; skirt
G1 X108.163 Y108.778 E0.02663 ; skirt
G1 X107.607 Y108.949 E0.01742 ; skirt
G1 X107.040 Y109.085 E0.01743 ; skirt
G1 X106.193 Y109.219 E0.02563 ; skirt
G1 X105.612 Y109.265 E0.01744 ; skirt
G1 X105.165 Y109.277 E0.01337 ; skirt
G1 X89.933 Y109.277 E0.45548 ; skirt
G1 X88.115 Y108.882 E0.05564 ; skirt
G1 X86.626 Y107.767 E0.05564 ; skirt
G1 X85.734 Y106.134 E0.05564 ; skirt
G1 X85.556 Y104.900 E0.03728 ; skirt
G1 X85.556 Y95.100 E0.29305 ; skirt
G1 X85.952 Y93.282 E0.05564 ; skirt
G1 X87.035 Y91.834 E0.05407 ; skirt
G1 E-5.00000 F2760.00000 ; retract
G1 X107.404 Y102.941 F6000.000 ; move to first perimeter point
G1 E5.50000 F2760.00000 ; unretract
G1 F1260
G1 X107.123 Y103.126 E0.01004 ; perimeter
G1 X106.525 Y103.431 E0.02008 ; perimeter
G1 X105.858 Y103.624 E0.02077 ; perimeter
G1 X105.167 Y103.690 E0.02077 ; perimeter
G1 X104.475 Y103.624 E0.02077 ; perimeter
G1 X103.808 Y103.431 E0.02077 ; perimeter
G1 X103.198 Y103.120 E0.02049 ; perimeter
G1 X102.822 Y102.847 E0.01388 ; perimeter
G1 X102.626 Y102.672 E0.00786 ; perimeter
G1 X102.325 Y102.351 E0.01316 ; perimeter
G1 X102.047 Y101.969 E0.01412 ; perimeter
G1 X101.736 Y101.358 E0.02049 ; perimeter
G1 X101.542 Y100.691 E0.02077 ; perimeter
G1 X101.477 Y100.000 E0.02077 ; perimeter
G1 X101.542 Y99.309 E0.02077 ; perimeter
G1 X101.736 Y98.642 E0.02077 ; perimeter
G1 X102.051 Y98.023 E0.02077 ; perimeter
G1 X102.473 Y97.480 E0.02056 ; perimeter
G1 X102.934 Y97.053 E0.01879 ; perimeter
G1 X103.595 Y96.661 E0.02299 ; perimeter
G1 X104.240 Y96.429 E0.02049 ; perimeter
G1 X104.704 Y96.341 E0.01412 ; perimeter
G1 X105.143 Y96.313 E0.01316 ; perimeter
G1 X105.406 Y96.320 E0.00786 ; perimeter
G1 X105.867 Y96.378 E0.01388 ; perimeter
G1 X106.525 Y96.569 E0.02049 ; perimeter
G1 X107.144 Y96.885 E0.02077 ; perimeter
G1 X107.692 Y97.310 E0.02077 ; perimeter
G1 X108.152 Y97.831 E0.02077 ; perimeter
G1 X108.501 Y98.421 E0.02049 ; perimeter
G1 X108.674 Y98.860 E0.01413 ; perimeter
G1 X108.792 Y99.318 E0.01413 ; perimeter
G1 X108.856 Y100.000 E0.02049 ; perimeter
G1 X108.792 Y100.682 E0.02049 ; perimeter
G1 X108.674 Y101.140 E0.01413 ; perimeter
G1 X108.501 Y101.579 E0.01413 ; perimeter
G1 X108.152 Y102.169 E0.02049 ; perimeter
G1 X107.705 Y102.676 E0.02021 ; perimeter
G1 X107.443 Y102.906 E0.01043 ; perimeter
G1 X107.174 Y102.641 F6000.000 ; move to first perimeter point
G1 F1260
G1 X106.933 Y102.799 E0.00862 ; perimeter
G1 X106.386 Y103.078 E0.01839 ; perimeter
G1 X105.787 Y103.252 E0.01864 ; perimeter
G1 X105.167 Y103.311 E0.01863 ; perimeter
G1 X104.546 Y103.252 E0.01864 ; perimeter
G1 X103.948 Y103.078 E0.01864 ; perimeter
G1 X103.396 Y102.797 E0.01854 ; perimeter
G1 X103.059 Y102.552 E0.01244 ; perimeter
G1 X102.889 Y102.402 E0.00679 ; perimeter
G1 X102.616 Y102.110 E0.01195 ; perimeter
G1 X102.370 Y101.771 E0.01253 ; perimeter
G1 X102.088 Y101.219 E0.01854 ; perimeter
G1 X101.914 Y100.620 E0.01863 ; perimeter
G1 X101.856 Y100.000 E0.01864 ; perimeter
G1 X101.914 Y99.380 E0.01864 ; perimeter
G1 X102.088 Y98.781 E0.01864 ; perimeter
G1 X102.371 Y98.226 E0.01864 ; perimeter
G1 X102.752 Y97.735 E0.01856 ; perimeter
G1 X103.161 Y97.357 E0.01666 ; perimeter
G1 X103.757 Y97.004 E0.02072 ; perimeter
G1 X104.340 Y96.794 E0.01854 ; perimeter
G1 X104.752 Y96.716 E0.01253 ; perimeter
G1 X105.150 Y96.690 E0.01195 ; perimeter
G1 X105.377 Y96.696 E0.00679 ; perimeter
G1 X105.790 Y96.749 E0.01244 ; perimeter
G1 X106.386 Y96.922 E0.01854 ; perimeter
G1 X106.941 Y97.204 E0.01864 ; perimeter
G1 X107.433 Y97.586 E0.01863 ; perimeter
G1 X107.845 Y98.054 E0.01864 ; perimeter
G1 X108.161 Y98.587 E0.01854 ; perimeter
G1 X108.315 Y98.977 E0.01253 ; perimeter
G1 X108.419 Y99.383 E0.01253 ; perimeter
G1 X108.478 Y100.000 E0.01854 ; perimeter
G1 X108.419 Y100.617 E0.01854 ; perimeter
G1 X108.315 Y101.023 E0.01253 ; perimeter
G1 X108.161 Y101.413 E0.01253 ; perimeter
G1 X107.845 Y101.946 E0.01854 ; perimeter
G1 X107.438 Y102.409 E0.01844 ; perimeter
G1 X107.214 Y102.606 E0.00892 ; perimeter
G1 X107.212 Y102.927 F6000.000 ; move inwards before travel
G1 E-5.00000 F2760.00000 ; retract
G1 X101.573 Y101.975 F6000.000 ; move to first perimeter point
G1 X99.032 Y101.648 F6000.000 ; move to first perimeter point
G1 X97.760 Y100.571 F6000.000 ; move to first perimeter point
G1 X97.166 Y100.000 F6000.000 ; move to first perimeter point
G1 X94.833 Y100.000 F6000.000 ; move to first perimeter point
G1 X90.933 Y103.900 F6000.000 ; move to first perimeter point
G1 X90.520 Y104.313 F6000.000 ; move to first perimeter point
G1 E5.50000 F2760.00000 ; unretract
G1 F1440
G1 X90.520 Y95.687 E0.25793 ; perimeter
G1 X105.161 Y95.688 E0.43779 ; perimeter
G1 X105.716 Y95.723 E0.01665 ; perimeter
G1 X105.974 Y95.764 E0.00781 ; perimeter
G1 X106.241 Y95.824 E0.00819 ; perimeter
G1 X106.753 Y95.991 E0.01610 ; perimeter
G1 X107.254 Y96.228 E0.01657 ; perimeter
G1 X107.709 Y96.517 E0.01611 ; perimeter
G1 X107.908 Y96.671 E0.00755 ; perimeter
G1 X108.310 Y97.049 E0.01647 ; perimeter
G1 X108.654 Y97.464 E0.01611 ; perimeter
G1 X108.803 Y97.682 E0.00792 ; perimeter
G1 X109.072 Y98.172 E0.01672 ; perimeter
G1 X109.173 Y98.404 E0.00755 ; perimeter
G1 X109.346 Y98.937 E0.01674 ; perimeter
G1 X109.401 Y99.183 E0.00755 ; perimeter
G1 X109.470 Y99.729 E0.01647 ; perimeter
G1 X109.470 Y100.271 E0.01620 ; perimeter
G1 X109.403 Y100.806 E0.01612 ; perimeter
G1 X109.346 Y101.064 E0.00792 ; perimeter
G1 X109.173 Y101.596 E0.01672 ; perimeter
G1 X109.072 Y101.828 E0.00756 ; perimeter
G1 X108.813 Y102.300 E0.01611 ; perimeter
G1 X108.483 Y102.756 E0.01684 ; perimeter
G1 X108.317 Y102.945 E0.00753 ; perimeter
G1 X107.915 Y103.322 E0.01647 ; perimeter
G1 X107.477 Y103.640 E0.01619 ; perimeter
G1 X107.003 Y103.901 E0.01619 ; perimeter
G1 X106.499 Y104.101 E0.01619 ; perimeter
G1 X105.975 Y104.235 E0.01619 ; perimeter
G1 X105.437 Y104.303 E0.01620 ; perimeter
G1 X90.573 Y104.313 E0.44449 ; perimeter
G1 X90.143 Y104.690 F6000.000 ; move to first perimeter point
G1 F1368
G1 X90.143 Y95.310 E0.28049 ; perimeter
G1 X105.173 Y95.310 E0.44942 ; perimeter
G1 X105.758 Y95.348 E0.01753 ; perimeter
G1 X106.045 Y95.393 E0.00871 ; perimeter
G1 X106.342 Y95.460 E0.00908 ; perimeter
G1 X106.893 Y95.640 E0.01734 ; perimeter
G1 X107.436 Y95.897 E0.01798 ; perimeter
G1 X107.926 Y96.208 E0.01734 ; perimeter
G1 X108.153 Y96.384 E0.00861 ; perimeter
G1 X108.585 Y96.790 E0.01771 ; perimeter
G1 X108.955 Y97.236 E0.01734 ; perimeter
G1 X109.125 Y97.485 E0.00899 ; perimeter
G1 X109.411 Y98.006 E0.01780 ; perimeter
G1 X109.526 Y98.271 E0.00861 ; perimeter
G1 X109.710 Y98.837 E0.01781 ; perimeter
G1 X109.773 Y99.118 E0.00861 ; perimeter
G1 X109.847 Y99.706 E0.01771 ; perimeter
G1 X109.847 Y100.295 E0.01761 ; perimeter
G1 X109.775 Y100.870 E0.01734 ; perimeter
G1 X109.710 Y101.163 E0.00899 ; perimeter
G1 X109.526 Y101.729 E0.01780 ; perimeter
G1 X109.411 Y101.994 E0.00861 ; perimeter
G1 X109.132 Y102.502 E0.01734 ; perimeter
G1 X108.778 Y102.992 E0.01808 ; perimeter
G1 X108.588 Y103.208 E0.00861 ; perimeter
G1 X108.156 Y103.613 E0.01771 ; perimeter
G1 X107.679 Y103.960 E0.01761 ; perimeter
G1 X107.163 Y104.243 E0.01761 ; perimeter
G1 X106.616 Y104.460 E0.01761 ; perimeter
G1 X106.045 Y104.606 E0.01761 ; perimeter
G1 X105.461 Y104.680 E0.01761 ; perimeter
G1 X90.196 Y104.690 E0.45648 ; perimeter
G1 X90.318 Y104.386 F6000.000 ; move inwards before travel
G1 E-5.00000 F2760.00000 ; retract
G1 X103.778 Y103.872 F6000.000 ; move to first infill point
G1 E5.50000 F2760.00000 ; unretract
G1 F720
G1 X104.425 Y103.963 E-0.00223 ; infill
G1 X105.116 Y103.995 E-0.00235 ; infill
G1 X104.902 Y104.083 F6000.000 ; move to first infill point
G1 F1800
G1 X104.694 Y103.874 E0.00889 ; infill
G1 X104.365 Y104.083 E0.01173 ; infill
G1 X104.034 Y103.752 E0.01410 ; infill
G1 X103.125 Y103.380 F6000.000 ; move to first infill point
G1 F1800
G1 X103.828 Y104.084 E0.02997 ; infill
G1 X103.291 Y104.084 E0.01618 ; infill
G1 X95.115 Y95.908 E0.34840 ; infill
G1 X95.652 Y95.908 E0.01619 ; infill
G1 X101.786 Y102.042 E0.26137 ; infill
