; generated by Slic3r 1.3.0-dev on 2015-12-30 at 14:21:24

; 0.35mm Nozzel for PLA

; external perimeters extrusion width = 0.35mm
; perimeters extrusion width = 0.35mm
; infill extrusion width = 0.35mm
; solid infill extrusion width = 0.35mm
; top infill extrusion width = 0.35mm

M107 ; disable fan
M190 S60 ; set bed temperature and wait for it to be reached
M104 S200 ; set temperature
M42 P17 S255
M300 S200 P500
T0
G28
G1 Z5 F5000
M109 S200 ; set temperature and wait for it to be reached
G21 ; set units to millimeters
G90 ; use absolute coordinates
M83 ; use relative distances for extrusion
G1 E-5.00000 F2760.00000 ; retract
G1 Z0.200 F6000.000 ; move to next layer (0)
; Go to corner every layer
;G1 X1 Y1 F60000
;G4 P2000

G1 X83.620 Y91.292 F6000.000 ; move to first skirt point
G1 E5.50000 F2760.00000 ; unretract
G1 F720
G1 X85.325 Y90.083 E0.06249 ; skirt
G1 X87.600 Y89.592 E0.06960 ; skirt
G1 X107.671 Y89.594 E0.60018 ; skirt
G1 X108.326 Y89.626 E0.01962 ; skirt
G1 X109.280 Y89.746 E0.02875 ; skirt
G1 X110.255 Y89.964 E0.02989 ; skirt
G1 X111.170 Y90.261 E0.02875 ; skirt
G1 X112.087 Y90.658 E0.02989 ; skirt
G1 X112.930 Y91.122 E0.02876 ; skirt
G1 X113.756 Y91.683 E0.02988 ; skirt
G1 X114.497 Y92.296 E0.02876 ; skirt
G1 X115.203 Y93.002 E0.02985 ; skirt
G1 X115.817 Y93.744 E0.02878 ; skirt
G1 X116.193 Y94.279 E0.01957 ; skirt
G1 X116.535 Y94.835 E0.01952 ; skirt
G1 X116.989 Y95.725 E0.02987 ; skirt
G1 X117.343 Y96.620 E0.02877 ; skirt
G1 X117.622 Y97.580 E0.02990 ; skirt
G1 X117.802 Y98.523 E0.02871 ; skirt
G1 X117.874 Y99.175 E0.01961 ; skirt
G1 X117.906 Y99.826 E0.01950 ; skirt
G1 X117.874 Y100.825 E0.02988 ; skirt
G1 X117.753 Y101.781 E0.02881 ; skirt
G1 X117.536 Y102.755 E0.02984 ; skirt
G1 X117.239 Y103.670 E0.02877 ; skirt
G1 X116.989 Y104.275 E0.01957 ; skirt
G1 X116.702 Y104.861 E0.01953 ; skirt
G1 X116.378 Y105.430 E0.01955 ; skirt
G1 X116.020 Y105.976 E0.01952 ; skirt
G1 X115.628 Y106.500 E0.01958 ; skirt
G1 X115.203 Y106.998 E0.01957 ; skirt
G1 X114.749 Y107.467 E0.01953 ; skirt
G1 X114.266 Y107.907 E0.01953 ; skirt
G1 X113.756 Y108.317 E0.01956 ; skirt
G1 X113.222 Y108.693 E0.01955 ; skirt
G1 X112.665 Y109.035 E0.01954 ; skirt
G1 X112.087 Y109.342 E0.01956 ; skirt
G1 X111.491 Y109.611 E0.01955 ; skirt
G1 X110.880 Y109.843 E0.01955 ; skirt
G1 X110.255 Y110.036 E0.01954 ; skirt
G1 X109.620 Y110.189 E0.01955 ; skirt
G1 X108.633 Y110.345 E0.02989 ; skirt
G1 X107.981 Y110.396 E0.01954 ; skirt
G1 X107.498 Y110.408 E0.01443 ; skirt
G1 X87.600 Y110.408 E0.59503 ; skirt
G1 X85.548 Y110.012 E0.06249 ; skirt
G1 X83.792 Y108.880 E0.06249 ; skirt
G1 X82.583 Y107.175 E0.06249 ; skirt
G1 X82.092 Y104.900 E0.06960 ; skirt
G1 X82.092 Y95.100 E0.29305 ; skirt
G1 X82.488 Y93.048 E0.06249 ; skirt
G1 X83.592 Y91.336 E0.06092 ; skirt
G1 X83.992 Y91.451 F6000.000 ; move to first skirt point
G1 F720
G1 X85.676 Y90.343 E0.06029 ; skirt
G1 X87.600 Y89.969 E0.05861 ; skirt
G1 X107.659 Y89.971 E0.59983 ; skirt
G1 X108.291 Y90.001 E0.01891 ; skirt
G1 X109.221 Y90.119 E0.02804 ; skirt
G1 X110.150 Y90.326 E0.02848 ; skirt
G1 X111.042 Y90.616 E0.02804 ; skirt
G1 X111.916 Y90.994 E0.02847 ; skirt
G1 X112.738 Y91.446 E0.02805 ; skirt
G1 X113.525 Y91.981 E0.02846 ; skirt
G1 X114.248 Y92.579 E0.02805 ; skirt
G1 X114.920 Y93.252 E0.02844 ; skirt
G1 X115.519 Y93.975 E0.02807 ; skirt
G1 X115.882 Y94.491 E0.01886 ; skirt
G1 X116.210 Y95.027 E0.01881 ; skirt
G1 X116.642 Y95.875 E0.02846 ; skirt
G1 X116.988 Y96.748 E0.02806 ; skirt
G1 X117.254 Y97.662 E0.02848 ; skirt
G1 X117.429 Y98.582 E0.02800 ; skirt
G1 X117.499 Y99.210 E0.01890 ; skirt
G1 X117.529 Y99.838 E0.01880 ; skirt
G1 X117.499 Y100.790 E0.02846 ; skirt
G1 X117.381 Y101.722 E0.02810 ; skirt
G1 X117.174 Y102.650 E0.02843 ; skirt
G1 X116.884 Y103.542 E0.02806 ; skirt
G1 X116.643 Y104.125 E0.01886 ; skirt
G1 X116.366 Y104.690 E0.01882 ; skirt
G1 X116.054 Y105.238 E0.01885 ; skirt
G1 X115.709 Y105.764 E0.01881 ; skirt
G1 X115.330 Y106.269 E0.01887 ; skirt
G1 X114.920 Y106.748 E0.01886 ; skirt
G1 X114.482 Y107.200 E0.01882 ; skirt
G1 X114.017 Y107.624 E0.01883 ; skirt
G1 X113.525 Y108.019 E0.01886 ; skirt
G1 X113.010 Y108.381 E0.01884 ; skirt
G1 X112.473 Y108.710 E0.01883 ; skirt
G1 X111.916 Y109.006 E0.01885 ; skirt
G1 X111.342 Y109.265 E0.01884 ; skirt
G1 X110.752 Y109.488 E0.01884 ; skirt
G1 X110.150 Y109.673 E0.01884 ; skirt
G1 X109.538 Y109.821 E0.01885 ; skirt
G1 X108.597 Y109.970 E0.02847 ; skirt
G1 X107.969 Y110.019 E0.01884 ; skirt
G1 X107.498 Y110.031 E0.01408 ; skirt
G1 X87.600 Y110.031 E0.59503 ; skirt
G1 X85.623 Y109.635 E0.06029 ; skirt
G1 X83.951 Y108.508 E0.06029 ; skirt
G1 X82.843 Y106.824 E0.06029 ; skirt
G1 X82.469 Y104.900 E0.05861 ; skirt
G1 X82.469 Y95.100 E0.29305 ; skirt
G1 X82.865 Y93.123 E0.06029 ; skirt
G1 X83.963 Y91.495 E0.05872 ; skirt
G1 X84.363 Y91.618 F6000.000 ; move to first skirt point
G1 F720
G1 X86.024 Y90.615 E0.05801 ; skirt
G1 X87.600 Y90.346 E0.04782 ; skirt
G1 X107.647 Y90.348 E0.59947 ; skirt
G1 X108.255 Y90.377 E0.01820 ; skirt
G1 X109.162 Y90.491 E0.02733 ; skirt
G1 X110.045 Y90.689 E0.02706 ; skirt
G1 X110.914 Y90.971 E0.02733 ; skirt
G1 X111.745 Y91.330 E0.02706 ; skirt
G1 X112.546 Y91.771 E0.02734 ; skirt
G1 X113.294 Y92.279 E0.02705 ; skirt
G1 X113.998 Y92.862 E0.02734 ; skirt
G1 X114.637 Y93.501 E0.02703 ; skirt
G1 X115.221 Y94.206 E0.02736 ; skirt
G1 X115.570 Y94.703 E0.01815 ; skirt
G1 X115.886 Y95.219 E0.01811 ; skirt
G1 X116.296 Y96.025 E0.02704 ; skirt
G1 X116.633 Y96.875 E0.02735 ; skirt
G1 X116.886 Y97.745 E0.02707 ; skirt
G1 X117.057 Y98.641 E0.02730 ; skirt
G1 X117.123 Y99.246 E0.01819 ; skirt
G1 X117.152 Y99.850 E0.01809 ; skirt
G1 X117.123 Y100.754 E0.02705 ; skirt
G1 X117.009 Y101.663 E0.02739 ; skirt
G1 X116.812 Y102.545 E0.02702 ; skirt
G1 X116.529 Y103.414 E0.02735 ; skirt
G1 X116.296 Y103.975 E0.01815 ; skirt
G1 X116.030 Y104.519 E0.01811 ; skirt
G1 X115.570 Y105.297 E0.02703 ; skirt
G1 X115.221 Y105.794 E0.01815 ; skirt
G1 X114.841 Y106.268 E0.01816 ; skirt
G1 X114.434 Y106.716 E0.01811 ; skirt
G1 X113.998 Y107.138 E0.01813 ; skirt
G1 X113.537 Y107.532 E0.01814 ; skirt
G1 X113.052 Y107.896 E0.01814 ; skirt
G1 X112.546 Y108.229 E0.01813 ; skirt
G1 X112.019 Y108.530 E0.01814 ; skirt
G1 X111.475 Y108.797 E0.01812 ; skirt
G1 X110.914 Y109.029 E0.01814 ; skirt
G1 X110.341 Y109.225 E0.01814 ; skirt
G1 X109.756 Y109.386 E0.01814 ; skirt
G1 X109.162 Y109.509 E0.01814 ; skirt
G1 X108.255 Y109.623 E0.02733 ; skirt
G1 X107.498 Y109.654 E0.02264 ; skirt
G1 X87.600 Y109.654 E0.59503 ; skirt
G1 X85.701 Y109.258 E0.05801 ; skirt
G1 X84.118 Y108.137 E0.05801 ; skirt
G1 X83.115 Y106.476 E0.05801 ; skirt
G1 X82.846 Y104.900 E0.04782 ; skirt
G1 X82.846 Y95.100 E0.29305 ; skirt
G1 X83.242 Y93.201 E0.05801 ; skirt
G1 X84.333 Y91.661 E0.05644 ; skirt
G1 X84.733 Y91.792 F6000.000 ; move to first skirt point
G1 F720
G1 X86.366 Y90.900 E0.05564 ; skirt
G1 X87.600 Y90.723 E0.03728 ; skirt
G1 X107.635 Y90.725 E0.59912 ; skirt
G1 X108.220 Y90.752 E0.01749 ; skirt
G1 X109.103 Y90.864 E0.02662 ; skirt
G1 X109.940 Y91.051 E0.02565 ; skirt
G1 X110.786 Y91.326 E0.02662 ; skirt
G1 X111.573 Y91.666 E0.02564 ; skirt
G1 X112.354 Y92.095 E0.02663 ; skirt
G1 X113.063 Y92.577 E0.02563 ; skirt
G1 X113.749 Y93.145 E0.02664 ; skirt
G1 X114.355 Y93.751 E0.02561 ; skirt
G1 X114.923 Y94.437 E0.02665 ; skirt
G1 X115.258 Y94.915 E0.01744 ; skirt
G1 X115.561 Y95.411 E0.01740 ; skirt
G1 X115.950 Y96.175 E0.02563 ; skirt
G1 X116.278 Y97.003 E0.02664 ; skirt
G1 X116.518 Y97.827 E0.02565 ; skirt
G1 X116.684 Y98.700 E0.02659 ; skirt
G1 X116.748 Y99.281 E0.01748 ; skirt
G1 X116.775 Y99.862 E0.01739 ; skirt
G1 X116.748 Y100.719 E0.02563 ; skirt
G1 X116.636 Y101.604 E0.02667 ; skirt
G1 X116.449 Y102.439 E0.02560 ; skirt
G1 X116.174 Y103.287 E0.02664 ; skirt
G1 X115.950 Y103.825 E0.01744 ; skirt
G1 X115.694 Y104.348 E0.01741 ; skirt
G1 X115.258 Y105.085 E0.02562 ; skirt
G1 X114.923 Y105.563 E0.01744 ; skirt
G1 X114.558 Y106.019 E0.01745 ; skirt
G1 X114.167 Y106.449 E0.01740 ; skirt
G1 X113.749 Y106.855 E0.01742 ; skirt
G1 X113.306 Y107.234 E0.01743 ; skirt
G1 X112.840 Y107.584 E0.01743 ; skirt
G1 X112.354 Y107.905 E0.01742 ; skirt
G1 X111.848 Y108.194 E0.01743 ; skirt
G1 X111.325 Y108.451 E0.01741 ; skirt
G1 X110.787 Y108.674 E0.01743 ; skirt
G1 X110.235 Y108.863 E0.01743 ; skirt
G1 X109.673 Y109.018 E0.01743 ; skirt
G1 X109.103 Y109.136 E0.01743 ; skirt
G1 X108.220 Y109.248 E0.02662 ; skirt
G1 X107.498 Y109.277 E0.02158 ; skirt
G1 X87.600 Y109.277 E0.59503 ; skirt
G1 X85.782 Y108.882 E0.05564 ; skirt
G1 X84.292 Y107.767 E0.05564 ; skirt
G1 X83.400 Y106.134 E0.05564 ; skirt
G1 X83.223 Y104.900 E0.03728 ; skirt
G1 X83.223 Y95.100 E0.29305 ; skirt
G1 X83.618 Y93.282 E0.05564 ; skirt
G1 X84.702 Y91.834 E0.05407 ; skirt
G1 E-5.00000 F2760.00000 ; retract
G1 X109.737 Y102.941 F6000.000 ; move to first perimeter point
G1 E5.50000 F2760.00000 ; unretract
G1 F1260
G1 X109.457 Y103.126 E0.01004 ; perimeter
G1 X108.858 Y103.431 E0.02008 ; perimeter
G1 X108.191 Y103.624 E0.02077 ; perimeter
G1 X107.500 Y103.690 E0.02077 ; perimeter
G1 X106.809 Y103.624 E0.02077 ; perimeter
G1 X106.142 Y103.431 E0.02077 ; perimeter
G1 X105.531 Y103.120 E0.02049 ; perimeter
G1 X105.156 Y102.847 E0.01388 ; perimeter
G1 X104.959 Y102.672 E0.00786 ; perimeter
G1 X104.658 Y102.351 E0.01317 ; perimeter
G1 X104.380 Y101.969 E0.01412 ; perimeter
G1 X104.069 Y101.358 E0.02049 ; perimeter
G1 X103.876 Y100.691 E0.02077 ; perimeter
G1 X103.810 Y100.000 E0.02077 ; perimeter
G1 X103.876 Y99.309 E0.02077 ; perimeter
G1 X104.069 Y98.642 E0.02077 ; perimeter
G1 X104.385 Y98.023 E0.02077 ; perimeter
G1 X104.806 Y97.480 E0.02056 ; perimeter
G1 X105.267 Y97.053 E0.01879 ; perimeter
G1 X105.929 Y96.661 E0.02299 ; perimeter
G1 X106.574 Y96.429 E0.02049 ; perimeter
G1 X107.037 Y96.341 E0.01412 ; perimeter
G1 X107.477 Y96.313 E0.01316 ; perimeter
G1 X107.740 Y96.320 E0.00786 ; perimeter
G1 X108.200 Y96.378 E0.01388 ; perimeter
G1 X108.858 Y96.569 E0.02049 ; perimeter
G1 X109.477 Y96.885 E0.02077 ; perimeter
G1 X110.026 Y97.310 E0.02077 ; perimeter
G1 X110.485 Y97.831 E0.02077 ; perimeter
G1 X110.834 Y98.421 E0.02049 ; perimeter
G1 X111.008 Y98.860 E0.01413 ; perimeter
G1 X111.125 Y99.318 E0.01413 ; perimeter
G1 X111.190 Y100.000 E0.02049 ; perimeter
G1 X111.125 Y100.682 E0.02049 ; perimeter
G1 X111.008 Y101.140 E0.01413 ; perimeter
G1 X110.834 Y101.579 E0.01413 ; perimeter
G1 X110.485 Y102.169 E0.02049 ; perimeter
G1 X110.038 Y102.676 E0.02021 ; perimeter
G1 X109.777 Y102.906 E0.01043 ; perimeter
G1 X109.508 Y102.641 F6000.000 ; move to first perimeter point
G1 F1260
G1 X109.267 Y102.799 E0.00862 ; perimeter
G1 X108.719 Y103.078 E0.01839 ; perimeter
G1 X108.120 Y103.252 E0.01864 ; perimeter
G1 X107.500 Y103.311 E0.01863 ; perimeter
G1 X106.880 Y103.252 E0.01864 ; perimeter
G1 X106.281 Y103.078 E0.01864 ; perimeter
G1 X105.729 Y102.797 E0.01854 ; perimeter
G1 X105.392 Y102.552 E0.01244 ; perimeter
G1 X105.222 Y102.402 E0.00679 ; perimeter
G1 X104.949 Y102.110 E0.01195 ; perimeter
G1 X104.703 Y101.771 E0.01253 ; perimeter
G1 X104.422 Y101.219 E0.01854 ; perimeter
G1 X104.248 Y100.620 E0.01864 ; perimeter
G1 X104.189 Y100.000 E0.01864 ; perimeter
G1 X104.248 Y99.380 E0.01864 ; perimeter
G1 X104.422 Y98.781 E0.01863 ; perimeter
G1 X104.704 Y98.226 E0.01864 ; perimeter
G1 X105.085 Y97.735 E0.01856 ; perimeter
G1 X105.494 Y97.357 E0.01666 ; perimeter
G1 X106.090 Y97.004 E0.02072 ; perimeter
G1 X106.673 Y96.794 E0.01854 ; perimeter
G1 X107.085 Y96.716 E0.01253 ; perimeter
G1 X107.484 Y96.690 E0.01195 ; perimeter
G1 X107.711 Y96.696 E0.00679 ; perimeter
G1 X108.124 Y96.749 E0.01244 ; perimeter
G1 X108.719 Y96.922 E0.01854 ; perimeter
G1 X109.274 Y97.204 E0.01864 ; perimeter
G1 X109.767 Y97.586 E0.01863 ; perimeter
G1 X110.179 Y98.054 E0.01864 ; perimeter
G1 X110.494 Y98.587 E0.01854 ; perimeter
G1 X110.648 Y98.977 E0.01253 ; perimeter
G1 X110.753 Y99.383 E0.01253 ; perimeter
G1 X110.811 Y100.000 E0.01854 ; perimeter
G1 X110.753 Y100.617 E0.01854 ; perimeter
G1 X110.648 Y101.023 E0.01253 ; perimeter
G1 X110.494 Y101.413 E0.01253 ; perimeter
G1 X110.179 Y101.946 E0.01854 ; perimeter
G1 X109.771 Y102.409 E0.01844 ; perimeter
G1 X109.547 Y102.606 E0.00892 ; perimeter
G1 X109.546 Y102.927 F6000.000 ; move inwards before travel
G1 E-5.00000 F2760.00000 ; retract
G1 X103.687 Y101.510 F6000.000 ; move to first perimeter point
G1 X100.797 Y101.192 F6000.000 ; move to first perimeter point
G1 X99.878 Y100.368 F6000.000 ; move to first perimeter point
G1 X99.499 Y100.000 F6000.000 ; move to first perimeter point
G1 X92.500 Y100.000 F6000.000 ; move to first perimeter point
G1 X88.600 Y103.900 F6000.000 ; move to first perimeter point
G1 X88.187 Y104.313 F6000.000 ; move to first perimeter point
G1 E5.50000 F2760.00000 ; unretract
G1 F1440
G1 X88.187 Y95.687 E0.25794 ; perimeter
G1 X107.494 Y95.688 E0.57734 ; perimeter
G1 X108.049 Y95.723 E0.01665 ; perimeter
G1 X108.563 Y95.821 E0.01565 ; perimeter
G1 X109.087 Y95.991 E0.01647 ; perimeter
G1 X109.577 Y96.222 E0.01619 ; perimeter
G1 X110.042 Y96.517 E0.01647 ; perimeter
G1 X110.445 Y96.850 E0.01564 ; perimeter
G1 X110.829 Y97.258 E0.01675 ; perimeter
G1 X110.983 Y97.458 E0.00755 ; perimeter
G1 X111.283 Y97.931 E0.01674 ; perimeter
G1 X111.398 Y98.156 E0.00756 ; perimeter
G1 X111.597 Y98.656 E0.01611 ; perimeter
G1 X111.738 Y99.202 E0.01684 ; perimeter
G1 X111.777 Y99.450 E0.00753 ; perimeter
G1 X111.812 Y100.000 E0.01647 ; perimeter
G1 X111.778 Y100.540 E0.01619 ; perimeter
G1 X111.674 Y101.081 E0.01647 ; perimeter
G1 X111.604 Y101.324 E0.00755 ; perimeter
G1 X111.398 Y101.844 E0.01674 ; perimeter
G1 X111.283 Y102.069 E0.00755 ; perimeter
G1 X110.988 Y102.534 E0.01647 ; perimeter
G1 X110.643 Y102.952 E0.01619 ; perimeter
G1 X110.242 Y103.329 E0.01647 ; perimeter
G1 X110.042 Y103.483 E0.00755 ; perimeter
G1 X109.569 Y103.783 E0.01674 ; perimeter
G1 X109.344 Y103.898 E0.00755 ; perimeter
G1 X108.832 Y104.101 E0.01647 ; perimeter
G1 X108.308 Y104.235 E0.01619 ; perimeter
G1 X107.762 Y104.304 E0.01647 ; perimeter
G1 X107.489 Y104.313 E0.00815 ; perimeter
G1 X88.240 Y104.313 E0.57563 ; perimeter
G1 X87.810 Y104.690 F6000.000 ; move to first perimeter point
G1 F1368
G1 X87.810 Y95.310 E0.28049 ; perimeter
G1 X107.506 Y95.310 E0.58897 ; perimeter
G1 X108.091 Y95.348 E0.01753 ; perimeter
G1 X108.663 Y95.457 E0.01742 ; perimeter
G1 X109.226 Y95.640 E0.01771 ; perimeter
G1 X109.759 Y95.891 E0.01761 ; perimeter
G1 X110.259 Y96.208 E0.01771 ; perimeter
G1 X110.708 Y96.579 E0.01741 ; perimeter
G1 X111.116 Y97.013 E0.01781 ; perimeter
G1 X111.292 Y97.241 E0.00861 ; perimeter
G1 X111.611 Y97.744 E0.01781 ; perimeter
G1 X111.742 Y98.000 E0.00862 ; perimeter
G1 X111.956 Y98.539 E0.01734 ; perimeter
G1 X112.107 Y99.125 E0.01808 ; perimeter
G1 X112.152 Y99.409 E0.00861 ; perimeter
G1 X112.190 Y100.000 E0.01771 ; perimeter
G1 X112.153 Y100.588 E0.01761 ; perimeter
G1 X112.042 Y101.169 E0.01771 ; perimeter
G1 X111.961 Y101.446 E0.00861 ; perimeter
G1 X111.742 Y102.000 E0.01781 ; perimeter
G1 X111.611 Y102.256 E0.00861 ; perimeter
G1 X111.294 Y102.756 E0.01771 ; perimeter
G1 X110.918 Y103.210 E0.01761 ; perimeter
G1 X110.487 Y103.616 E0.01771 ; perimeter
G1 X110.259 Y103.792 E0.00861 ; perimeter
G1 X109.756 Y104.111 E0.01781 ; perimeter
G1 X109.500 Y104.242 E0.00861 ; perimeter
G1 X108.949 Y104.460 E0.01771 ; perimeter
G1 X108.379 Y104.606 E0.01761 ; perimeter
G1 X107.791 Y104.681 E0.01771 ; perimeter
G1 X107.495 Y104.690 E0.00886 ; perimeter
G1 X87.862 Y104.690 E0.58708 ; perimeter
G1 X87.985 Y104.387 F6000.000 ; move inwards before travel
G1 E-5.00000 F2760.00000 ; retract
G1 X106.128 Y103.879 F6000.000 ; move to first infill point
G1 E5.50000 F2760.00000 ; unretract
G1 F720
G1 X106.758 Y103.967 E-0.00217 ; infill
G1 X107.488 Y104.001 E-0.00249 ; infill
G1 X108.087 Y103.948 E-0.00204 ; infill
G1 X107.295 Y104.092 F6000.000 ; move to first infill point
G1 F1800
G1 X107.083 Y103.880 E0.00901 ; infill
G1 X106.762 Y104.092 E0.01154 ; infill
G1 X106.444 Y103.775 E0.01346 ; infill
