; generated by Slic3r 1.3.0-dev on 2015-12-30 at 20:42:11

; external perimeters extrusion width = 0.50mm
; perimeters extrusion width = 0.72mm
; infill extrusion width = 0.72mm
; solid infill extrusion width = 0.72mm
; top infill extrusion width = 0.72mm

M107
M104 S200 ; set temperature
G28 ; home all axes
G1 Z5 F5000 ; lift nozzle

M109 S200 ; set temperature and wait for it to be reached
G21 ; set units to millimeters
G90 ; use absolute coordinates
M82 ; use absolute distances for extrusion
G92 E0
G1 Z0.350 F7800.000
G1 E-2.00000 F2400.00000
G92 E0
G1 X80.082 Y90.753 F7800.000
G1 E2.00000 F2400.00000
G1 F1800
G1 X81.835 Y89.274 E2.07096
G1 X83.987 Y88.481 E2.14192
G1 X85.167 Y88.375 E2.17858
G1 X110.041 Y88.378 E2.94822
G1 F1800
G1 X111.083 Y88.444 E2.98054
G1 X111.496 Y88.496 E2.99342
G1 X112.215 Y88.623 E3.01599
G1 X113.227 Y88.883 E3.04832
G1 X113.918 Y89.118 E3.07090
G1 X114.305 Y89.271 E3.08379
G1 X115.250 Y89.716 E3.11609
G1 X115.884 Y90.076 E3.13867
G1 X116.236 Y90.299 E3.15156
G1 X117.081 Y90.913 E3.18387
G1 X117.402 Y91.178 E3.19675
G1 X117.941 Y91.671 E3.21934
G1 X118.656 Y92.432 E3.25166
G1 X118.921 Y92.753 E3.26453
G1 X119.357 Y93.337 E3.28709
G1 X119.917 Y94.219 E3.31942
G1 X120.260 Y94.863 E3.34201
G1 X120.438 Y95.241 E3.35492
G1 X120.822 Y96.211 E3.38719
G1 X120.951 Y96.607 E3.40010
G1 X121.141 Y97.310 E3.42262
G1 X121.337 Y98.338 E3.45500
G1 X121.419 Y99.062 E3.47754
G1 X121.445 Y99.479 E3.49049
G1 X121.455 Y100.207 E3.51299
G1 X121.419 Y100.938 E3.53566
G1 X121.288 Y101.973 E3.56791
G1 X121.210 Y102.384 E3.58086
G1 X121.038 Y103.091 E3.60339
G1 X120.715 Y104.085 E3.63571
G1 X120.438 Y104.759 E3.65828
G1 X120.260 Y105.137 E3.67118
G1 X119.757 Y106.052 E3.70350
G1 X119.534 Y106.403 E3.71639
G1 X119.113 Y106.999 E3.73895
G1 X118.448 Y107.804 E3.77125
G1 X118.163 Y108.107 E3.78414
G1 X117.637 Y108.614 E3.80673
G1 X116.833 Y109.280 E3.83905
G1 X116.236 Y109.701 E3.86163
G1 X115.884 Y109.924 E3.87452
G1 X114.970 Y110.427 E3.90683
G1 X114.306 Y110.729 E3.92939
G1 X113.918 Y110.882 E3.94230
G1 X112.925 Y111.205 E3.97458
G1 X112.522 Y111.308 E3.98748
G1 X111.807 Y111.455 E4.01006
G1 X110.771 Y111.586 E4.04237
G1 X109.833 Y111.625 E4.07140
G1 X85.167 Y111.625 E4.83462
G1 X82.908 Y111.228 E4.90558
G1 X80.920 Y110.085 E4.97654
G1 X79.441 Y108.332 E5.04751
G1 X78.648 Y106.180 E5.11847
G1 X78.542 Y105.000 E5.15512
G1 X78.542 Y95.000 E5.46453
G1 X78.939 Y92.741 E5.53550
G1 X80.045 Y90.818 E5.60414
G1 E3.60414 F2400.00000
G92 E0
G1 X111.629 Y102.830 F7800.000
G1 E2.00000 F2400.00000
G1 F1800
G1 X111.067 Y103.116 E2.01952
G1 X110.461 Y103.292 E2.03904
G1 X109.844 Y103.351 E2.05821
G1 X109.584 Y103.342 E2.06627
G1 X109.199 Y103.290 E2.07831
G1 X108.600 Y103.116 E2.09761
G1 X108.037 Y102.830 E2.11713
G1 X107.539 Y102.443 E2.13664
G1 X107.126 Y101.974 E2.15599
G1 X106.900 Y101.618 E2.16904
G1 X106.793 Y101.405 E2.17641
G1 X106.647 Y101.035 E2.18872
G1 X106.541 Y100.623 E2.20190
G1 X106.482 Y100.000 E2.22125
G1 X106.541 Y99.372 E2.24077
G1 X106.717 Y98.766 E2.26029
G1 X107.004 Y98.204 E2.27980
G1 X107.390 Y97.706 E2.29932
G1 X107.863 Y97.289 E2.31884
G1 X108.406 Y96.967 E2.33836
G1 X108.995 Y96.756 E2.35771
G1 X109.413 Y96.676 E2.37089
G1 F1800
G1 X109.810 Y96.650 E2.38320
G1 X110.082 Y96.658 E2.39161
G1 X110.468 Y96.710 E2.40367
G1 X111.067 Y96.884 E2.42297
G1 X111.629 Y97.170 E2.44249
G1 X112.128 Y97.557 E2.46201
G1 X112.541 Y98.026 E2.48135
G1 X112.770 Y98.386 E2.49454
G1 X112.951 Y98.772 E2.50774
G1 X113.126 Y99.372 E2.52708
G1 X113.185 Y100.000 E2.54660
G1 X113.126 Y100.628 E2.56612
G1 X112.951 Y101.228 E2.58546
G1 X112.770 Y101.614 E2.59866
G1 X112.541 Y101.974 E2.61185
G1 X112.128 Y102.443 E2.63119
G1 X111.688 Y102.784 E2.64839
G1 X111.629 Y102.830 F7800.000
G1 E0.64839 F2400.00000
G92 E0
G1 X106.717 Y103.400 F7800.000
G1 E2.00000 F2400.00000
G1 F1800
G1 X86.766 Y103.400 E2.61728
G1 X86.766 Y96.600 E2.82770
G1 X106.666 Y96.601 E3.44341
G1 X105.944 Y97.531 E3.47986
G1 X105.550 Y98.304 E3.50669
G1 X105.308 Y99.137 E3.53352
G1 X105.226 Y100.000 E3.56035
G1 X105.306 Y100.838 E3.58639
G1 X105.455 Y101.421 E3.60503
G1 X105.651 Y101.916 E3.62150
G1 X105.811 Y102.235 E3.63254
G1 X106.123 Y102.727 E3.65055
G1 X106.667 Y103.344 E3.67601
G1 X108.374 Y104.025 F7800.000
G1 F1800
G1 X86.142 Y104.025 E4.36390
G1 X86.142 Y95.975 E4.61299
G1 X108.400 Y95.976 E5.30168
G1 X108.454 Y96.286 E5.31143
G1 X108.139 Y96.399 E5.32178
G1 X107.494 Y96.781 E5.34496
G1 X106.933 Y97.276 E5.36813
G1 X106.474 Y97.868 E5.39130
G1 X106.134 Y98.535 E5.41448
G1 X105.925 Y99.254 E5.43765
G1 X105.854 Y100.000 E5.46082
G1 X105.923 Y100.730 E5.48352
G1 X106.051 Y101.228 E5.49943
G1 X106.222 Y101.661 E5.51382
G1 X106.355 Y101.927 E5.52303
G1 X106.624 Y102.351 E5.53856
G1 X107.109 Y102.901 E5.56125
G1 X107.701 Y103.360 E5.58443
G1 X108.443 Y103.738 E5.61018
G1 X108.391 Y103.952 E5.61701
G1 X85.517 Y104.650 F7800.000
G1 F1800
G1 X85.517 Y95.350 E5.90476
G1 X109.850 Y95.351 E6.65765
G1 X110.421 Y95.388 E6.67538
G1 X110.984 Y95.495 E6.69312
G1 X111.545 Y95.677 E6.71135
G1 X112.078 Y95.928 E6.72959
G1 X112.320 Y96.071 E6.73829
G1 X112.797 Y96.418 E6.75652
G1 X113.227 Y96.821 E6.77476
G1 X113.413 Y97.032 E6.78346
G1 X113.747 Y97.491 E6.80105
G1 X114.038 Y98.016 E6.81959
G1 X114.246 Y98.538 E6.83700
G1 X114.400 Y99.130 E6.85591
G1 X114.474 Y99.714 E6.87412
G1 X114.483 Y100.000 E6.88299
G1 X114.474 Y100.286 E6.89186
G1 X114.400 Y100.871 E6.91009
G1 X114.255 Y101.437 E6.92816
G1 X114.038 Y101.985 E6.94639
G1 X113.762 Y102.487 E6.96412
G1 X113.412 Y102.968 E6.98253
G1 X113.227 Y103.179 E6.99123
G1 X112.797 Y103.582 E7.00946
G1 X112.320 Y103.929 E7.02770
G1 X112.078 Y104.072 E7.03640
G1 X111.545 Y104.323 E7.05463
G1 X110.984 Y104.505 E7.07287
G1 X110.710 Y104.566 E7.08157
G1 X110.120 Y104.641 E7.09997
G1 X109.828 Y104.650 E7.10901
G1 X85.592 Y104.650 E7.85891
G1 X85.767 Y104.217 F7800.000
G1 X105.772 Y102.869 F7800.000
G1 F1800
G1 X87.110 Y102.869 E8.44804
G1 X87.110 Y102.232 E8.46816
G1 X105.424 Y102.232 E9.04633
G1 X105.162 Y101.594 E9.06810
G1 X87.110 Y101.594 E9.63796
G1 X87.110 Y100.956 E9.65809
G1 X104.996 Y100.956 E10.22273
G1 X104.931 Y100.319 E10.24296
G1 X87.110 Y100.319 E10.80553
G1 X87.110 Y99.681 E10.82566
G1 X104.931 Y99.681 E11.38824
G1 X104.991 Y99.044 E11.40845
G1 X87.110 Y99.044 E11.97293
G1 X87.110 Y98.406 E11.99306
G1 X105.175 Y98.406 E12.56336
G1 X105.437 Y97.769 E12.58511
G1 X87.110 Y97.769 E13.16366
G1 X87.110 Y97.131 E13.18379
G1 X105.772 Y97.131 E13.77292
G1 X108.734 Y96.072 F7800.000
G1 F1800
G1 X109.307 Y96.017 E13.79931
G1 X109.814 Y96.000 E13.82251
G1 X110.152 Y96.016 E13.83800
G1 X110.627 Y96.080 E13.85997
G1 X111.335 Y96.294 E13.89383
G1 X111.964 Y96.614 E13.92615
G1 X112.379 Y96.923 E13.94986
G1 X112.755 Y97.278 E13.97354
G1 X113.041 Y97.618 E13.99389
G1 X113.328 Y98.055 E14.01782
G1 X113.443 Y98.285 E14.02960
G1 X113.624 Y98.742 E14.05214
G1 X113.763 Y99.252 E14.07635
G1 X113.835 Y100.000 E14.11074
G1 X113.763 Y100.750 E14.14523
G1 X113.631 Y101.234 E14.16822
G1 X113.443 Y101.716 E14.19191
G1 X113.328 Y101.945 E14.20366
G1 X113.041 Y102.382 E14.22760
G1 X112.755 Y102.722 E14.24794
G1 X112.379 Y103.077 E14.27163
G1 X111.964 Y103.386 E14.29533
G1 X111.335 Y103.706 E14.32766
G1 X110.598 Y103.927 E14.36286
G1 X109.844 Y104.000 E14.39759
G1 X108.715 Y103.941 E14.44932
G1 X109.558 Y103.654 F7800.000
G1 F1800
G1 X109.807 Y103.686 E14.44839
G1 X110.106 Y103.983 E14.44682
G1 X110.598 Y103.927 E14.44498
G1 X111.306 Y103.720 E14.44224
G1 X111.771 Y103.492 E14.44031
G1 X112.003 Y103.359 E14.43932
G1 X112.546 Y102.934 E14.43675
G1 X112.755 Y102.722 E14.43564
G1 X113.072 Y102.340 E14.43380
G1 X113.328 Y101.945 E14.43205
G1 X113.443 Y101.716 E14.43109
G1 X113.631 Y101.234 E14.42917
G1 X113.763 Y100.750 E14.42730
G1 X113.835 Y100.000 E14.42450
G1 X113.763 Y99.252 E14.42171
G1 X113.545 Y98.519 E14.41887
G1 X113.340 Y98.075 E14.41705
G1 X113.203 Y97.852 E14.41607
G1 X112.901 Y97.443 E14.41418
G1 X112.591 Y97.109 E14.41249
G1 X112.379 Y96.923 E14.41144
G1 X111.964 Y96.614 E14.40951
G1 X111.306 Y96.280 E14.40677
G1 X110.583 Y96.070 E14.40397
G1 X110.152 Y96.016 E14.40235
G1 X109.742 Y95.997 E14.40083
G1 Z0.650 F7800.000
G1 E12.40083 F2400.00000
G92 E0
G1 X106.130 Y100.814 F7800.000
G1 E2.00000 F2400.00000
G1 F900
G1 X106.067 Y100.474 E2.00960
G1 X106.036 Y99.987 E2.02314
G1 X106.102 Y99.288 E2.04265
G1 X106.301 Y98.602 E2.06251
G1 X106.626 Y97.965 E2.08237
G1 X107.064 Y97.400 E2.10223
G1 X107.601 Y96.927 E2.12209
G1 X108.216 Y96.563 E2.14195
G1 X108.877 Y96.325 E2.16146
G1 X109.356 Y96.234 E2.17501
G1 F900
G1 X109.767 Y96.206 E2.18646
G1 X110.079 Y96.212 E2.19513
G1 X110.557 Y96.272 E2.20852
G1 X111.232 Y96.468 E2.22803
G1 X111.869 Y96.793 E2.24788
G1 X112.434 Y97.231 E2.26775
G1 X112.898 Y97.758 E2.28726
G1 X113.160 Y98.171 E2.30085
G1 X113.369 Y98.614 E2.31444
G1 X113.565 Y99.288 E2.33395
G1 X113.632 Y100.000 E2.35381
G1 X113.565 Y100.712 E2.37367
G1 X113.369 Y101.386 E2.39318
G1 X113.160 Y101.829 E2.40677
G1 X112.898 Y102.242 E2.42037
G1 X112.434 Y102.769 E2.43988
G1 X111.869 Y103.207 E2.45974
G1 X111.232 Y103.532 E2.47960
G1 X110.545 Y103.731 E2.49946
G1 X109.833 Y103.799 E2.51932
G1 X109.122 Y103.731 E2.53918
G1 X108.435 Y103.532 E2.55904
G1 X107.798 Y103.207 E2.57890
G1 X107.233 Y102.769 E2.59876
G1 X106.760 Y102.233 E2.61862
G1 X106.403 Y101.628 E2.63813
G1 X106.225 Y101.180 E2.65151
G1 X106.144 Y100.887 E2.65995
G1 X106.666 Y100.714 F7800.000
G1 F900
G1 X106.608 Y100.407 E2.66573
G1 X106.583 Y99.996 E2.67334
G1 X106.640 Y99.391 E2.68458
G1 X106.811 Y98.803 E2.69589
G1 X107.088 Y98.258 E2.70721
G1 X107.463 Y97.774 E2.71852
G1 X107.922 Y97.370 E2.72983
G1 X108.449 Y97.058 E2.74115
G1 X109.021 Y96.852 E2.75239
G1 X109.425 Y96.775 E2.76000
G1 F900
G1 X109.780 Y96.751 E2.76657
G1 X110.040 Y96.756 E2.77137
G1 X110.446 Y96.808 E2.77895
G1 X111.030 Y96.977 E2.79019
G1 X111.575 Y97.255 E2.80150
G1 X112.059 Y97.630 E2.81281
G1 X112.461 Y98.086 E2.82405
G1 X112.682 Y98.434 E2.83167
G1 X112.857 Y98.807 E2.83929
G1 X113.027 Y99.391 E2.85053
G1 X113.084 Y100.000 E2.86185
G1 X113.027 Y100.609 E2.87316
G1 X112.857 Y101.193 E2.88440
G1 X112.682 Y101.566 E2.89202
G1 X112.461 Y101.914 E2.89964
G1 X112.059 Y102.370 E2.91088
G1 X111.575 Y102.745 E2.92219
G1 X111.030 Y103.023 E2.93351
G1 X110.443 Y103.194 E2.94482
G1 X109.833 Y103.251 E2.95613
G1 X109.224 Y103.194 E2.96745
G1 X108.637 Y103.023 E2.97876
G1 X108.091 Y102.745 E2.99007
G1 X107.608 Y102.370 E3.00139
G1 X107.203 Y101.911 E3.01270
G1 X106.894 Y101.388 E3.02394
G1 X106.743 Y101.007 E3.03152
G1 X106.682 Y100.787 E3.03573
G1 X106.366 Y100.624 F7800.000
G1 X107.049 Y103.550 F7800.000
G1 F3600
G1 X86.616 Y103.550 E3.60331
G1 X86.616 Y96.450 E3.80055
G1 X107.150 Y96.452 E4.37093
G1 X106.585 Y96.950 E4.39184
G1 X106.071 Y97.612 E4.41514
G1 X105.690 Y98.360 E4.43844
G1 X105.456 Y99.165 E4.46174
G1 X105.379 Y99.977 E4.48440
G1 X105.416 Y100.555 E4.50047
G1 X105.504 Y101.027 E4.51381
G1 X105.604 Y101.389 E4.52424
G1 X105.813 Y101.917 E4.54002
G1 X106.228 Y102.619 E4.56268
G1 X107.000 Y103.494 E4.59509
G1 X85.962 Y104.205 F7800.000
G1 F3600
G1 X85.962 Y95.795 E4.82869
G1 X109.885 Y95.798 E5.49323
G1 X110.371 Y95.830 E5.50675
G1 X110.867 Y95.925 E5.52078
G1 X111.381 Y96.092 E5.53579
G1 X111.870 Y96.322 E5.55080
G1 X112.076 Y96.444 E5.55744
G1 X112.513 Y96.761 E5.57245
G1 X112.907 Y97.131 E5.58746
G1 X113.065 Y97.311 E5.59410
G1 X113.390 Y97.758 E5.60946
G1 X113.632 Y98.199 E5.62344
G1 X113.831 Y98.701 E5.63845
G1 X113.962 Y99.212 E5.65311
G1 X114.030 Y99.748 E5.66812
G1 X114.038 Y100.000 E5.67511
G1 X114.030 Y100.252 E5.68210
G1 X113.962 Y100.788 E5.69711
G1 X113.831 Y101.299 E5.71177
G1 X113.632 Y101.801 E5.72679
G1 X113.390 Y102.242 E5.74076
G1 X113.065 Y102.689 E5.75612
G1 X112.907 Y102.869 E5.76276
G1 X112.513 Y103.239 E5.77777
G1 X112.076 Y103.556 E5.79278
G1 X111.870 Y103.678 E5.79942
G1 X111.381 Y103.908 E5.81443
G1 X110.867 Y104.075 E5.82944
G1 X110.633 Y104.127 E5.83609
G1 X110.085 Y104.197 E5.85145
G1 X109.821 Y104.205 E5.85878
G1 X86.037 Y104.205 E6.51945
G1 X85.417 Y104.750 F7800.000
G1 F1800
G1 X85.417 Y95.250 E6.69509
G1 X109.903 Y95.252 E7.14781
G1 X110.432 Y95.288 E7.15760
G1 X111.011 Y95.398 E7.16849
G1 X111.582 Y95.584 E7.17959
G1 X112.125 Y95.840 E7.19069
G1 X112.375 Y95.988 E7.19607
G1 X112.861 Y96.340 E7.20717
G1 X113.298 Y96.751 E7.21827
G1 X113.491 Y96.969 E7.22364
G1 X113.846 Y97.458 E7.23481
G1 X114.129 Y97.974 E7.24569
G1 X114.350 Y98.532 E7.25679
G1 X114.499 Y99.110 E7.26782
G1 X114.574 Y99.706 E7.27892
G1 X114.583 Y100.000 E7.28436
G1 X114.574 Y100.294 E7.28981
G1 X114.499 Y100.890 E7.30091
G1 X114.350 Y101.468 E7.31194
G1 X114.129 Y102.026 E7.32304
G1 X113.846 Y102.542 E7.33392
G1 X113.491 Y103.031 E7.34509
G1 X113.298 Y103.249 E7.35046
G1 X112.861 Y103.660 E7.36156
G1 X112.375 Y104.012 E7.37266
G1 X112.125 Y104.160 E7.37804
G1 X111.582 Y104.416 E7.38913
G1 X111.011 Y104.602 E7.40024
G1 X110.727 Y104.665 E7.40561
G1 X110.128 Y104.741 E7.41678
G1 X109.829 Y104.750 E7.42230
G1 X85.492 Y104.750 E7.87226
G1 X85.667 Y104.317 F7800.000
G1 X87.173 Y103.190 F7800.000
G1 F1200
G1 X87.173 Y96.810 E8.05276
G1 X87.839 Y96.810 E8.07162
G1 X87.839 Y103.190 E8.25213
G1 X88.506 Y103.190 E8.27098
G1 X88.506 Y96.810 E8.45149
G1 X89.172 Y96.810 E8.47034
G1 X89.172 Y103.190 E8.65085
G1 X89.839 Y103.190 E8.66971
G1 X89.839 Y96.810 E8.85021
G1 X90.505 Y96.810 E8.86907
G1 X90.505 Y103.190 E9.04957
G1 X91.172 Y103.190 E9.06843
G1 X91.172 Y96.810 E9.24894
G1 X91.838 Y96.810 E9.26779
G1 X91.838 Y103.190 E9.44830
G1 X92.505 Y103.190 E9.46715
G1 X92.505 Y96.810 E9.64766
G1 X93.171 Y96.810 E9.66652
G1 X93.171 Y103.190 E9.84702
G1 X93.838 Y103.190 E9.86588
G1 X93.838 Y96.810 E10.04638
G1 X94.505 Y96.810 E10.06524
G1 X94.505 Y103.190 E10.24575
G1 X95.171 Y103.190 E10.26460
G1 X95.171 Y96.810 E10.44511
G1 X95.838 Y96.810 E10.46396
G1 X95.838 Y103.190 E10.64447
G1 X96.504 Y103.190 E10.66333
G1 X96.504 Y96.810 E10.84383
G1 X97.171 Y96.810 E10.86269
G1 X97.171 Y103.190 E11.04319
G1 X97.837 Y103.190 E11.06205
G1 X97.837 Y96.810 E11.24256
G1 X98.504 Y96.810 E11.26141
G1 X98.504 Y103.190 E11.44192
G1 X99.170 Y103.190 E11.46077
G1 X99.170 Y96.810 E11.64128
G1 X99.837 Y96.810 E11.66014
G1 X99.837 Y103.190 E11.84064
G1 X100.503 Y103.190 E11.85950
G1 X100.503 Y96.810 E12.04000
G1 X101.170 Y96.810 E12.05886
G1 X101.170 Y103.190 E12.23937
G1 X101.837 Y103.190 E12.25822
G1 X101.837 Y96.810 E12.43873
G1 X102.503 Y96.810 E12.45758
G1 X102.503 Y103.190 E12.63809
G1 X103.170 Y103.190 E12.65695
G1 X103.170 Y96.810 E12.83745
G1 X103.836 Y96.810 E12.85631
G1 X103.836 Y103.190 E13.03681
G1 X104.503 Y103.190 E13.05567
G1 X104.503 Y96.810 E13.23618
G1 X105.836 Y97.237 F7800.000
G1 F1200
G1 X105.836 Y96.810 E13.24826
G1 X105.169 Y96.810 E13.26712
G1 X105.169 Y98.427 E13.31287
G1 X105.169 Y103.190 F7800.000
G1 F1200
G1 X105.169 Y101.551 E13.35924
G1 X105.836 Y102.789 E13.39899
G1 X105.836 Y103.190 E13.41036
G1 Z0.950 F7800.000
G1 E11.41036 F2400.00000
G92 E0
G1 X106.101 Y100.699 F7800.000
G1 E2.00000 F2400.00000
G1 F900
G1 X106.035 Y100.000 E2.01951
G1 X106.102 Y99.288 E2.03937
G1 X106.301 Y98.602 E2.05923
G1 X106.626 Y97.965 E2.07909
G1 X107.064 Y97.400 E2.09895
G1 X107.601 Y96.927 E2.11881
G1 X108.216 Y96.563 E2.13867
G1 X108.877 Y96.325 E2.15818
G1 X109.354 Y96.234 E2.17169
G1 F900
G1 X109.735 Y96.207 E2.18229
G1 X110.077 Y96.212 E2.19179
G1 X110.557 Y96.272 E2.20523
G1 X111.232 Y96.468 E2.22474
G1 X111.869 Y96.793 E2.24460
G1 X112.434 Y97.231 E2.26446
G1 X112.898 Y97.758 E2.28397
G1 X113.160 Y98.171 E2.29756
G1 X113.369 Y98.614 E2.31116
G1 X113.565 Y99.288 E2.33067
G1 X113.632 Y100.000 E2.35053
G1 X113.565 Y100.712 E2.37039
G1 X113.369 Y101.386 E2.38990
G1 X113.160 Y101.829 E2.40349
G1 X112.898 Y102.242 E2.41708
G1 X112.434 Y102.769 E2.43659
G1 X111.869 Y103.207 E2.45646
G1 X111.232 Y103.532 E2.47631
G1 X110.545 Y103.731 E2.49617
G1 X109.833 Y103.799 E2.51603
G1 X109.122 Y103.731 E2.53589
G1 X108.435 Y103.532 E2.55575
G1 X107.798 Y103.207 E2.57561
G1 X107.233 Y102.769 E2.59547
G1 X106.760 Y102.233 E2.61533
