; generated by Slic3r 1.2.9 on 2015-10-09 at 18:45:33

; 0.35mm Nozzel for PLA

; external perimeters extrusion width = 0.35mm
; perimeters extrusion width = 0.35mm
; infill extrusion width = 0.35mm
; solid infill extrusion width = 0.35mm
; top infill extrusion width = 0.35mm

M107 ; disable fan
M190 S60 ; set bed temperature
M104 S200 ; set temperature
M42 P17 S255
M300 S200 P500
T0
G28
G1 Z5 F5000
M109 S200 ; wait for temperature to be reached
G21 ; set units to millimeters
G90 ; use absolute coordinates
M83 ; use relative distances for extrusion
G1 E-5.00000 F2760.00000 ; retract
G1 Z0.200 F6000.000 ; move to next layer (0)
; Go to corner every layer
;G1 X1 Y1 F60000
;G4 P2000

G1 X78.953 Y91.292 F6000.000 ; move to first skirt point
G1 E5.50000 F2760.00000 ; unretract
G1 F720
G1 X80.658 Y90.083 E0.06249 ;  ; skirt
G1 X82.933 Y89.592 E0.06960 ;  ; skirt
G1 X112.165 Y89.592 E0.87413 ;  ; skirt
G1 X112.993 Y89.626 E0.02476 ;  ; skirt
G1 X113.642 Y89.698 E0.01953 ;  ; skirt
G1 X114.287 Y89.811 E0.01958 ;  ; skirt
G1 X114.922 Y89.964 E0.01954 ;  ; skirt
G1 X115.837 Y90.262 E0.02876 ;  ; skirt
G1 X116.754 Y90.659 E0.02990 ;  ; skirt
G1 X117.596 Y91.121 E0.02872 ;  ; skirt
G1 X118.433 Y91.691 E0.03027 ;  ; skirt
G1 X118.933 Y92.093 E0.01919 ;  ; skirt
G1 X119.416 Y92.533 E0.01954 ;  ; skirt
G1 X120.074 Y93.234 E0.02877 ;  ; skirt
G1 X120.687 Y94.024 E0.02990 ;  ; skirt
G1 X121.202 Y94.835 E0.02872 ;  ; skirt
G1 X121.656 Y95.727 E0.02992 ;  ; skirt
G1 X121.905 Y96.330 E0.01952 ;  ; skirt
G1 X122.116 Y96.948 E0.01952 ;  ; skirt
G1 X122.356 Y97.881 E0.02879 ;  ; skirt
G1 X122.512 Y98.867 E0.02986 ;  ; skirt
G1 X122.572 Y99.826 E0.02875 ;  ; skirt
G1 X122.541 Y100.827 E0.02993 ;  ; skirt
G1 X122.420 Y101.779 E0.02872 ;  ; skirt
G1 X122.202 Y102.756 E0.02994 ;  ; skirt
G1 X121.905 Y103.670 E0.02871 ;  ; skirt
G1 X121.656 Y104.274 E0.01954 ;  ; skirt
G1 X121.368 Y104.862 E0.01958 ;  ; skirt
G1 X121.045 Y105.430 E0.01954 ;  ; skirt
G1 X120.687 Y105.976 E0.01952 ;  ; skirt
G1 X120.294 Y106.500 E0.01961 ;  ; skirt
G1 X119.634 Y107.249 E0.02985 ;  ; skirt
G1 X119.164 Y107.704 E0.01954 ;  ; skirt
G1 X118.666 Y108.128 E0.01955 ;  ; skirt
G1 X118.143 Y108.520 E0.01956 ;  ; skirt
G1 X117.596 Y108.879 E0.01956 ;  ; skirt
G1 X116.754 Y109.341 E0.02872 ;  ; skirt
G1 X116.158 Y109.611 E0.01957 ;  ; skirt
G1 X115.218 Y109.950 E0.02989 ;  ; skirt
G1 X114.587 Y110.122 E0.01954 ;  ; skirt
G1 X113.946 Y110.254 E0.01957 ;  ; skirt
G1 X112.993 Y110.374 E0.02874 ;  ; skirt
G1 X112.165 Y110.408 E0.02477 ;  ; skirt
G1 X82.933 Y110.408 E0.87413 ;  ; skirt
G1 X80.882 Y110.012 E0.06249 ;  ; skirt
G1 X79.125 Y108.880 E0.06249 ;  ; skirt
G1 X77.917 Y107.175 E0.06249 ;  ; skirt
G1 X77.425 Y104.900 E0.06960 ;  ; skirt
G1 X77.425 Y95.100 E0.29305 ;  ; skirt
G1 X77.821 Y93.048 E0.06249 ;  ; skirt
G1 X78.925 Y91.336 E0.06092 ;  ; skirt
G1 X79.325 Y91.451 F6000.000 ; move to first skirt point
G1 F720
G1 X81.010 Y90.343 E0.06029 ;  ; skirt
G1 X82.933 Y89.969 E0.05861 ;  ; skirt
G1 X112.165 Y89.969 E0.87413 ;  ; skirt
G1 X112.957 Y90.001 E0.02370 ;  ; skirt
G1 X113.583 Y90.070 E0.01882 ;  ; skirt
G1 X114.204 Y90.179 E0.01887 ;  ; skirt
G1 X114.817 Y90.326 E0.01883 ;  ; skirt
G1 X115.709 Y90.616 E0.02806 ;  ; skirt
G1 X116.583 Y90.995 E0.02848 ;  ; skirt
G1 X117.404 Y91.446 E0.02801 ;  ; skirt
G1 X118.192 Y91.981 E0.02848 ;  ; skirt
G1 X118.914 Y92.579 E0.02805 ;  ; skirt
G1 X119.588 Y93.253 E0.02848 ;  ; skirt
G1 X119.996 Y93.731 E0.01880 ;  ; skirt
G1 X120.375 Y94.236 E0.01890 ;  ; skirt
G1 X120.877 Y95.027 E0.02801 ;  ; skirt
G1 X121.310 Y95.877 E0.02850 ;  ; skirt
G1 X121.550 Y96.458 E0.01882 ;  ; skirt
G1 X121.754 Y97.053 E0.01881 ;  ; skirt
G1 X121.988 Y97.963 E0.02808 ;  ; skirt
G1 X122.136 Y98.902 E0.02844 ;  ; skirt
G1 X122.195 Y99.838 E0.02804 ;  ; skirt
G1 X122.165 Y100.791 E0.02851 ;  ; skirt
G1 X122.048 Y101.721 E0.02801 ;  ; skirt
G1 X121.840 Y102.651 E0.02852 ;  ; skirt
G1 X121.550 Y103.542 E0.02801 ;  ; skirt
G1 X121.310 Y104.124 E0.01883 ;  ; skirt
G1 X121.032 Y104.691 E0.01887 ;  ; skirt
G1 X120.720 Y105.238 E0.01883 ;  ; skirt
G1 X120.375 Y105.764 E0.01881 ;  ; skirt
G1 X119.996 Y106.269 E0.01890 ;  ; skirt
G1 X119.367 Y106.983 E0.02844 ;  ; skirt
G1 X118.914 Y107.421 E0.01883 ;  ; skirt
G1 X118.435 Y107.830 E0.01884 ;  ; skirt
G1 X117.931 Y108.208 E0.01885 ;  ; skirt
G1 X117.404 Y108.554 E0.01885 ;  ; skirt
G1 X116.583 Y109.005 E0.02802 ;  ; skirt
G1 X116.008 Y109.265 E0.01886 ;  ; skirt
G1 X115.112 Y109.588 E0.02847 ;  ; skirt
G1 X114.505 Y109.754 E0.01883 ;  ; skirt
G1 X113.887 Y109.881 E0.01886 ;  ; skirt
G1 X112.957 Y109.999 E0.02803 ;  ; skirt
G1 X112.165 Y110.031 E0.02371 ;  ; skirt
G1 X82.933 Y110.031 E0.87413 ;  ; skirt
G1 X80.956 Y109.635 E0.06029 ;  ; skirt
G1 X79.285 Y108.508 E0.06029 ;  ; skirt
G1 X78.176 Y106.824 E0.06029 ;  ; skirt
G1 X77.802 Y104.900 E0.05861 ;  ; skirt
G1 X77.802 Y95.100 E0.29305 ;  ; skirt
G1 X78.198 Y93.123 E0.06029 ;  ; skirt
G1 X79.296 Y91.495 E0.05872 ;  ; skirt
G1 X79.696 Y91.618 F6000.000 ; move to first skirt point
G1 F720
G1 X81.357 Y90.615 E0.05801 ;  ; skirt
G1 X82.933 Y90.346 E0.04782 ;  ; skirt
G1 X112.165 Y90.346 E0.87413 ;  ; skirt
G1 X112.922 Y90.377 E0.02264 ;  ; skirt
G1 X113.524 Y90.443 E0.01811 ;  ; skirt
G1 X114.122 Y90.547 E0.01816 ;  ; skirt
G1 X114.711 Y90.689 E0.01812 ;  ; skirt
G1 X115.581 Y90.971 E0.02735 ;  ; skirt
G1 X116.412 Y91.331 E0.02707 ;  ; skirt
G1 X117.212 Y91.771 E0.02731 ;  ; skirt
G1 X117.971 Y92.287 E0.02744 ;  ; skirt
G1 X118.434 Y92.659 E0.01777 ;  ; skirt
G1 X118.883 Y93.066 E0.01812 ;  ; skirt
G1 X119.509 Y93.733 E0.02735 ;  ; skirt
G1 X120.063 Y94.448 E0.02707 ;  ; skirt
G1 X120.553 Y95.219 E0.02730 ;  ; skirt
G1 X120.964 Y96.026 E0.02708 ;  ; skirt
G1 X121.196 Y96.586 E0.01811 ;  ; skirt
G1 X121.392 Y97.159 E0.01811 ;  ; skirt
G1 X121.620 Y98.045 E0.02737 ;  ; skirt
G1 X121.761 Y98.938 E0.02703 ;  ; skirt
G1 X121.818 Y99.850 E0.02733 ;  ; skirt
G1 X121.790 Y100.756 E0.02709 ;  ; skirt
G1 X121.676 Y101.662 E0.02730 ;  ; skirt
G1 X121.478 Y102.546 E0.02710 ;  ; skirt
G1 X121.196 Y103.414 E0.02730 ;  ; skirt
G1 X120.964 Y103.974 E0.01812 ;  ; skirt
G1 X120.696 Y104.519 E0.01816 ;  ; skirt
G1 X120.396 Y105.046 E0.01812 ;  ; skirt
G1 X120.063 Y105.552 E0.01811 ;  ; skirt
G1 X119.698 Y106.038 E0.01819 ;  ; skirt
G1 X119.100 Y106.716 E0.02703 ;  ; skirt
G1 X118.665 Y107.138 E0.01813 ;  ; skirt
G1 X118.204 Y107.532 E0.01813 ;  ; skirt
G1 X117.719 Y107.896 E0.01814 ;  ; skirt
G1 X117.212 Y108.229 E0.01814 ;  ; skirt
G1 X116.412 Y108.669 E0.02731 ;  ; skirt
G1 X115.858 Y108.919 E0.01815 ;  ; skirt
G1 X115.007 Y109.226 E0.02705 ;  ; skirt
G1 X114.423 Y109.386 E0.01813 ;  ; skirt
G1 X113.828 Y109.509 E0.01815 ;  ; skirt
G1 X112.922 Y109.623 E0.02732 ;  ; skirt
G1 X112.165 Y109.654 E0.02264 ;  ; skirt
G1 X82.933 Y109.654 E0.87413 ;  ; skirt
G1 X81.034 Y109.258 E0.05801 ;  ; skirt
G1 X79.451 Y108.137 E0.05801 ;  ; skirt
G1 X78.448 Y106.476 E0.05801 ;  ; skirt
G1 X78.179 Y104.900 E0.04782 ;  ; skirt
G1 X78.179 Y95.100 E0.29305 ;  ; skirt
G1 X78.575 Y93.201 E0.05801 ;  ; skirt
G1 X79.666 Y91.661 E0.05644 ;  ; skirt
G1 X80.066 Y91.792 F6000.000 ; move to first skirt point
G1 F720
G1 X81.699 Y90.900 E0.05564 ;  ; skirt
G1 X82.933 Y90.723 E0.03728 ;  ; skirt
G1 X112.165 Y90.723 E0.87413 ;  ; skirt
G1 X112.612 Y90.735 E0.01336 ;  ; skirt
G1 X113.193 Y90.781 E0.01742 ;  ; skirt
G1 X113.769 Y90.864 E0.01742 ;  ; skirt
G1 X114.340 Y90.982 E0.01743 ;  ; skirt
G1 X115.163 Y91.221 E0.02563 ;  ; skirt
G1 X115.991 Y91.549 E0.02662 ;  ; skirt
G1 X116.515 Y91.806 E0.01745 ;  ; skirt
G1 X117.020 Y92.095 E0.01740 ;  ; skirt
G1 X117.729 Y92.577 E0.02565 ;  ; skirt
G1 X118.416 Y93.145 E0.02663 ;  ; skirt
G1 X119.022 Y93.751 E0.02565 ;  ; skirt
G1 X119.589 Y94.437 E0.02659 ;  ; skirt
G1 X120.071 Y95.146 E0.02566 ;  ; skirt
G1 X120.500 Y95.927 E0.02663 ;  ; skirt
G1 X120.841 Y96.713 E0.02564 ;  ; skirt
G1 X121.116 Y97.560 E0.02660 ;  ; skirt
G1 X121.303 Y98.398 E0.02568 ;  ; skirt
G1 X121.415 Y99.280 E0.02659 ;  ; skirt
G1 X121.442 Y100.138 E0.02567 ;  ; skirt
G1 X121.415 Y100.720 E0.01743 ;  ; skirt
G1 X121.351 Y101.298 E0.01739 ;  ; skirt
G1 X121.184 Y102.173 E0.02663 ;  ; skirt
G1 X121.030 Y102.736 E0.01746 ;  ; skirt
G1 X120.740 Y103.542 E0.02559 ;  ; skirt
G1 X120.500 Y104.073 E0.01744 ;  ; skirt
G1 X120.228 Y104.589 E0.01743 ;  ; skirt
G1 X119.924 Y105.085 E0.01740 ;  ; skirt
G1 X119.589 Y105.564 E0.01747 ;  ; skirt
G1 X119.022 Y106.249 E0.02659 ;  ; skirt
G1 X118.616 Y106.667 E0.01744 ;  ; skirt
G1 X117.973 Y107.234 E0.02563 ;  ; skirt
G1 X117.507 Y107.584 E0.01743 ;  ; skirt
G1 X117.020 Y107.905 E0.01743 ;  ; skirt
G1 X116.241 Y108.333 E0.02660 ;  ; skirt
G1 X115.709 Y108.573 E0.01744 ;  ; skirt
G1 X114.902 Y108.863 E0.02564 ;  ; skirt
G1 X114.340 Y109.018 E0.01742 ;  ; skirt
G1 X113.769 Y109.136 E0.01744 ;  ; skirt
G1 X112.886 Y109.248 E0.02662 ;  ; skirt
G1 X112.165 Y109.277 E0.02158 ;  ; skirt
G1 X82.933 Y109.277 E0.87413 ;  ; skirt
G1 X81.115 Y108.882 E0.05564 ;  ; skirt
G1 X79.626 Y107.767 E0.05564 ;  ; skirt
G1 X78.734 Y106.134 E0.05564 ;  ; skirt
G1 X78.556 Y104.900 E0.03728 ;  ; skirt
G1 X78.556 Y95.100 E0.29305 ;  ; skirt
G1 X78.952 Y93.282 E0.05564 ;  ; skirt
G1 X80.035 Y91.834 E0.05407 ;  ; skirt
G1 E-5.00000 F2760.00000 ; retract
G1 X114.135 Y103.120 F6000.000 ; move to first perimeter point
G1 E5.50000 F2760.00000 ; unretract
G1 F1260
G1 X113.525 Y103.431 E0.02049 ;  ; perimeter
G1 X112.858 Y103.624 E0.02077 ;  ; perimeter
G1 X112.167 Y103.690 E0.02077 ;  ; perimeter
G1 X111.475 Y103.624 E0.02077 ;  ; perimeter
G1 X110.808 Y103.431 E0.02077 ;  ; perimeter
G1 X110.198 Y103.120 E0.02049 ;  ; perimeter
G1 X109.822 Y102.847 E0.01388 ;  ; perimeter
G1 X109.626 Y102.672 E0.00787 ;  ; perimeter
G1 X109.325 Y102.351 E0.01316 ;  ; perimeter
G1 X109.047 Y101.969 E0.01412 ;  ; perimeter
G1 X108.736 Y101.358 E0.02049 ;  ; perimeter
G1 X108.542 Y100.691 E0.02077 ;  ; perimeter
G1 X108.477 Y100.000 E0.02077 ;  ; perimeter
G1 X108.542 Y99.309 E0.02077 ;  ; perimeter
G1 X108.736 Y98.642 E0.02077 ;  ; perimeter
G1 X109.051 Y98.023 E0.02077 ;  ; perimeter
G1 X109.477 Y97.474 E0.02077 ;  ; perimeter
G1 X109.998 Y97.015 E0.02077 ;  ; perimeter
G1 X110.596 Y96.661 E0.02077 ;  ; perimeter
G1 X111.240 Y96.429 E0.02049 ;  ; perimeter
G1 X111.704 Y96.341 E0.01412 ;  ; perimeter
G1 X112.143 Y96.313 E0.01316 ;  ; perimeter
G1 X112.406 Y96.320 E0.00786 ;  ; perimeter
G1 X112.867 Y96.378 E0.01389 ;  ; perimeter
G1 X113.525 Y96.569 E0.02049 ;  ; perimeter
G1 X114.144 Y96.885 E0.02077 ;  ; perimeter
G1 X114.692 Y97.310 E0.02077 ;  ; perimeter
G1 X115.146 Y97.824 E0.02049 ;  ; perimeter
G1 X115.399 Y98.223 E0.01413 ;  ; perimeter
G1 X115.600 Y98.651 E0.01413 ;  ; perimeter
G1 X115.791 Y99.309 E0.02049 ;  ; perimeter
G1 X115.856 Y100.000 E0.02077 ;  ; perimeter
G1 X115.791 Y100.691 E0.02077 ;  ; perimeter
G1 X115.597 Y101.358 E0.02077 ;  ; perimeter
G1 X115.286 Y101.969 E0.02049 ;  ; perimeter
G1 X115.013 Y102.344 E0.01388 ;  ; perimeter
G1 X114.839 Y102.541 E0.00787 ;  ; perimeter
G1 X114.517 Y102.842 E0.01317 ;  ; perimeter
G1 X114.178 Y103.089 E0.01255 ;  ; perimeter
G1 X113.938 Y102.797 F6000.000 ; move to first perimeter point
G1 F1260
G1 X113.385 Y103.078 E0.01854 ;  ; perimeter
G1 X112.787 Y103.252 E0.01863 ;  ; perimeter
G1 X112.167 Y103.311 E0.01863 ;  ; perimeter
G1 X111.546 Y103.252 E0.01864 ;  ; perimeter
G1 X110.948 Y103.078 E0.01863 ;  ; perimeter
G1 X110.396 Y102.797 E0.01854 ;  ; perimeter
G1 X110.059 Y102.552 E0.01244 ;  ; perimeter
G1 X109.889 Y102.402 E0.00680 ;  ; perimeter
G1 X109.616 Y102.110 E0.01194 ;  ; perimeter
G1 X109.370 Y101.771 E0.01253 ;  ; perimeter
G1 X109.088 Y101.219 E0.01854 ;  ; perimeter
G1 X108.914 Y100.620 E0.01864 ;  ; perimeter
G1 X108.856 Y100.000 E0.01863 ;  ; perimeter
G1 X108.914 Y99.380 E0.01864 ;  ; perimeter
G1 X109.088 Y98.781 E0.01864 ;  ; perimeter
G1 X109.371 Y98.226 E0.01864 ;  ; perimeter
G1 X109.753 Y97.733 E0.01864 ;  ; perimeter
G1 X110.221 Y97.321 E0.01864 ;  ; perimeter
G1 X110.757 Y97.004 E0.01863 ;  ; perimeter
G1 X111.340 Y96.794 E0.01854 ;  ; perimeter
G1 X111.752 Y96.716 E0.01253 ;  ; perimeter
G1 X112.150 Y96.690 E0.01195 ;  ; perimeter
G1 X112.377 Y96.696 E0.00679 ;  ; perimeter
G1 X112.790 Y96.749 E0.01244 ;  ; perimeter
G1 X113.385 Y96.922 E0.01853 ;  ; perimeter
G1 X113.941 Y97.204 E0.01863 ;  ; perimeter
G1 X114.433 Y97.586 E0.01864 ;  ; perimeter
G1 X114.843 Y98.051 E0.01854 ;  ; perimeter
G1 X115.068 Y98.405 E0.01253 ;  ; perimeter
G1 X115.246 Y98.784 E0.01253 ;  ; perimeter
G1 X115.419 Y99.380 E0.01853 ;  ; perimeter
G1 X115.478 Y100.000 E0.01864 ;  ; perimeter
G1 X115.419 Y100.620 E0.01864 ;  ; perimeter
G1 X115.245 Y101.219 E0.01864 ;  ; perimeter
G1 X114.964 Y101.771 E0.01854 ;  ; perimeter
G1 X114.719 Y102.108 E0.01244 ;  ; perimeter
G1 X114.568 Y102.278 E0.00679 ;  ; perimeter
G1 X114.277 Y102.551 E0.01195 ;  ; perimeter
G1 X113.980 Y102.766 E0.01096 ;  ; perimeter
G1 X113.945 Y103.147 F6000.000 ; move inwards before travel
G1 E-5.00000 F2760.00000 ; retract
G1 X108.195 Y101.020 F6000.000 ; move to first perimeter point
G1 X105.017 Y100.805 F6000.000 ; move to first perimeter point
G1 X104.287 Y100.119 F6000.000 ; move to first perimeter point
G1 X87.833 Y100.000 F6000.000 ; move to first perimeter point
G1 X83.933 Y103.900 F6000.000 ; move to first perimeter point
G1 X83.520 Y104.313 F6000.000 ; move to first perimeter point
G1 E5.50000 F2760.00000 ; unretract
G1 F1440
G1 X83.520 Y95.687 E0.25794 ;  ; perimeter
G1 X112.161 Y95.688 E0.85643 ;  ; perimeter
G1 X112.716 Y95.723 E0.01664 ;  ; perimeter
G1 X112.966 Y95.762 E0.00756 ;  ; perimeter
G1 X113.508 Y95.902 E0.01674 ;  ; perimeter
G1 X113.994 Y96.094 E0.01564 ;  ; perimeter
G1 X114.477 Y96.359 E0.01647 ;  ; perimeter
G1 X114.923 Y96.683 E0.01647 ;  ; perimeter
G1 X115.304 Y97.041 E0.01564 ;  ; perimeter
G1 X115.655 Y97.466 E0.01647 ;  ; perimeter
G1 X115.950 Y97.931 E0.01647 ;  ; perimeter
G1 X116.069 Y98.164 E0.00782 ;  ; perimeter
G1 X116.173 Y98.404 E0.00783 ;  ; perimeter
G1 X116.343 Y98.928 E0.01647 ;  ; perimeter
G1 X116.444 Y99.460 E0.01619 ;  ; perimeter
G1 X116.479 Y100.009 E0.01647 ;  ; perimeter
G1 X116.471 Y100.262 E0.00755 ;  ; perimeter
G1 X116.403 Y100.806 E0.01639 ;  ; perimeter
G1 X116.346 Y101.064 E0.00792 ;  ; perimeter
G1 X116.173 Y101.596 E0.01672 ;  ; perimeter
G1 X116.072 Y101.828 E0.00755 ;  ; perimeter
G1 X115.803 Y102.318 E0.01674 ;  ; perimeter
G1 X115.661 Y102.527 E0.00755 ;  ; perimeter
G1 X115.310 Y102.952 E0.01647 ;  ; perimeter
G1 X114.915 Y103.322 E0.01619 ;  ; perimeter
G1 X114.470 Y103.646 E0.01647 ;  ; perimeter
G1 X114.011 Y103.898 E0.01564 ;  ; perimeter
G1 X113.499 Y104.101 E0.01647 ;  ; perimeter
G1 X112.966 Y104.238 E0.01647 ;  ; perimeter
G1 X112.716 Y104.277 E0.00755 ;  ; perimeter
G1 X112.147 Y104.313 E0.01707 ;  ; perimeter
G1 X83.573 Y104.313 E0.85445 ;  ; perimeter
G1 X83.143 Y104.690 F6000.000 ; move to first perimeter point
G1 F1368
G1 X83.143 Y95.310 E0.28049 ;  ; perimeter
G1 X112.173 Y95.310 E0.86807 ;  ; perimeter
G1 X112.758 Y95.348 E0.01753 ;  ; perimeter
G1 X113.042 Y95.393 E0.00862 ;  ; perimeter
G1 X113.619 Y95.541 E0.01781 ;  ; perimeter
G1 X114.161 Y95.755 E0.01741 ;  ; perimeter
G1 X114.679 Y96.040 E0.01771 ;  ; perimeter
G1 X115.159 Y96.389 E0.01771 ;  ; perimeter
G1 X115.583 Y96.787 E0.01741 ;  ; perimeter
G1 X115.961 Y97.244 E0.01771 ;  ; perimeter
G1 X116.278 Y97.744 E0.01771 ;  ; perimeter
G1 X116.410 Y98.003 E0.00871 ;  ; perimeter
G1 X116.526 Y98.271 E0.00871 ;  ; perimeter
G1 X116.709 Y98.834 E0.01771 ;  ; perimeter
G1 X116.819 Y99.412 E0.01761 ;  ; perimeter
G1 X116.856 Y100.003 E0.01771 ;  ; perimeter
G1 X116.847 Y100.291 E0.00861 ;  ; perimeter
G1 X116.775 Y100.870 E0.01744 ;  ; perimeter
G1 X116.710 Y101.163 E0.00898 ;  ; perimeter
G1 X116.526 Y101.729 E0.01780 ;  ; perimeter
G1 X116.411 Y101.994 E0.00861 ;  ; perimeter
G1 X116.125 Y102.516 E0.01781 ;  ; perimeter
G1 X115.963 Y102.754 E0.00861 ;  ; perimeter
G1 X115.585 Y103.210 E0.01771 ;  ; perimeter
